; generated by PrusaSlicer 2.8.0+win64 on 2024-07-10 at 08:27:21 UTC


;
;
; 

; external perimeters extrusion width = 0.45mm
; perimeters extrusion width = 0.45mm
; infill extrusion width = 0.45mm
; solid infill extrusion width = 0.45mm
; top infill extrusion width = 0.40mm
; first layer extrusion width = 0.42mm

; external perimeters extrusion width = 0.45mm
; perimeters extrusion width = 0.45mm
; infill extrusion width = 0.45mm
; solid infill extrusion width = 0.45mm
; top infill extrusion width = 0.40mm
; first layer extrusion width = 0.42mm

; external perimeters extrusion width = 0.45mm
; perimeters extrusion width = 0.45mm
; infill extrusion width = 0.45mm
; solid infill extrusion width = 0.45mm
; top infill extrusion width = 0.40mm
; first layer extrusion width = 0.42mm

; external perimeters extrusion width = 0.45mm
; perimeters extrusion width = 0.45mm
; infill extrusion width = 0.45mm
; solid infill extrusion width = 0.45mm
; top infill extrusion width = 0.40mm
; first layer extrusion width = 0.42mm

M73 P0 R41
M73 Q0 S42
M201 X1000 Y1000 Z200 E5000 ; sets maximum accelerations, mm/sec^2
M203 X200 Y200 Z12 E120 ; sets maximum feedrates, mm / sec
M204 S1250 T1250 ; sets acceleration (S) and retract acceleration (R), mm/sec^2
M205 X8.00 Y8.00 Z0.40 E4.50 ; sets the jerk limits, mm/sec
M205 S0 T0 ; sets the minimum extruding and travel feed rate, mm/sec

; printing object finDeCourse-SupportFinDeCourse.stl id:1 copy 0
; stop printing object finDeCourse-SupportFinDeCourse.stl id:1 copy 0
; printing object finDeCourse-SupportFinDeCourse.stl id:0 copy 0
; stop printing object finDeCourse-SupportFinDeCourse.stl id:0 copy 0
; printing object finDeCourse-SupportFinDeCourse.stl id:2 copy 0
; stop printing object finDeCourse-SupportFinDeCourse.stl id:2 copy 0
; printing object finDeCourse-SupportFinDeCourse.stl id:3 copy 0
; stop printing object finDeCourse-SupportFinDeCourse.stl id:3 copy 0

;TYPE:Custom
M862.3 P "MK3S" ; printer model check
M862.1 P0.4 ; nozzle diameter check
M115 U3.13.3 ; tell printer latest fw version
G90 ; use absolute coordinates
M83 ; extruder relative mode
M104 S215 ; set extruder temp
M140 S60 ; set bed temp
M190 S60 ; wait for bed temp
M109 S215 ; wait for extruder temp
G28 W ; home all without mesh bed level
G80 X88.5905 Y95.1229 W72.7926 H19.7542 ; mesh bed levelling

G1 Z0.2 F720
G1 Y-3 F1000 ; go outside print area
G92 E0
G1 X60 E9 F1000 ; intro line
G1 X100 E12.5 F1000 ; intro line

G92 E0
M221 S95

; Don't change E values below. Excessive value can damage the printer.
M907 E430 ; set extruder motor current
G21 ; set units to millimeters
G90 ; use absolute coordinates
M83 ; use relative distances for extrusion

M900 K0.05 ; Filament gcode LA 1.5
M900 K30 ; Filament gcode LA 1.0




M107
;LAYER_CHANGE
;Z:0.2
;HEIGHT:0.2
G1 E-.8 F2100
G1 Z.6 F720
G1 X89.17 Y96.252 F10800
G1 Z.2 F720
G1 E.8 F2100
M204 S800
;TYPE:Skirt/Brim
;WIDTH:0.42
G1 F1200
G1 X90.203 Y95.449 E.04102
G1 X90.968 Y95.311 E.02437
G1 X159.006 Y95.311 E2.13328
G1 X160.254 Y95.702 E.04101
G1 X161.057 Y96.735 E.04102
G1 X161.195 Y97.5 E.02437
G1 X161.195 Y112.5 E.47031
G1 X160.804 Y113.748 E.04101
G1 X159.771 Y114.551 E.04102
G1 X159.006 Y114.689 E.02437
G1 X90.968 Y114.689 E2.13328
G1 X89.719 Y114.298 E.04104
G1 X88.917 Y113.265 E.041
G1 X88.779 Y112.5 E.02437
G1 X88.779 Y97.5 E.47031
G1 X89.152 Y96.309 E.03913
M73 Q0 S41
M204 S1000
;WIPE_START
G1 F8640
G1 X89.17 Y96.252 E-.0138
G1 X90.203 Y95.449 E-.30211
G1 X90.968 Y95.311 E-.17949
G1 X92.287 Y95.311 E-.3046
;WIPE_END
G1 Z.6 F720
; printing object finDeCourse-SupportFinDeCourse.stl id:0 copy 0
G1 X91.755 Y98.287 F10800
G1 Z.2 F720
G1 E.8 F2100
M204 S800
;TYPE:Perimeter
;WIDTH:0.419999
G1 F1200
G1 X100.681 Y98.287 E.27987
G1 X100.681 Y102.75 E.13993
G1 X100.681 Y111.713 E.28103
G1 X91.755 Y111.713 E.27987
G1 X91.755 Y98.347 E.41908
M204 S1000
G1 X91.755 Y98.347 F10800
G1 X91.378 Y97.91
M204 S800
;TYPE:External perimeter
G1 F1200
G1 X101.058 Y97.91 E.30351
G1 X101.058 Y102.75 E.15175
G1 X101.058 Y112.09 E.29285
G1 X91.378 Y112.09 E.30351
G1 X91.378 Y97.97 E.44272
M204 S1000
;WIPE_START
G1 F8640
G1 X91.378 Y97.91 E-.01385
G1 X94.783 Y97.91 E-.78615
;WIPE_END
G1 Z.6 F720
G1 X100.511 Y99.235 F10800
G1 Z.2 F720
G1 E.8 F2100
M204 S800
;TYPE:Solid infill
;WIDTH:0.42738
G1 F1200
G1 X99.903 Y98.626 E.02751
G1 X99.359 Y98.626 E.01739
G1 X100.341 Y99.609 E.04442
G1 X100.341 Y100.152 E.01736
G1 X98.815 Y98.626 E.06899
G1 X98.271 Y98.626 E.01739
G1 X100.341 Y100.696 E.09358
G1 X100.341 Y101.24 E.01739
G1 X97.728 Y98.626 E.11816
G1 X97.184 Y98.626 E.01739
G1 X100.341 Y101.784 E.14275
G1 X100.341 Y102.327 E.01736
G1 X96.64 Y98.626 E.16732
G1 X96.097 Y98.626 E.01736
G1 X100.341 Y102.871 E.19189
G1 X100.341 Y103.415 E.01739
G1 X95.553 Y98.626 E.21649
G1 X95.009 Y98.626 E.01739
G1 X100.341 Y103.958 E.24106
G1 X100.341 Y104.502 E.01739
G1 X94.466 Y98.626 E.26563
G1 X93.922 Y98.626 E.01739
G1 X100.341 Y105.046 E.29022
G1 X100.341 Y105.59 E.01739
M73 P1 R41
M73 Q1 S41
G1 X93.378 Y98.626 E.31482
G1 X92.834 Y98.626 E.01739
G1 X100.341 Y106.133 E.33939
G1 X100.341 Y106.677 E.01739
G1 X92.291 Y98.626 E.36396
G1 X92.094 Y98.626 E.0063
G1 X92.094 Y98.974 E.01112
G1 X100.341 Y107.221 E.37284
G1 X100.341 Y107.764 E.01736
G1 X92.094 Y99.517 E.37284
G1 X92.094 Y100.061 E.01739
G1 X100.341 Y108.308 E.37284
G1 X100.341 Y108.852 E.01739
G1 X92.094 Y100.605 E.37284
G1 X92.094 Y101.148 E.01736
G1 X100.341 Y109.395 E.37284
G1 X100.341 Y109.939 E.01739
G1 X92.094 Y101.692 E.37284
G1 X92.094 Y102.236 E.01739
G1 X100.341 Y110.483 E.37284
G1 X100.341 Y111.027 E.01739
G1 X92.094 Y102.779 E.37287
G1 X92.094 Y103.323 E.01739
G1 X100.144 Y111.374 E.36396
G1 X99.601 Y111.374 E.01736
G1 X92.094 Y103.867 E.33939
G1 X92.094 Y104.411 E.01739
G1 X99.057 Y111.374 E.31479
G1 X98.513 Y111.374 E.01739
G1 X92.094 Y104.954 E.29022
G1 X92.094 Y105.498 E.01739
G1 X97.97 Y111.374 E.26565
G1 X97.426 Y111.374 E.01739
G1 X92.094 Y106.042 E.24106
G1 X92.094 Y106.585 E.01736
G1 X96.882 Y111.374 E.21649
G1 X96.338 Y111.374 E.01739
G1 X92.094 Y107.129 E.19189
G1 X92.094 Y107.673 E.01739
G1 X95.795 Y111.374 E.16732
G1 X95.251 Y111.374 E.01739
G1 X92.094 Y108.217 E.14273
G1 X92.094 Y108.76 E.01736
G1 X94.707 Y111.374 E.11816
G1 X94.164 Y111.374 E.01736
G1 X92.094 Y109.304 E.09358
G1 X92.094 Y109.848 E.01739
G1 X93.62 Y111.374 E.06899
G1 X93.076 Y111.374 E.01739
G1 X92.094 Y110.391 E.04442
G1 X92.094 Y110.935 E.01739
G1 X92.702 Y111.543 E.02749
M204 S1000
;WIPE_START
G1 F8640
G1 X92.094 Y110.935 E-.19854
G1 X92.094 Y110.391 E-.12561
G1 X93.076 Y111.374 E-.32083
G1 X93.62 Y111.374 E-.12561
G1 X93.53 Y111.284 E-.02941
;WIPE_END
G1 Z.6 F720
; stop printing object finDeCourse-SupportFinDeCourse.stl id:0 copy 0
; printing object finDeCourse-SupportFinDeCourse.stl id:1 copy 0
G1 X110.534 Y98.287 F10800
G1 Z.2 F720
G1 E.8 F2100
M204 S800
;TYPE:Perimeter
;WIDTH:0.419999
G1 F1200
G1 X119.46 Y98.287 E.27987
G1 X119.46 Y102.75 E.13993
G1 X119.46 Y111.713 E.28103
G1 X110.534 Y111.713 E.27987
G1 X110.534 Y98.347 E.41908
M204 S1000
G1 X110.157 Y97.91 F10800
M204 S800
;TYPE:External perimeter
G1 F1200
G1 X119.837 Y97.91 E.30351
G1 X119.837 Y102.75 E.15175
G1 X119.837 Y112.09 E.29285
G1 X110.157 Y112.09 E.30351
G1 X110.157 Y97.97 E.44272
M204 S1000
;WIPE_START
G1 F8640
G1 X110.157 Y97.91 E-.01385
G1 X113.562 Y97.91 E-.78615
;WIPE_END
G1 Z.6 F720
G1 X119.29 Y99.235 F10800
G1 Z.2 F720
G1 E.8 F2100
M204 S800
;TYPE:Solid infill
;WIDTH:0.42738
G1 F1200
G1 X118.682 Y98.626 E.02751
G1 X118.138 Y98.626 E.01739
G1 X119.121 Y99.609 E.04444
G1 X119.121 Y100.152 E.01736
G1 X117.595 Y98.626 E.06899
G1 X117.051 Y98.626 E.01739
G1 X119.121 Y100.696 E.09358
G1 X119.121 Y101.24 E.01739
G1 X116.507 Y98.626 E.11818
G1 X115.963 Y98.626 E.01739
G1 X119.121 Y101.784 E.14277
G1 X119.121 Y102.327 E.01736
G1 X115.42 Y98.626 E.16732
G1 X114.876 Y98.626 E.01739
G1 X119.121 Y102.871 E.19191
G1 X119.121 Y103.415 E.01739
G1 X114.332 Y98.626 E.21651
G1 X113.789 Y98.626 E.01736
G1 X119.121 Y103.958 E.24106
G1 X119.121 Y104.502 E.01739
G1 X113.245 Y98.626 E.26565
G1 X112.701 Y98.626 E.01739
G1 X119.121 Y105.046 E.29025
G1 X119.121 Y105.59 E.01739
G1 X112.158 Y98.626 E.31482
G1 X111.614 Y98.626 E.01739
G1 X119.121 Y106.133 E.33939
G1 X119.121 Y106.677 E.01739
G1 X111.07 Y98.626 E.36398
G1 X110.873 Y98.626 E.0063
G1 X110.873 Y98.974 E.01112
G1 X119.121 Y107.221 E.37287
G1 X119.121 Y107.764 E.01736
G1 X110.873 Y99.517 E.37287
G1 X110.873 Y100.061 E.01739
M73 P1 R40
G1 X119.121 Y108.308 E.37287
G1 X119.121 Y108.852 E.01739
G1 X110.873 Y100.605 E.37287
G1 X110.873 Y101.148 E.01736
M73 P2 R40
M73 Q2 S41
G1 X119.121 Y109.395 E.37287
G1 X119.121 Y109.939 E.01739
G1 X110.873 Y101.692 E.37287
G1 X110.873 Y102.236 E.01739
G1 X119.121 Y110.483 E.37287
G1 X119.121 Y111.027 E.01739
G1 X110.873 Y102.779 E.37289
G1 X110.873 Y103.323 E.01739
G1 X118.924 Y111.374 E.36398
G1 X118.38 Y111.374 E.01739
G1 X110.873 Y103.867 E.33939
G1 X110.873 Y104.411 E.01739
G1 X117.836 Y111.374 E.31479
G1 X117.293 Y111.374 E.01736
G1 X110.873 Y104.954 E.29025
G1 X110.873 Y105.498 E.01739
G1 X116.749 Y111.374 E.26565
G1 X116.205 Y111.374 E.01739
G1 X110.873 Y106.042 E.24106
G1 X110.873 Y106.585 E.01736
G1 X115.662 Y111.374 E.21651
G1 X115.118 Y111.374 E.01739
G1 X110.873 Y107.129 E.19191
G1 X110.873 Y107.673 E.01739
G1 X114.574 Y111.374 E.16732
G1 X114.03 Y111.374 E.01739
G1 X110.873 Y108.217 E.14273
G1 X110.873 Y108.76 E.01736
G1 X113.487 Y111.374 E.11818
G1 X112.943 Y111.374 E.01739
G1 X110.873 Y109.304 E.09358
G1 X110.873 Y109.848 E.01739
G1 X112.399 Y111.374 E.06899
G1 X111.856 Y111.374 E.01736
G1 X110.873 Y110.391 E.04444
G1 X110.873 Y110.935 E.01739
G1 X111.482 Y111.543 E.02751
M204 S1000
;WIPE_START
G1 F8640
G1 X110.873 Y110.935 E-.1987
G1 X110.873 Y110.391 E-.12561
G1 X111.856 Y111.374 E-.32099
G1 X112.399 Y111.374 E-.12538
G1 X112.309 Y111.284 E-.02932
;WIPE_END
G1 Z.6 F720
; stop printing object finDeCourse-SupportFinDeCourse.stl id:1 copy 0
; printing object finDeCourse-SupportFinDeCourse.stl id:3 copy 0
G1 X130.409 Y98.287 F10800
G1 Z.2 F720
G1 E.8 F2100
M204 S800
;TYPE:Perimeter
;WIDTH:0.419999
G1 F1200
G1 X139.335 Y98.287 E.27987
G1 X139.335 Y102.75 E.13993
G1 X139.335 Y111.713 E.28103
G1 X130.409 Y111.713 E.27987
G1 X130.409 Y98.347 E.41908
M204 S1000
G1 X130.409 Y98.347 F10800
G1 X130.032 Y97.91
M204 S800
;TYPE:External perimeter
G1 F1200
G1 X139.712 Y97.91 E.30351
G1 X139.712 Y102.75 E.15175
G1 X139.712 Y112.09 E.29285
G1 X130.032 Y112.09 E.30351
G1 X130.032 Y97.97 E.44272
M204 S1000
;WIPE_START
G1 F8640
G1 X130.032 Y97.91 E-.01385
G1 X133.437 Y97.91 E-.78615
;WIPE_END
G1 Z.6 F720
G1 X139.166 Y99.235 F10800
G1 Z.2 F720
G1 E.8 F2100
M204 S800
;TYPE:Solid infill
;WIDTH:0.42738
G1 F1200
G1 X138.557 Y98.626 E.02753
G1 X138.014 Y98.626 E.01736
G1 X138.996 Y99.609 E.04442
G1 X138.996 Y100.152 E.01736
G1 X137.47 Y98.626 E.06899
G1 X136.926 Y98.626 E.01739
G1 X138.996 Y100.696 E.09358
G1 X138.996 Y101.24 E.01739
G1 X136.383 Y98.626 E.11816
G1 X135.839 Y98.626 E.01739
G1 X138.996 Y101.784 E.14275
G1 X138.996 Y102.327 E.01736
G1 X135.295 Y98.626 E.16732
G1 X134.751 Y98.626 E.01739
G1 X138.996 Y102.871 E.19191
G1 X138.996 Y103.415 E.01739
G1 X134.208 Y98.626 E.21649
G1 X133.664 Y98.626 E.01739
G1 X138.996 Y103.958 E.24106
G1 X138.996 Y104.502 E.01739
G1 X133.12 Y98.626 E.26565
G1 X132.577 Y98.626 E.01736
G1 X138.996 Y105.046 E.29022
G1 X138.996 Y105.59 E.01739
G1 X132.033 Y98.626 E.31482
G1 X131.489 Y98.626 E.01739
G1 X138.996 Y106.133 E.33939
G1 X138.996 Y106.677 E.01739
G1 X130.945 Y98.626 E.36398
G1 X130.749 Y98.626 E.00627
G1 X130.749 Y98.974 E.01112
G1 X138.996 Y107.221 E.37284
G1 X138.996 Y107.764 E.01736
G1 X130.749 Y99.517 E.37284
G1 X130.749 Y100.061 E.01739
G1 X138.996 Y108.308 E.37284
G1 X138.996 Y108.852 E.01739
G1 X130.749 Y100.605 E.37284
G1 X130.749 Y101.148 E.01736
G1 X138.996 Y109.395 E.37284
G1 X138.996 Y109.939 E.01739
G1 X130.749 Y101.692 E.37284
G1 X130.749 Y102.236 E.01739
G1 X138.996 Y110.483 E.37284
G1 X138.996 Y111.027 E.01739
G1 X130.749 Y102.779 E.37287
G1 X130.749 Y103.323 E.01739
G1 X138.799 Y111.374 E.36396
G1 X138.255 Y111.374 E.01739
G1 X130.749 Y103.867 E.33937
G1 X130.749 Y104.411 E.01739
G1 X137.712 Y111.374 E.31479
G1 X137.168 Y111.374 E.01739
M73 P3 R40
G1 X130.749 Y104.954 E.29022
G1 X130.749 Y105.498 E.01739
M73 Q3 S40
G1 X136.624 Y111.374 E.26563
G1 X136.081 Y111.374 E.01736
G1 X130.749 Y106.042 E.24106
G1 X130.749 Y106.585 E.01736
G1 X135.537 Y111.374 E.21649
G1 X134.993 Y111.374 E.01739
G1 X130.749 Y107.129 E.19189
G1 X130.749 Y107.673 E.01739
G1 X134.449 Y111.374 E.1673
G1 X133.906 Y111.374 E.01736
G1 X130.749 Y108.217 E.14273
G1 X130.749 Y108.76 E.01736
G1 X133.362 Y111.374 E.11816
G1 X132.818 Y111.374 E.01739
G1 X130.749 Y109.304 E.09356
G1 X130.749 Y109.848 E.01739
G1 X132.275 Y111.374 E.06899
G1 X131.731 Y111.374 E.01739
G1 X130.749 Y110.391 E.04442
G1 X130.749 Y110.935 E.01739
G1 X131.357 Y111.543 E.02749
M204 S1000
;WIPE_START
G1 F8640
G1 X130.749 Y110.935 E-.19854
G1 X130.749 Y110.391 E-.12561
G1 X131.731 Y111.374 E-.32083
G1 X132.275 Y111.374 E-.12561
G1 X132.185 Y111.284 E-.02941
;WIPE_END
G1 Z.6 F720
; stop printing object finDeCourse-SupportFinDeCourse.stl id:3 copy 0
; printing object finDeCourse-SupportFinDeCourse.stl id:2 copy 0
G1 X149.293 Y98.287 F10800
G1 Z.2 F720
G1 E.8 F2100
M204 S800
;TYPE:Perimeter
;WIDTH:0.419999
G1 F1200
G1 X158.219 Y98.287 E.27987
G1 X158.219 Y102.75 E.13993
G1 X158.219 Y111.713 E.28103
G1 X149.293 Y111.713 E.27987
G1 X149.293 Y98.347 E.41908
M204 S1000
G1 X149.293 Y98.347 F10800
G1 X148.916 Y97.91
M204 S800
;TYPE:External perimeter
G1 F1200
G1 X158.596 Y97.91 E.30351
G1 X158.596 Y102.75 E.15175
G1 X158.596 Y112.09 E.29285
G1 X148.916 Y112.09 E.30351
G1 X148.916 Y97.97 E.44272
M204 S1000
;WIPE_START
G1 F8640
G1 X148.916 Y97.91 E-.01385
G1 X152.321 Y97.91 E-.78615
;WIPE_END
G1 Z.6 F720
G1 X158.049 Y99.235 F10800
G1 Z.2 F720
G1 E.8 F2100
M204 S800
;TYPE:Solid infill
;WIDTH:0.42738
G1 F1200
G1 X157.441 Y98.626 E.02751
G1 X156.897 Y98.626 E.01739
G1 X157.88 Y99.609 E.04444
G1 X157.88 Y100.152 E.01736
G1 X156.354 Y98.626 E.06899
G1 X155.81 Y98.626 E.01739
G1 X157.88 Y100.696 E.09358
G1 X157.88 Y101.24 E.01739
G1 X155.266 Y98.626 E.11818
G1 X154.722 Y98.626 E.01739
G1 X157.88 Y101.784 E.14277
G1 X157.88 Y102.327 E.01736
G1 X154.179 Y98.626 E.16732
G1 X153.635 Y98.626 E.01739
G1 X157.88 Y102.871 E.19191
G1 X157.88 Y103.415 E.01739
G1 X153.091 Y98.626 E.21651
G1 X152.548 Y98.626 E.01736
G1 X157.88 Y103.958 E.24106
G1 X157.88 Y104.502 E.01739
G1 X152.004 Y98.626 E.26565
G1 X151.46 Y98.626 E.01739
G1 X157.88 Y105.046 E.29025
G1 X157.88 Y105.59 E.01739
G1 X150.917 Y98.626 E.31482
G1 X150.373 Y98.626 E.01739
G1 X157.88 Y106.133 E.33939
G1 X157.88 Y106.677 E.01739
G1 X149.829 Y98.626 E.36398
G1 X149.632 Y98.626 E.0063
G1 X149.632 Y98.974 E.01112
G1 X157.88 Y107.221 E.37287
G1 X157.88 Y107.764 E.01736
G1 X149.632 Y99.517 E.37287
G1 X149.632 Y100.061 E.01739
G1 X157.88 Y108.308 E.37287
G1 X157.88 Y108.852 E.01739
G1 X149.632 Y100.605 E.37287
G1 X149.632 Y101.148 E.01736
G1 X157.88 Y109.395 E.37287
G1 X157.88 Y109.939 E.01739
G1 X149.632 Y101.692 E.37287
G1 X149.632 Y102.236 E.01739
G1 X157.88 Y110.483 E.37287
G1 X157.88 Y111.027 E.01739
G1 X149.632 Y102.779 E.37289
G1 X149.632 Y103.323 E.01739
G1 X157.683 Y111.374 E.36398
G1 X157.139 Y111.374 E.01739
G1 X149.632 Y103.867 E.33939
G1 X149.632 Y104.411 E.01739
G1 X156.595 Y111.374 E.31479
G1 X156.052 Y111.374 E.01736
G1 X149.632 Y104.954 E.29025
G1 X149.632 Y105.498 E.01739
G1 X155.508 Y111.374 E.26565
G1 X154.964 Y111.374 E.01739
G1 X149.632 Y106.042 E.24106
G1 X149.632 Y106.585 E.01736
G1 X154.421 Y111.374 E.21651
G1 X153.877 Y111.374 E.01739
G1 X149.632 Y107.129 E.19191
G1 X149.632 Y107.673 E.01739
G1 X153.333 Y111.374 E.16732
G1 X152.789 Y111.374 E.01739
G1 X149.632 Y108.217 E.14273
G1 X149.632 Y108.76 E.01736
G1 X152.246 Y111.374 E.11818
G1 X151.702 Y111.374 E.01739
G1 X149.632 Y109.304 E.09358
G1 X149.632 Y109.848 E.01739
G1 X151.158 Y111.374 E.06899
