; generated by PrusaSlicer 2.7.4+win64 on 2024-07-11 at 09:39:11 UTC


;
;
; 

; external perimeters extrusion width = 0.45mm
; perimeters extrusion width = 0.45mm
; infill extrusion width = 0.45mm
; solid infill extrusion width = 0.45mm
; top infill extrusion width = 0.40mm
; first layer extrusion width = 0.42mm

; external perimeters extrusion width = 0.45mm
; perimeters extrusion width = 0.45mm
; infill extrusion width = 0.45mm
; solid infill extrusion width = 0.45mm
; top infill extrusion width = 0.40mm
; first layer extrusion width = 0.42mm

; external perimeters extrusion width = 0.45mm
; perimeters extrusion width = 0.45mm
; infill extrusion width = 0.45mm
; solid infill extrusion width = 0.45mm
; top infill extrusion width = 0.40mm
; first layer extrusion width = 0.42mm

M73 P0 R36
M73 Q0 S36
M201 X1000 Y1000 Z200 E5000 ; sets maximum accelerations, mm/sec^2
M203 X200 Y200 Z12 E120 ; sets maximum feedrates, mm / sec
M204 S1250 T1250 ; sets acceleration (S) and retract acceleration (R), mm/sec^2
M205 X8.00 Y8.00 Z0.40 E4.50 ; sets the jerk limits, mm/sec
M205 S0 T0 ; sets the minimum extruding and travel feed rate, mm/sec

; printing object finDeCourse-SupportFinDeCourse.stl id:1 copy 0
; stop printing object finDeCourse-SupportFinDeCourse.stl id:1 copy 0
; printing object finDeCourse-SupportFinDeCourseZ.stl id:2 copy 0
; stop printing object finDeCourse-SupportFinDeCourseZ.stl id:2 copy 0
; printing object finDeCourse-SupportFinDeCourse.stl id:0 copy 0
; stop printing object finDeCourse-SupportFinDeCourse.stl id:0 copy 0

;TYPE:Custom
M862.3 P "MK3S" ; printer model check
M862.1 P0.4 ; nozzle diameter check
M115 U3.12.1 ; tell printer latest fw version
G90 ; use absolute coordinates
M83 ; extruder relative mode
M104 S215 ; set extruder temp
M140 S60 ; set bed temp
M190 S60 ; wait for bed temp
M109 S215 ; wait for extruder temp
G28 W ; home all without mesh bed level
G80 ; mesh bed leveling

G1 Z0.2 F720
G1 Y-3 F1000 ; go outside print area
G92 E0
G1 X60 E9 F1000 ; intro line
G1 X100 E12.5 F1000 ; intro line

G92 E0
M221 S95

; Don't change E values below. Excessive value can damage the printer.
M907 E430 ; set extruder motor current
G21 ; set units to millimeters
G90 ; use absolute coordinates
M83 ; use relative distances for extrusion
M900 K0.05 ; Filament gcode LA 1.5
M900 K30 ; Filament gcode LA 1.0
M107
;LAYER_CHANGE
;Z:0.2
;HEIGHT:0.2
G1 E-.8 F2100
G1 Z.6 F720
G1 X99.217 Y96.193 F10800
G1 Z.2 F720
G1 E.8 F2100
M204 S800
;TYPE:Skirt/Brim
;WIDTH:0.42
G1 F1200
G1 X100.263 Y95.317 E.04278
G1 X101.202 Y95.123 E.03006
G1 X148.314 Y95.123 E1.47716
G1 X149.621 Y95.515 E.04278
G1 X150.497 Y96.56 E.04275
G1 X150.691 Y97.5 E.03009
G1 X150.691 Y112.5 E.47031
G1 X150.299 Y113.807 E.04278
G1 X149.253 Y114.683 E.04278
G1 X148.314 Y114.877 E.03006
G1 X101.202 Y114.877 E1.47716
G1 X99.895 Y114.485 E.04278
G1 X99.019 Y113.44 E.04275
G1 X98.825 Y112.5 E.03009
G1 X98.825 Y97.5 E.47031
G1 X99.2 Y96.25 E.04092
M204 S1000
;WIPE_START
G1 F8640
G1 X99.217 Y96.193 E-.01373
G1 X100.263 Y95.317 E-.31504
G1 X101.202 Y95.123 E-.2214
G1 X102.284 Y95.123 E-.24983
;WIPE_END
G1 Z.6 F720
; printing object finDeCourse-SupportFinDeCourse.stl id:0 copy 0
G1 X110.915 Y111.713 F10800
G1 Z.2 F720
G1 E.8 F2100
M204 S800
;TYPE:Perimeter
;WIDTH:0.419999
G1 F1200
G1 X101.989 Y111.713 E.27987
G1 X101.989 Y98.287 E.42096
G1 X110.915 Y98.287 E.27987
G1 X110.915 Y100.391 E.06597
G1 X110.915 Y111.653 E.35311
M204 S1000
G1 X110.915 Y111.653 F10800
G1 X111.292 Y112.09
M204 S800
;TYPE:External perimeter
G1 F1200
G1 X101.612 Y112.09 E.30351
G1 X101.612 Y97.91 E.4446
G1 X111.292 Y97.91 E.30351
G1 X111.292 Y100.391 E.07779
G1 X111.292 Y112.03 E.36493
M204 S1000
;WIPE_START
G1 F8640
G1 X111.292 Y112.09 E-.01385
G1 X107.887 Y112.09 E-.78615
;WIPE_END
G1 Z.6 F720
G1 X103.412 Y105.407 F10800
G1 Z.2 F720
G1 E.8 F2100
M204 S800
;TYPE:Perimeter
G1 F1200
G1 X103.367 Y105.061 E.01094
G1 X103.426 Y104.397 E.0209
G1 X103.627 Y103.76 E.02094
G1 X103.959 Y103.182 E.0209
G1 X104.409 Y102.688 E.02095
G1 X104.953 Y102.303 E.0209
G1 X105.568 Y102.044 E.02092
G1 X106.178 Y101.93 E.01946
G1 X106.881 Y101.945 E.02205
G1 X107.537 Y102.111 E.02122
G1 X108.133 Y102.412 E.02094
G1 X108.65 Y102.834 E.02092
G1 X109.064 Y103.357 E.02091
G1 X109.356 Y103.957 E.02092
G1 X109.513 Y104.606 E.02094
G1 X109.526 Y105.273 E.02092
G1 X109.395 Y105.927 E.02091
G1 X109.127 Y106.538 E.02092
G1 X108.734 Y107.077 E.02092
G1 X108.234 Y107.519 E.02092
G1 X107.651 Y107.843 E.02091
G1 X107.012 Y108.035 E.02092
G1 X106.346 Y108.084 E.02094
G1 X105.686 Y107.989 E.02091
G1 X105.061 Y107.754 E.02094
G1 X104.502 Y107.391 E.0209
G1 X104.033 Y106.916 E.02093
G1 X103.678 Y106.351 E.02092
G1 X103.453 Y105.723 E.02092
G1 X103.42 Y105.467 E.00809
M204 S1000
G1 X103.42 Y105.467 F10800
G1 X103.744 Y105.036
M204 S800
;TYPE:External perimeter
G1 F1200
G1 X103.742 Y105.02 E.00051
G1 X103.801 Y104.437 E.01837
G1 X103.984 Y103.881 E.01835
G1 X104.282 Y103.376 E.01839
G1 X104.682 Y102.948 E.01837
G1 X105.165 Y102.615 E.01839
G1 X105.708 Y102.394 E.01838
G1 X106.239 Y102.302 E.0169
G1 X106.867 Y102.322 E.0197
G1 X107.437 Y102.475 E.0185
G1 X107.956 Y102.745 E.01834
G1 X108.406 Y103.121 E.01839
G1 X108.764 Y103.585 E.01838
G1 X109.014 Y104.115 E.01837
G1 X109.144 Y104.687 E.01839
G1 X109.149 Y105.273 E.01837
G1 X109.027 Y105.846 E.01837
G1 X108.785 Y106.38 E.01838
G1 X108.434 Y106.849 E.01837
G1 X107.99 Y107.232 E.01839
G1 X107.474 Y107.51 E.01838
G1 X106.911 Y107.671 E.01836
G1 X106.326 Y107.707 E.01838
G1 X105.747 Y107.617 E.01837
G1 X105.201 Y107.404 E.01838
G1 X104.713 Y107.079 E.01838
G1 X104.307 Y106.656 E.01838
G1 X104.001 Y106.156 E.01838
G1 X103.81 Y105.603 E.01834
G1 X103.751 Y105.095 E.01604
M204 S1000
;WIPE_START
G1 F8640
G1 X103.744 Y105.036 E-.01372
G1 X103.742 Y105.02 E-.00372
M73 Q1 S36
G1 X103.801 Y104.437 E-.1353
G1 X103.984 Y103.881 E-.13516
G1 X104.282 Y103.376 E-.13539
G1 X104.682 Y102.948 E-.13527
G1 X105.165 Y102.615 E-.13546
G1 X105.59 Y102.442 E-.10598
;WIPE_END
G1 Z.6 F720
G1 X110.036 Y98.4 F10800
G1 Z.2 F720
M73 P1 R36
G1 E.8 F2100
M204 S800
;TYPE:Solid infill
;WIDTH:0.421905
G1 F1200
G1 X110.632 Y98.997 E.02658
G1 X110.632 Y99.533 E.01689
G1 X109.67 Y98.57 E.04289
G1 X109.134 Y98.57 E.01689
G1 X110.632 Y100.069 E.06678
G1 X110.632 Y100.605 E.01689
G1 X108.598 Y98.57 E.09067
G1 X108.062 Y98.57 E.01689
G1 X110.632 Y101.141 E.11456
G1 X110.632 Y101.677 E.01689
G1 X107.526 Y98.57 E.13844
G1 X106.99 Y98.57 E.01689
G1 X110.632 Y102.213 E.16233
G1 X110.632 Y102.749 E.01689
G1 X106.454 Y98.57 E.18622
G1 X105.918 Y98.57 E.01689
G1 X110.632 Y103.285 E.21011
G1 X110.632 Y103.821 E.01689
G1 X105.382 Y98.57 E.23399
G1 X104.846 Y98.57 E.01689
G1 X110.632 Y104.356 E.25786
G1 X110.632 Y104.892 E.01689
G1 X109.632 Y103.892 E.04457
G1 X109.382 Y103.338 E.01915
G1 X109.293 Y103.19 E.00544
G1 X108.956 Y102.748 E.01752
G1 X108.837 Y102.622 E.00546
G1 X108.413 Y102.262 E.01753
G1 X108.27 Y102.165 E.00545
G1 X107.779 Y101.904 E.01752
G1 X107.566 Y101.826 E.00715
G1 X104.31 Y98.57 E.14511
G1 X103.774 Y98.57 E.01689
G1 X106.866 Y101.662 E.1378
G1 X106.321 Y101.653 E.01718
G1 X103.238 Y98.57 E.1374
G1 X102.702 Y98.57 E.01689
G1 X105.833 Y101.7 E.13951
G1 X105.627 Y101.734 E.00658
G1 X105.402 Y101.806 E.00744
G1 X102.272 Y98.676 E.13949
G1 X102.272 Y99.212 E.01689
G1 X105.02 Y101.96 E.12247
G1 X104.892 Y102.012 E.00435
G1 X104.678 Y102.153 E.00808
G1 X102.272 Y99.748 E.1072
G1 X102.272 Y100.284 E.01689
G1 X104.355 Y102.367 E.09283
G1 X104.078 Y102.626 E.01195
G1 X102.272 Y100.82 E.08049
G1 X102.272 Y101.356 E.01689
G1 X103.818 Y102.902 E.0689
G1 X103.604 Y103.224 E.01218
G1 X102.272 Y101.892 E.05936
G1 X102.272 Y102.428 E.01689
G1 X103.408 Y103.563 E.0506
G1 X103.263 Y103.954 E.01314
G1 X102.272 Y102.964 E.04414
G1 X102.272 Y103.5 E.01689
G1 X103.145 Y104.372 E.03888
G1 X103.095 Y104.859 E.01543
G1 X102.272 Y104.036 E.03668
G1 X102.272 Y104.572 E.01689
G1 X103.314 Y105.613 E.04642
M204 S1000
;WIPE_START
G1 F8640
G1 X102.272 Y104.572 E-.3401
G1 X102.272 Y104.036 E-.12376
G1 X103.095 Y104.859 E-.26875
G1 X103.125 Y104.569 E-.06739
;WIPE_END
G1 Z.6 F720
G1 X109.577 Y104.373 F10800
G1 Z.2 F720
G1 E.8 F2100
M204 S800
G1 F1200
G1 X110.632 Y105.428 E.04702
G1 X110.632 Y105.964 E.01689
G1 X109.809 Y105.141 E.03668
G1 X109.797 Y105.417 E.00871
G1 X109.752 Y105.62 E.00655
G1 X110.632 Y106.5 E.03922
G1 X110.632 Y107.036 E.01689
G1 X109.65 Y106.054 E.04376
G1 X109.489 Y106.429 E.01286
G1 X110.632 Y107.572 E.05094
G1 X110.632 Y108.108 E.01689
G1 X109.308 Y106.784 E.05901
G1 X109.079 Y107.091 E.01207
G1 X110.632 Y108.644 E.06921
G1 X110.632 Y109.18 E.01689
G1 X108.834 Y107.381 E.08015
G1 X108.544 Y107.627 E.01198
G1 X110.632 Y109.716 E.09308
G1 X110.632 Y110.252 E.01689
G1 X108.234 Y107.854 E.10687
G1 X107.884 Y108.04 E.01249
G1 X110.632 Y110.788 E.12247
G1 X110.632 Y111.324 E.01689
G1 X107.5 Y108.192 E.13958
G1 X107.079 Y108.306 E.01374
G1 X110.203 Y111.43 E.13922
G1 X109.667 Y111.43 E.01689
G1 X106.588 Y108.351 E.13722
G1 X106.312 Y108.368 E.00871
G1 X106.026 Y108.325 E.00911
G1 X109.131 Y111.43 E.13838
G1 X108.595 Y111.43 E.01689
G1 X105.33 Y108.165 E.14551
G1 X104.892 Y107.988 E.01489
G1 X104.339 Y107.622 E.0209
G1 X104.207 Y107.51 E.00546
G1 X103.825 Y107.106 E.01752
G1 X103.72 Y106.969 E.00544
G1 X103.433 Y106.492 E.01754
G1 X103.29 Y106.125 E.01241
G1 X102.272 Y105.108 E.04535
G1 X102.272 Y105.644 E.01689
G1 X108.059 Y111.43 E.25788
G1 X107.523 Y111.43 E.01689
G1 X102.272 Y106.18 E.23399
G1 X102.272 Y106.716 E.01689
G1 X106.987 Y111.43 E.21011
G1 X106.451 Y111.43 E.01689
G1 X102.272 Y107.252 E.18622
G1 X102.272 Y107.788 E.01689
G1 X105.915 Y111.43 E.16233
G1 X105.379 Y111.43 E.01689
G1 X102.272 Y108.323 E.13847
G1 X102.272 Y108.859 E.01689
G1 X104.843 Y111.43 E.11458
G1 X104.307 Y111.43 E.01689
G1 X102.272 Y109.395 E.09069
G1 X102.272 Y109.931 E.01689
G1 X103.771 Y111.43 E.0668
G1 X103.235 Y111.43 E.01689
G1 X102.272 Y110.467 E.04292
G1 X102.272 Y111.003 E.01689
G1 X102.869 Y111.6 E.02661
M204 S1000
;WIPE_START
G1 F8640
G1 X102.272 Y111.003 E-.19495
G1 X102.272 Y110.467 E-.12376
G1 X103.235 Y111.43 E-.31446
G1 X103.771 Y111.43 E-.12376
G1 X103.639 Y111.298 E-.04307
;WIPE_END
G1 Z.6 F720
; stop printing object finDeCourse-SupportFinDeCourse.stl id:0 copy 0
; printing object finDeCourse-SupportFinDeCourseZ.stl id:2 copy 0
G1 X120.537 Y111.713 F10800
G1 Z.2 F720
G1 E.8 F2100
M204 S800
;TYPE:Perimeter
;WIDTH:0.419999
G1 F1200
G1 X120.537 Y98.287 E.42096
G1 X129.463 Y98.287 E.27987
G1 X129.463 Y100.604 E.07265
G1 X129.463 Y111.713 E.34831
G1 X120.597 Y111.713 E.27799
M204 S1000
G1 X120.16 Y112.09 F10800
M204 S800
;TYPE:External perimeter
G1 F1200
G1 X120.16 Y97.91 E.4446
G1 X129.84 Y97.91 E.30351
G1 X129.84 Y100.604 E.08447
G1 X129.84 Y112.09 E.36013
G1 X120.22 Y112.09 E.30163
M73 P1 R35
M204 S1000
;WIPE_START
G1 F8640
G1 X120.16 Y112.09 E-.01385
G1 X120.16 Y108.685 E-.78615
;WIPE_END
G1 Z.6 F720
G1 X127.28 Y103.8 F10800
G1 Z.2 F720
G1 E.8 F2100
M204 S800
;TYPE:Perimeter
G1 F1200
G1 X127.493 Y104.315 E.01747
G1 X127.585 Y104.932 E.01956
G1 X127.526 Y105.552 E.01953
G1 X127.32 Y106.141 E.01956
G1 X126.98 Y106.663 E.01953
G1 X126.524 Y107.088 E.01954
G1 X126.07 Y107.345 E.01636
G1 X125.853 Y107.441 E.00744
G1 X125.342 Y107.565 E.01649
G1 X124.756 Y107.574 E.01838
G1 X124.147 Y107.441 E.01954
G1 X123.588 Y107.166 E.01953
G1 X123.111 Y106.765 E.01954
G1 X122.743 Y106.261 E.01957
G1 X122.507 Y105.685 E.01952
G1 X122.415 Y105.068 E.01956
G1 X122.474 Y104.448 E.01953
G1 X122.68 Y103.859 E.01956
G1 X123.02 Y103.337 E.01953
G1 X123.476 Y102.912 E.01954
G1 X123.93 Y102.655 E.01636
G1 X124.147 Y102.559 E.00744
G1 X124.658 Y102.435 E.01649
G1 X125.244 Y102.426 E.01838
G1 X125.853 Y102.559 E.01954
G1 X126.412 Y102.834 E.01953
G1 X126.855 Y103.204 E.0181
G1 X127.25 Y103.729 E.0206
G1 X127.257 Y103.745 E.00055
M204 S1000
G1 X127.257 Y103.745 F10800
G1 X126.956 Y103.98
M204 S800
;TYPE:External perimeter
G1 F1200
G1 X127.141 Y104.449 E.01581
G1 X127.21 Y104.977 E.0167
G1 X127.151 Y105.507 E.01672
G1 X126.968 Y106.007 E.01669
G1 X126.669 Y106.449 E.01673
G1 X126.274 Y106.806 E.01669
G1 X125.805 Y107.059 E.01671
G1 X125.289 Y107.191 E.0167
G1 X124.756 Y107.197 E.01671
G1 X124.237 Y107.075 E.01672
G1 X123.763 Y106.832 E.0167
G1 X123.361 Y106.483 E.01669
G1 X123.053 Y106.047 E.01674
G1 X122.859 Y105.551 E.0167
G1 X122.79 Y105.023 E.0167
G1 X122.849 Y104.493 E.01672
G1 X123.032 Y103.993 E.01669
G1 X123.331 Y103.551 E.01673
G1 X123.726 Y103.194 E.01669
G1 X124.195 Y102.941 E.01671
G1 X124.711 Y102.809 E.0167
G1 X125.244 Y102.803 E.01671
G1 X125.763 Y102.925 E.01672
G1 X126.237 Y103.168 E.0167
G1 X126.633 Y103.517 E.01655
G1 X126.928 Y103.927 E.01584
M204 S1000
;WIPE_START
G1 F8640
G1 X126.956 Y103.98 E-.01384
G1 X127.141 Y104.449 E-.11641
G1 X127.21 Y104.977 E-.12295
G1 X127.151 Y105.507 E-.12313
G1 X126.968 Y106.007 E-.12294
G1 X126.669 Y106.449 E-.12322
G1 X126.274 Y106.806 E-.12294
G1 X126.066 Y106.918 E-.05457
;WIPE_END
G1 Z.6 F720
G1 X129.35 Y99.167 F10800
G1 Z.2 F720
G1 E.8 F2100
M204 S800
;TYPE:Solid infill
;WIDTH:0.421905
G1 F1200
G1 X128.753 Y98.57 E.02661
G1 X128.217 Y98.57 E.01689
G1 X129.18 Y99.533 E.04292
G1 X129.18 Y100.069 E.01689
G1 X127.681 Y98.57 E.0668
G1 X127.145 Y98.57 E.01689
G1 X129.18 Y100.605 E.09069
G1 X129.18 Y101.141 E.01689
G1 X126.609 Y98.57 E.11458
G1 X126.073 Y98.57 E.01689
G1 X129.18 Y101.677 E.13847
G1 X129.18 Y102.213 E.01689
G1 X125.537 Y98.57 E.16235
G1 X125.001 Y98.57 E.01689
G1 X129.18 Y102.749 E.18624
G1 X129.18 Y103.285 E.01689
M73 P2 R35
M73 Q2 S36
G1 X124.465 Y98.57 E.21013
G1 X123.929 Y98.57 E.01689
G1 X129.18 Y103.821 E.23401
G1 X129.18 Y104.356 E.01686
G1 X123.394 Y98.57 E.25786
G1 X122.858 Y98.57 E.01689
G1 X129.18 Y104.892 E.28174
G1 X129.18 Y105.428 E.01689
G1 X127.63 Y103.878 E.06908
G1 X127.483 Y103.568 E.01081
G1 X127.165 Y103.127 E.01713
G1 X127.046 Y102.996 E.00558
G1 X126.708 Y102.696 E.01424
G1 X126.549 Y102.586 E.00609
G1 X126.106 Y102.354 E.01576
G1 X122.322 Y98.57 E.16864
G1 X121.786 Y98.57 E.01689
G1 X125.374 Y102.158 E.1599
G1 X124.823 Y102.143 E.01737
G1 X121.25 Y98.57 E.15923
G1 X120.82 Y98.57 E.01355
G1 X120.82 Y98.676 E.00334
G1 X124.359 Y102.216 E.15774
G1 X123.943 Y102.336 E.01364
G1 X120.82 Y99.212 E.1392
G1 X120.82 Y99.748 E.01689
G1 X123.587 Y102.515 E.12331
G1 X123.451 Y102.586 E.00483
G1 X123.26 Y102.725 E.00744
G1 X120.82 Y100.284 E.10876
G1 X120.82 Y100.82 E.01689
G1 X122.976 Y102.976 E.09608
G1 X122.727 Y103.263 E.01197
G1 X120.82 Y101.356 E.08499
G1 X120.82 Y101.892 E.01689
G1 X122.509 Y103.581 E.07527
G1 X122.343 Y103.951 E.01278
G1 X120.82 Y102.428 E.06787
G1 X120.82 Y102.964 E.01689
G1 X122.208 Y104.352 E.06186
G1 X122.144 Y104.824 E.01501
G1 X120.82 Y103.5 E.05901
G1 X120.82 Y104.036 E.01689
G1 X122.365 Y105.581 E.06885
M204 S1000
;WIPE_START
G1 F8640
G1 X120.82 Y104.036 E-.50451
G1 X120.82 Y103.5 E-.12376
G1 X121.346 Y104.026 E-.17173
;WIPE_END
G1 Z.6 F720
G1 X127.634 Y104.418 F10800
G1 Z.2 F720
G1 E.8 F2100
M204 S800
G1 F1200
G1 X129.18 Y105.964 E.0689
G1 X129.18 Y106.5 E.01689
G1 X127.856 Y105.177 E.05898
G1 X127.792 Y105.648 E.01498
G1 X129.18 Y107.036 E.06186
G1 X129.18 Y107.572 E.01689
G1 X127.657 Y106.049 E.06787
G1 X127.491 Y106.42 E.01281
G1 X129.18 Y108.108 E.07525
G1 X129.18 Y108.644 E.01689
G1 X127.273 Y106.737 E.08499
G1 X127.024 Y107.024 E.01197
G1 X129.18 Y109.18 E.09608
G1 X129.18 Y109.716 E.01689
G1 X126.74 Y107.276 E.10874
G1 X126.549 Y107.414 E.00743
G1 X126.413 Y107.485 E.00483
G1 X129.18 Y110.252 E.12331
G1 X129.18 Y110.788 E.01689
G1 X126.057 Y107.665 E.13918
G1 X125.64 Y107.784 E.01367
G1 X129.18 Y111.324 E.15776
G1 X129.18 Y111.43 E.00334
G1 X128.75 Y111.43 E.01355
G1 X125.169 Y107.849 E.15959
G1 X124.751 Y107.857 E.01317
G1 X124.626 Y107.842 E.00397
G1 X128.214 Y111.43 E.1599
G1 X127.678 Y111.43 E.01689
G1 X123.894 Y107.646 E.16864
G1 X123.451 Y107.414 E.01576
G1 X123.292 Y107.304 E.00609
G1 X122.919 Y106.973 E.01572
G1 X122.791 Y106.828 E.0061
G1 X122.507 Y106.417 E.01574
G1 X122.375 Y106.126 E.01007
