; generated by PrusaSlicer 2.8.0+win64 on 2024-07-16 at 12:14:22 UTC


;
;
; 

; external perimeters extrusion width = 0.45mm
; perimeters extrusion width = 0.45mm
; infill extrusion width = 0.45mm
; solid infill extrusion width = 0.45mm
; top infill extrusion width = 0.40mm
; first layer extrusion width = 0.42mm

; external perimeters extrusion width = 0.45mm
; perimeters extrusion width = 0.45mm
; infill extrusion width = 0.45mm
; solid infill extrusion width = 0.45mm
; top infill extrusion width = 0.40mm
; first layer extrusion width = 0.42mm

; external perimeters extrusion width = 0.45mm
; perimeters extrusion width = 0.45mm
; infill extrusion width = 0.45mm
; solid infill extrusion width = 0.45mm
; top infill extrusion width = 0.40mm
; first layer extrusion width = 0.42mm

M73 P0 R36
M73 Q0 S37
M201 X1000 Y1000 Z200 E5000 ; sets maximum accelerations, mm/sec^2
M203 X200 Y200 Z12 E120 ; sets maximum feedrates, mm / sec
M204 S1250 T1250 ; sets acceleration (S) and retract acceleration (R), mm/sec^2
M205 X8.00 Y8.00 Z0.40 E4.50 ; sets the jerk limits, mm/sec
M205 S0 T0 ; sets the minimum extruding and travel feed rate, mm/sec

; printing object finDeCourse-SupportFinDeCourse.stl id:1 copy 0
; stop printing object finDeCourse-SupportFinDeCourse.stl id:1 copy 0
; printing object finDeCourse-SupportFinDeCourse.stl id:0 copy 0
; stop printing object finDeCourse-SupportFinDeCourse.stl id:0 copy 0
; printing object finDeCourse-SupportFinDeCourseZ.stl id:2 copy 0
; stop printing object finDeCourse-SupportFinDeCourseZ.stl id:2 copy 0

;TYPE:Custom
M862.3 P "MK3S" ; printer model check
M862.1 P0.4 ; nozzle diameter check
M115 U3.14.0 ; tell printer latest fw version
G90 ; use absolute coordinates
M83 ; extruder relative mode
M104 S215 ; set extruder temp
M140 S60 ; set bed temp
M190 S60 ; wait for bed temp
M109 S215 ; wait for extruder temp
G28 W ; home all without mesh bed level
G80 X97.8534 Y95.1229 W55.0072 H19.9703 ; mesh bed levelling

G1 Z0.2 F720
G1 Y-3 F1000 ; go outside print area
G92 E0
G1 X60 E9 F1000 ; intro line
G1 X100 E12.5 F1000 ; intro line

G92 E0
M221 S95

; Don't change E values below. Excessive value can damage the printer.
M907 E430 ; set extruder motor current
G21 ; set units to millimeters
G90 ; use absolute coordinates
M83 ; use relative distances for extrusion

M900 K0.05 ; Filament gcode LA 1.5
M900 K30 ; Filament gcode LA 1.0




M107
;LAYER_CHANGE
;Z:0.2
;HEIGHT:0.2
G1 E-.8 F2100
G1 Z.6 F720
G1 X98.433 Y96.468 F10800
G1 Z.2 F720
G1 E.8 F2100
M204 S800
;TYPE:Skirt/Brim
;WIDTH:0.42
G1 F1200
G1 X99.466 Y95.666 E.041
G1 X100.206 Y95.528 E.0236
G1 X119.531 Y95.312 E.60596
G1 X150.484 Y95.311 E.97051
G1 X151.732 Y95.702 E.04101
G1 X152.534 Y96.735 E.041
G1 X152.672 Y97.5 E.02437
G1 X152.672 Y112.5 E.47031
G1 X152.281 Y113.748 E.04101
M73 Q0 S36
G1 X151.248 Y114.551 E.04102
G1 X150.496 Y114.689 E.02397
G1 X100.231 Y114.905 E1.57604
G1 X98.982 Y114.514 E.04104
G1 X98.18 Y113.481 E.041
G1 X98.042 Y112.716 E.02437
G1 X98.042 Y97.716 E.47031
G1 X98.415 Y96.525 E.03913
M204 S1000
;WIPE_START
G1 F8640
G1 X98.433 Y96.468 E-.0138
G1 X99.466 Y95.666 E-.30197
G1 X100.206 Y95.528 E-.17381
G1 X101.55 Y95.513 E-.31042
;WIPE_END
G1 Z.6 F720
; printing object finDeCourse-SupportFinDeCourse.stl id:1 copy 0
G1 X142.088 Y106.293 F10800
G1 Z.2 F720
G1 E.8 F2100
M204 S800
;TYPE:Perimeter
;WIDTH:0.419999
G1 F1200
G1 X141.884 Y105.723 E.01898
G1 X141.798 Y105.061 E.02093
G1 X141.857 Y104.397 E.0209
G1 X142.058 Y103.76 E.02094
G1 X142.391 Y103.182 E.02092
G1 X142.84 Y102.688 E.02093
G1 X143.384 Y102.303 E.0209
G1 X143.999 Y102.044 E.02092
G1 X144.609 Y101.93 E.01946
G1 X145.312 Y101.945 E.02205
G1 X145.969 Y102.111 E.02125
G1 X146.505 Y102.381 E.01882
G1 X147.081 Y102.834 E.02298
G1 X147.496 Y103.357 E.02093
G1 X147.788 Y103.957 E.02092
G1 X147.944 Y104.606 E.02093
G1 X147.957 Y105.273 E.02092
G1 X147.827 Y105.927 E.02091
G1 X147.559 Y106.538 E.02092
G1 X147.165 Y107.077 E.02093
G1 X146.665 Y107.519 E.02092
G1 X146.082 Y107.843 E.02091
G1 X145.443 Y108.035 E.02092
G1 X144.778 Y108.084 E.02091
G1 X144.117 Y107.989 E.02094
G1 X143.445 Y107.724 E.02265
G1 X142.933 Y107.391 E.01915
G1 X142.465 Y106.916 E.02091
G1 X142.109 Y106.351 E.02094
M204 S1000
G1 X142.109 Y106.351 F10800
G1 X142.426 Y106.137
M204 S800
;TYPE:External perimeter
G1 F1200
G1 X142.241 Y105.603 E.01772
G1 X142.173 Y105.02 E.0184
G1 X142.232 Y104.437 E.01837
G1 X142.415 Y103.881 E.01835
G1 X142.714 Y103.376 E.0184
G1 X143.113 Y102.948 E.01835
G1 X143.596 Y102.615 E.01839
G1 X144.139 Y102.394 E.01838
G1 X144.67 Y102.302 E.0169
G1 X145.299 Y102.322 E.01973
G1 X145.868 Y102.475 E.01847
G1 X146.328 Y102.714 E.01625
G1 X146.837 Y103.121 E.02043
G1 X147.195 Y103.585 E.01838
G1 X147.445 Y104.115 E.01837
G1 X147.576 Y104.687 E.0184
G1 X147.58 Y105.273 E.01837
G1 X147.458 Y105.846 E.01837
G1 X147.216 Y106.38 E.01838
G1 X146.865 Y106.849 E.01837
G1 X146.421 Y107.232 E.01839
G1 X145.906 Y107.51 E.01835
G1 X145.342 Y107.671 E.01839
G1 X144.757 Y107.707 E.01838
G1 X144.178 Y107.617 E.01837
G1 X143.59 Y107.377 E.01991
G1 X143.145 Y107.079 E.01679
G1 X142.738 Y106.656 E.01841
G1 X142.453 Y106.19 E.01713
M204 S1000
;WIPE_START
G1 F8640
G1 X142.426 Y106.137 E-.01373
G1 X142.241 Y105.603 E-.13049
G1 X142.173 Y105.02 E-.13553
G1 X142.232 Y104.437 E-.1353
G1 X142.415 Y103.881 E-.13516
G1 X142.714 Y103.376 E-.13551
G1 X143.052 Y103.014 E-.11428
;WIPE_END
G1 Z.6 F720
G1 X149.696 Y98.287 F10800
G1 Z.2 F720
G1 E.8 F2100
M204 S800
;TYPE:Perimeter
G1 F1200
G1 X149.696 Y100.461 E.06816
G1 X149.696 Y111.713 E.3528
G1 X140.071 Y111.713 E.30178
G1 X140.071 Y98.287 E.42096
G1 X149.636 Y98.287 E.2999
M204 S1000
G1 X149.636 Y98.287 F10800
G1 X150.074 Y97.91
M204 S800
;TYPE:External perimeter
G1 F1200
G1 X150.074 Y100.461 E.07998
G1 X150.074 Y112.09 E.36462
G1 X139.694 Y112.09 E.32546
G1 X139.694 Y97.91 E.4446
G1 X150.014 Y97.91 E.32358
M204 S1000
;WIPE_START
G1 F8640
M73 P1 R36
M73 Q1 S36
G1 X150.074 Y97.91 E-.01385
G1 X150.074 Y100.461 E-.58903
G1 X150.074 Y101.315 E-.19712
;WIPE_END
G1 Z.6 F720
G1 X149.527 Y99.221 F10800
G1 Z.2 F720
G1 E.8 F2100
M204 S800
;TYPE:Solid infill
;WIDTH:0.420857
G1 F1200
G1 X148.932 Y98.626 E.02644
G1 X148.398 Y98.626 E.01678
G1 X149.357 Y99.586 E.04264
G1 X149.357 Y100.12 E.01678
G1 X147.863 Y98.626 E.0664
G1 X147.329 Y98.626 E.01678
G1 X149.357 Y100.655 E.09015
G1 X149.357 Y101.189 E.01678
G1 X146.794 Y98.626 E.11391
G1 X146.26 Y98.626 E.01678
G1 X149.357 Y101.724 E.13766
G1 X149.357 Y102.258 E.01678
G1 X145.726 Y98.626 E.16139
G1 X145.191 Y98.626 E.01681
G1 X149.357 Y102.793 E.18517
G1 X149.357 Y103.327 E.01678
G1 X144.657 Y98.626 E.2089
G1 X144.122 Y98.626 E.01681
G1 X149.357 Y103.862 E.23268
G1 X149.357 Y104.396 E.01678
G1 X143.588 Y98.626 E.25641
G1 X143.053 Y98.626 E.01681
G1 X146.331 Y101.904 E.14568
G1 X146.73 Y102.116 E.0142
G1 X146.879 Y102.217 E.00566
G1 X147.307 Y102.581 E.01766
G1 X147.431 Y102.711 E.00565
G1 X147.771 Y103.158 E.01765
G1 X147.97 Y103.544 E.01365
G1 X149.357 Y104.93 E.06162
G1 X149.357 Y105.465 E.01681
G1 X148.233 Y104.341 E.04995
G1 X148.297 Y104.719 E.01205
G1 X148.297 Y104.939 E.00691
G1 X149.357 Y105.999 E.04711
G1 X149.357 Y106.534 E.01681
G1 X148.278 Y105.454 E.04798
G1 X148.182 Y105.893 E.01412
G1 X149.357 Y107.068 E.05222
G1 X149.357 Y107.603 E.01681
G1 X148.046 Y106.292 E.05826
G1 X147.877 Y106.658 E.01267
G1 X149.357 Y108.137 E.06575
G1 X149.357 Y108.672 E.01681
G1 X147.665 Y106.98 E.0752
G1 X147.435 Y107.284 E.01198
G1 X149.357 Y109.206 E.08542
G1 X149.357 Y109.741 E.01681
G1 X147.16 Y107.544 E.09764
G1 X146.871 Y107.789 E.01191
G1 X149.357 Y110.275 E.11048
G1 X149.357 Y110.81 E.01681
G1 X146.535 Y107.988 E.12542
G1 X146.181 Y108.168 E.01248
G1 X149.357 Y111.344 E.14115
G1 X149.357 Y111.374 E.00094
G1 X148.852 Y111.374 E.01587
G1 X145.772 Y108.294 E.13688
G1 X145.447 Y108.382 E.01058
G1 X145.333 Y108.389 E.00359
G1 X148.317 Y111.374 E.13264
G1 X147.783 Y111.374 E.01678
G1 X144.829 Y108.419 E.13131
G1 X144.74 Y108.425 E.0028
G1 X144.223 Y108.348 E.01643
G1 X147.418 Y111.543 E.14199
M204 S1000
;WIPE_START
G1 F8640
G1 X144.968 Y109.093 E-.8
;WIPE_END
G1 Z.6 F720
G1 X145.773 Y101.881 F10800
G1 Z.2 F720
G1 E.8 F2100
M204 S800
G1 F1200
G1 X142.519 Y98.626 E.14464
G1 X141.984 Y98.626 E.01681
G1 X144.957 Y101.6 E.13215
G1 X144.568 Y101.593 E.01223
G1 X144.438 Y101.615 E.00414
G1 X141.45 Y98.626 E.13282
G1 X140.915 Y98.626 E.01681
G1 X143.985 Y101.696 E.13644
G1 X143.598 Y101.844 E.01302
G1 X140.41 Y98.656 E.14168
G1 X140.41 Y99.19 E.01678
G1 X143.223 Y102.003 E.12502
G1 X142.904 Y102.219 E.01211
G1 X140.41 Y99.725 E.11084
G1 X140.41 Y100.259 E.01678
G1 X142.599 Y102.449 E.09731
G1 X142.339 Y102.723 E.01187
G1 X140.41 Y100.794 E.08573
G1 X140.41 Y101.328 E.01678
G1 X142.096 Y103.014 E.07493
G1 X141.895 Y103.347 E.01222
G1 X140.41 Y101.863 E.06597
G1 X140.41 Y102.397 E.01678
G1 X141.718 Y103.705 E.05813
G1 X141.584 Y104.105 E.01326
G1 X140.41 Y102.932 E.05215
G1 X140.41 Y103.466 E.01678
G1 X141.5 Y104.556 E.04844
G1 X141.46 Y105.051 E.01561
G1 X140.41 Y104.001 E.04666
G1 X140.41 Y104.535 E.01678
G1 X141.759 Y105.884 E.05995
M204 S1000
;WIPE_START
G1 F8640
G1 X140.41 Y104.535 E-.44051
G1 X140.41 Y104.001 E-.1233
G1 X141.133 Y104.724 E-.23619
;WIPE_END
G1 Z.6 F720
G1 X140.24 Y104.9 F10800
G1 Z.2 F720
G1 E.8 F2100
M204 S800
G1 F1200
G1 X141.776 Y106.435 E.06824
G1 X142.104 Y107 E.02053
G1 X142.213 Y107.143 E.00565
G1 X142.599 Y107.551 E.01765
G1 X142.737 Y107.668 E.00569
G1 X143.302 Y108.032 E.02112
G1 X143.424 Y108.084 E.00417
G1 X146.714 Y111.374 E.14622
G1 X146.179 Y111.374 E.01681
G1 X140.41 Y105.604 E.25641
G1 X140.41 Y106.139 E.01681
G1 X145.645 Y111.374 E.23266
G1 X145.111 Y111.374 E.01678
G1 X140.41 Y106.673 E.20892
G1 X140.41 Y107.208 E.01681
G1 X144.576 Y111.374 E.18515
G1 X144.042 Y111.374 E.01678
G1 X140.41 Y107.742 E.16142
G1 X140.41 Y108.277 E.01681
G1 X143.507 Y111.374 E.13764
G1 X142.973 Y111.374 E.01678
G1 X140.41 Y108.811 E.11391
G1 X140.41 Y109.345 E.01678
G1 X142.438 Y111.374 E.09015
G1 X141.904 Y111.374 E.01678
G1 X140.41 Y109.88 E.0664
G1 X140.41 Y110.414 E.01678
G1 X141.369 Y111.374 E.04264
G1 X140.835 Y111.374 E.01678
G1 X140.24 Y110.779 E.02644
M204 S1000
;WIPE_START
G1 F8640
G1 X140.835 Y111.374 E-.19429
G1 X141.369 Y111.374 E-.1233
G1 X140.41 Y110.414 E-.31332
G1 X140.41 Y109.88 E-.1233
G1 X140.55 Y110.02 E-.04579
;WIPE_END
G1 Z.6 F720
; stop printing object finDeCourse-SupportFinDeCourse.stl id:1 copy 0
; printing object finDeCourse-SupportFinDeCourseZ.stl id:2 copy 0
G1 X122.652 Y105.617 F10800
G1 Z.2 F720
G1 E.8 F2100
M204 S800
;TYPE:Perimeter
;WIDTH:0.419999
G1 F1200
G1 X122.57 Y105.068 E.0174
G1 X122.629 Y104.448 E.01953
G1 X122.835 Y103.859 E.01956
G1 X123.175 Y103.337 E.01953
G1 X123.681 Y102.882 E.02134
G1 X124.175 Y102.608 E.01771
G1 X124.776 Y102.442 E.01955
G1 X125.399 Y102.426 E.01954
G1 X126.008 Y102.559 E.01954
G1 X126.474 Y102.785 E.01624
G1 X126.679 Y102.912 E.00756
G1 X127.135 Y103.337 E.01954
G1 X127.475 Y103.859 E.01953
G1 X127.681 Y104.448 E.01956
G1 X127.744 Y105 E.01742
G1 X127.681 Y105.552 E.01742
G1 X127.475 Y106.141 E.01956
G1 X127.135 Y106.663 E.01953
G1 X126.679 Y107.088 E.01954
G1 X126.135 Y107.392 E.01954
G1 X125.534 Y107.558 E.01955
G1 X124.911 Y107.574 E.01954
G1 X124.302 Y107.441 E.01954
G1 X123.836 Y107.215 E.01624
G1 X123.631 Y107.088 E.00756
G1 X123.217 Y106.703 E.01773
G1 X122.905 Y106.271 E.01671
G1 X122.662 Y105.685 E.01989
G1 X122.661 Y105.676 E.00028
M204 S1000
G1 X122.661 Y105.676 F10800
G1 X123.011 Y105.528
M204 S800
;TYPE:External perimeter
G1 F1200
G1 X122.945 Y105.023 E.01597
G1 X123.004 Y104.493 E.01672
G1 X123.187 Y103.993 E.01669
G1 X123.486 Y103.551 E.01673
G1 X123.925 Y103.17 E.01823
G1 X124.393 Y102.925 E.01656
G1 X124.879 Y102.806 E.01569
G1 X125.399 Y102.803 E.0163
G1 X125.918 Y102.925 E.01672
G1 X126.392 Y103.168 E.0167
G1 X126.794 Y103.517 E.01669
G1 X127.102 Y103.953 E.01674
G1 X127.296 Y104.449 E.0167
G1 X127.365 Y104.977 E.0167
G1 X127.307 Y105.507 E.01672
G1 X127.123 Y106.007 E.0167
G1 X126.825 Y106.449 E.01671
G1 X126.429 Y106.806 E.01672
G1 X125.96 Y107.059 E.01671
G1 X125.444 Y107.191 E.0167
G1 X124.911 Y107.197 E.01671
G1 X124.393 Y107.075 E.01669
G1 X123.918 Y106.832 E.01673
G1 X123.522 Y106.483 E.01655
G1 X123.211 Y106.051 E.01669
G1 X123.028 Y105.585 E.0157
M204 S1000
;WIPE_START
G1 F8640
G1 X123.011 Y105.528 E-.01373
G1 X122.945 Y105.023 E-.1176
G1 X123.004 Y104.493 E-.12313
G1 X123.187 Y103.993 E-.12294
G1 X123.486 Y103.551 E-.12322
G1 X123.925 Y103.17 E-.13422
G1 X124.393 Y102.925 E-.12197
G1 X124.575 Y102.88 E-.04319
;WIPE_END
G1 Z.6 F720
G1 X120.342 Y111.713 F10800
G1 Z.2 F720
G1 E.8 F2100
M204 S800
;TYPE:Perimeter
G1 F1200
G1 X120.342 Y98.287 E.42096
G1 X129.968 Y98.287 E.30182
G1 X129.968 Y100.673 E.07481
G1 X129.968 Y111.713 E.34615
G1 X120.402 Y111.713 E.29993
M204 S1000
G1 X120.402 Y111.713 F10800
G1 X119.965 Y112.09
M204 S800
;TYPE:External perimeter
G1 F1200
G1 X119.965 Y97.91 E.4446
G1 X130.345 Y97.91 E.32546
G1 X130.345 Y100.673 E.08663
G1 X130.345 Y112.09 E.35797
G1 X120.025 Y112.09 E.32358
M204 S1000
;WIPE_START
G1 F8640
G1 X119.965 Y112.09 E-.01385
G1 X119.965 Y108.685 E-.78615
;WIPE_END
G1 Z.6 F720
G1 X129.034 Y98.457 F10800
G1 Z.2 F720
M73 Q2 S36
G1 E.8 F2100
M204 S800
;TYPE:Solid infill
;WIDTH:0.420857
G1 F1200
G1 X129.629 Y99.051 E.02642
G1 X129.629 Y99.586 E.01681
G1 X128.669 Y98.626 E.04266
M73 P2 R36
G1 X128.135 Y98.626 E.01678
G1 X129.629 Y100.12 E.0664
G1 X129.629 Y100.655 E.01681
G1 X127.6 Y98.626 E.09017
G1 X127.066 Y98.626 E.01678
G1 X129.629 Y101.189 E.11391
G1 X129.629 Y101.724 E.01681
G1 X126.531 Y98.626 E.13768
G1 X125.997 Y98.626 E.01678
G1 X129.629 Y102.258 E.16142
G1 X129.629 Y102.793 E.01681
G1 X125.462 Y98.626 E.18519
G1 X124.928 Y98.626 E.01678
G1 X129.629 Y103.327 E.20892
G1 X129.629 Y103.862 E.01681
G1 X124.394 Y98.626 E.23268
G1 X123.859 Y98.626 E.01681
G1 X129.629 Y104.396 E.25643
G1 X129.629 Y104.93 E.01678
G1 X123.325 Y98.626 E.28017
G1 X122.79 Y98.626 E.01681
G1 X129.798 Y105.635 E.31148
M204 S1000
;WIPE_START
G1 F8640
G1 X127.348 Y103.185 E-.8
;WIPE_END
G1 Z.6 F720
G1 X127.76 Y104.13 F10800
G1 Z.2 F720
G1 E.8 F2100
M204 S800
G1 F1200
G1 X129.629 Y105.999 E.08306
G1 X129.629 Y106.534 E.01681
G1 X128.078 Y104.983 E.06893
G1 X128.032 Y105.472 E.01543
G1 X129.629 Y107.068 E.07095
G1 X129.629 Y107.603 E.01681
G1 X127.928 Y105.903 E.07557
G1 X127.78 Y106.288 E.01296
G1 X129.629 Y108.137 E.08217
G1 X129.629 Y108.672 E.01681
G1 X127.577 Y106.62 E.0912
G1 X127.351 Y106.929 E.01203
G1 X129.629 Y109.206 E.10122
G1 X129.629 Y109.741 E.01681
G1 X127.077 Y107.189 E.11342
G1 X126.782 Y107.428 E.01193
G1 X129.629 Y110.275 E.12653
G1 X129.629 Y110.81 E.01681
G1 X126.436 Y107.618 E.14188
G1 X126.285 Y107.697 E.00536
G1 X126.061 Y107.777 E.00747
G1 X129.629 Y111.344 E.15855
G1 X129.629 Y111.374 E.00094
G1 X129.123 Y111.374 E.0159
G1 X125.631 Y107.882 E.15519
G1 X125.549 Y107.902 E.00265
G1 X125.125 Y107.909 E.01333
G1 X128.589 Y111.374 E.15397
G1 X128.054 Y111.374 E.01681
G1 X124.295 Y107.614 E.16708
M204 S1000
;WIPE_START
G1 F8640
G1 X126.745 Y110.064 E-.8
;WIPE_END
G1 Z.6 F720
G1 X126.015 Y102.386 F10800
G1 Z.2 F720
G1 E.8 F2100
M204 S800
G1 F1200
G1 X122.256 Y98.626 E.16708
G1 X121.721 Y98.626 E.01681
G1 X125.181 Y102.087 E.15379
G1 X124.902 Y102.087 E.00877
G1 X124.677 Y102.117 E.00713
G1 X121.187 Y98.626 E.15513
G1 X120.681 Y98.626 E.0159
G1 X120.681 Y98.656 E.00094
G1 X124.249 Y102.223 E.15855
G1 X124.025 Y102.303 E.00747
G1 X123.874 Y102.382 E.00536
G1 X120.681 Y99.19 E.14188
G1 X120.681 Y99.725 E.01681
G1 X123.532 Y102.575 E.12668
G1 X123.237 Y102.814 E.01193
G1 X120.681 Y100.259 E.11357
G1 X120.681 Y100.794 E.01681
G1 X122.96 Y103.072 E.10126
G1 X122.733 Y103.38 E.01202
G1 X120.681 Y101.328 E.0912
G1 X120.681 Y101.863 E.01681
G1 X122.531 Y103.712 E.0822
G1 X122.382 Y104.097 E.01297
G1 X120.681 Y102.397 E.07557
G1 X120.681 Y102.932 E.01681
G1 X122.278 Y104.528 E.07095
M73 P2 R35
G1 X122.232 Y105.017 E.01543
G1 X120.681 Y103.466 E.06893
G1 X120.681 Y104.001 E.01681
