; generated by PrusaSlicer 2.7.4+win64 on 2024-07-02 at 17:23:48 UTC


;
;
; 

; external perimeters extrusion width = 0.45mm
; perimeters extrusion width = 0.45mm
; infill extrusion width = 0.45mm
; solid infill extrusion width = 0.45mm
; top infill extrusion width = 0.40mm
; first layer extrusion width = 0.42mm

M73 P0 R9
M73 Q0 S9
M201 X1000 Y1000 Z200 E5000 ; sets maximum accelerations, mm/sec^2
M203 X200 Y200 Z12 E120 ; sets maximum feedrates, mm / sec
M204 S1250 T1250 ; sets acceleration (S) and retract acceleration (R), mm/sec^2
M205 X8.00 Y8.00 Z0.40 E4.50 ; sets the jerk limits, mm/sec
M205 S0 T0 ; sets the minimum extruding and travel feed rate, mm/sec

; printing object machinePince-supportPincefixationVisFinale.stl id:0 copy 0
; stop printing object machinePince-supportPincefixationVisFinale.stl id:0 copy 0

;TYPE:Custom
M862.3 P "MK3S" ; printer model check
M862.1 P0.4 ; nozzle diameter check
M115 U3.12.1 ; tell printer latest fw version
G90 ; use absolute coordinates
M83 ; extruder relative mode
M104 S215 ; set extruder temp
M140 S60 ; set bed temp
M190 S60 ; wait for bed temp
M109 S215 ; wait for extruder temp
G28 W ; home all without mesh bed level
G80 ; mesh bed leveling

G1 Z0.2 F720
G1 Y-3 F1000 ; go outside print area
G92 E0
G1 X60 E9 F1000 ; intro line
G1 X100 E12.5 F1000 ; intro line

G92 E0
M221 S95

; Don't change E values below. Excessive value can damage the printer.
M907 E430 ; set extruder motor current
G21 ; set units to millimeters
G90 ; use absolute coordinates
M83 ; use relative distances for extrusion
M900 K0.05 ; Filament gcode LA 1.5
M900 K30 ; Filament gcode LA 1.0
M107
;LAYER_CHANGE
;Z:0.2
;HEIGHT:0.2
G1 E-.8 F2100
M73 P1 R9
M73 Q1 S9
G1 Z.6 F720
G1 X114.556 Y97.697 F10800
G1 Z.2 F720
G1 E.8 F2100
M204 S800
;TYPE:Skirt/Brim
;WIDTH:0.42
G1 F1200
G1 X116.182 Y95.8 E.07834
G1 X118.146 Y94.256 E.07833
G1 X120.374 Y93.126 E.07833
G1 X122.779 Y92.451 E.07832
G1 X124.73 Y92.259 E.06147
G1 X125.4 Y92.272 E.02101
G1 X127.75 Y92.557 E.07422
G1 X130.125 Y93.332 E.07833
G1 X132.303 Y94.556 E.07833
G1 X134.2 Y96.182 E.07834
G1 X135.744 Y98.146 E.07833
G1 X136.874 Y100.374 E.07833
G1 X137.549 Y102.779 E.07832
G1 X137.741 Y105.27 E.07834
G1 X137.443 Y107.75 E.07832
G1 X136.668 Y110.125 E.07833
G1 X135.444 Y112.303 E.07833
G1 X133.818 Y114.2 E.07834
G1 X131.854 Y115.744 E.07833
G1 X129.626 Y116.874 E.07833
G1 X127.221 Y117.549 E.07832
G1 X124.73 Y117.741 E.07834
G1 X122.25 Y117.443 E.07832
G1 X119.875 Y116.668 E.07833
G1 X117.697 Y115.444 E.07833
G1 X115.8 Y113.818 E.07834
G1 X114.256 Y111.854 E.07833
G1 X113.126 Y109.626 E.07833
G1 X112.451 Y107.221 E.07832
G1 X112.259 Y104.73 E.07834
G1 X112.557 Y102.25 E.07832
G1 X113.332 Y99.875 E.07833
G1 X114.527 Y97.749 E.07647
M204 S1000
G1 X114.527 Y97.749 F10800
M73 Q2 S9
G1 X114.848 Y97.936
M204 S800
G1 F1200
G1 X116.421 Y96.091 E.07602
G1 X118.324 Y94.589 E.07601
G1 X120.483 Y93.486 E.07602
M73 P2 R9
G1 X122.816 Y92.827 E.07601
G1 X124.767 Y92.634 E.06147
G1 X125.363 Y92.647 E.01869
G1 X127.641 Y92.917 E.07193
G1 X129.947 Y93.665 E.07601
G1 X132.064 Y94.848 E.07604
G1 X133.909 Y96.421 E.07602
G1 X135.411 Y98.324 E.07601
G1 X136.514 Y100.483 E.07602
G1 X137.173 Y102.816 E.07601
G1 X137.366 Y105.233 E.07602
G1 X137.083 Y107.641 E.07602
G1 X136.335 Y109.947 E.07601
G1 X135.152 Y112.064 E.07604
G1 X133.579 Y113.909 E.07602
G1 X131.676 Y115.411 E.07601
G1 X129.517 Y116.514 E.07602
G1 X127.184 Y117.173 E.07601
G1 X124.767 Y117.366 E.07602
G1 X122.359 Y117.083 E.07602
G1 X120.053 Y116.335 E.07601
G1 X117.936 Y115.152 E.07604
G1 X116.091 Y113.579 E.07602
G1 X114.589 Y111.676 E.07601
G1 X113.486 Y109.517 E.07602
G1 X112.827 Y107.184 E.07601
G1 X112.634 Y104.767 E.07602
G1 X112.917 Y102.359 E.07602
G1 X113.665 Y100.053 E.07601
G1 X114.819 Y97.989 E.07414
M204 S1000
;WIPE_START
G1 F8640
G1 X114.848 Y97.936 E-.01395
G1 X116.421 Y96.091 E-.55983
G1 X117.19 Y95.484 E-.22622
;WIPE_END
G1 Z.6 F720
; printing object machinePince-supportPincefixationVisFinale.stl id:0 copy 0
G1 X115.968 Y103.203 F10800
G1 Z.2 F720
G1 E.8 F2100
M204 S800
;TYPE:Perimeter
;WIDTH:0.419999
G1 F1200
G1 X116.492 Y101.476 E.05659
G1 X117.343 Y99.884 E.0566
G1 X118.488 Y98.488 E.05661
G1 X119.884 Y97.343 E.05661
G1 X121.476 Y96.492 E.0566
G1 X123.203 Y95.968 E.05659
G1 X125 Y95.791 E.05662
G1 X126.797 Y95.968 E.05662
G1 X128.524 Y96.492 E.05659
G1 X130.116 Y97.343 E.0566
G1 X131.512 Y98.488 E.05661
G1 X132.657 Y99.884 E.05661
G1 X133.508 Y101.476 E.0566
G1 X134.032 Y103.203 E.05659
G1 X134.181 Y104.714 E.04761
G1 X134.19 Y105.191 E.01496
M73 Q3 S9
G1 X134.032 Y106.797 E.0506
G1 X133.508 Y108.524 E.05659
G1 X132.657 Y110.116 E.0566
G1 X131.512 Y111.512 E.05661
M73 P3 R9
G1 X130.116 Y112.657 E.05661
G1 X128.524 Y113.508 E.0566
G1 X126.797 Y114.032 E.05659
G1 X125 Y114.209 E.05662
G1 X123.203 Y114.032 E.05662
G1 X121.476 Y113.508 E.05659
G1 X119.884 Y112.657 E.0566
G1 X118.488 Y111.512 E.05661
G1 X117.343 Y110.116 E.05661
G1 X116.492 Y108.524 E.0566
G1 X115.968 Y106.797 E.05659
G1 X115.791 Y105 E.05662
G1 X115.962 Y103.263 E.05473
M204 S1000
G1 X115.962 Y103.263 F10800
G1 X115.596 Y103.129
M204 S800
;TYPE:External perimeter
G1 F1200
G1 X116.142 Y101.331 E.05892
G1 X117.028 Y99.673 E.05894
G1 X118.22 Y98.22 E.05893
G1 X119.673 Y97.028 E.05893
G1 X121.331 Y96.142 E.05894
G1 X123.129 Y95.596 E.05892
G1 X125 Y95.412 E.05895
G1 X126.871 Y95.596 E.05895
G1 X128.669 Y96.142 E.05892
G1 X130.327 Y97.028 E.05894
G1 X131.78 Y98.22 E.05893
G1 X132.972 Y99.673 E.05893
G1 X133.858 Y101.331 E.05894
G1 X134.404 Y103.129 E.05892
G1 X134.563 Y104.747 E.05098
G1 X134.566 Y105.228 E.01508
G1 X134.404 Y106.871 E.05176
G1 X133.858 Y108.669 E.05892
G1 X132.972 Y110.327 E.05894
G1 X131.78 Y111.78 E.05893
G1 X130.327 Y112.972 E.05893
G1 X128.669 Y113.858 E.05894
G1 X126.871 Y114.404 E.05892
G1 X125 Y114.588 E.05895
G1 X123.129 Y114.404 E.05895
G1 X121.331 Y113.858 E.05892
G1 X119.673 Y112.972 E.05894
G1 X118.22 Y111.78 E.05893
G1 X117.028 Y110.327 E.05893
G1 X116.142 Y108.669 E.05894
G1 X115.596 Y106.871 E.05892
G1 X115.412 Y105 E.05895
G1 X115.59 Y103.189 E.05706
M204 S1000
;WIPE_START
G1 F8640
G1 X115.596 Y103.129 E-.01392
G1 X116.142 Y101.331 E-.43388
G1 X116.861 Y99.986 E-.3522
;WIPE_END
G1 Z.6 F720
G1 X130.301 Y105.231 F10800
G1 Z.2 F720
G1 E.8 F2100
M204 S800
;TYPE:Perimeter
G1 F1200
G1 X130.277 Y105.428 E.00622
G1 X130.17 Y105.528 E.00459
G1 X130.184 Y105.915 E.01214
G1 X130.119 Y106.312 E.01261
G1 X129.721 Y107.375 E.03559
G1 X129.017 Y108.434 E.03987
G1 X128.08 Y109.294 E.03988
G1 X127.968 Y109.372 E.00428
G1 X126.964 Y109.906 E.03566
G1 X125.93 Y110.184 E.03357
G1 X125.598 Y110.251 E.01062
G1 X124.46 Y110.257 E.03568
G1 X123.219 Y109.975 E.0399
G1 X123.091 Y109.927 E.00429
G1 X122.081 Y109.405 E.03565
G1 X121.187 Y108.645 E.03679
G1 X121.025 Y108.482 E.00721
M73 Q4 S9
G1 X120.379 Y107.56 E.0353
G1 X119.882 Y106.312 E.04212
G1 X119.848 Y106.175 E.00443
G1 X119.717 Y105.096 E.03408
G1 X119.717 Y104.959 E.0043
G1 X119.861 Y103.775 E.0374
G1 X120.163 Y102.932 E.02808
M73 P4 R9
G1 X120.357 Y102.479 E.01545
G1 X121.025 Y101.519 E.03667
G1 X121.185 Y101.358 E.00712
G1 X121.939 Y100.692 E.03154
G1 X122.049 Y100.616 E.00419
G1 X123.025 Y100.1 E.03462
G1 X124.077 Y99.815 E.03417
G1 X124.504 Y99.744 E.01357
G1 X125.54 Y99.744 E.03248
G1 X126.821 Y100.04 E.04122
G1 X126.95 Y100.088 E.00432
G1 X127.93 Y100.603 E.03471
G1 X128.037 Y100.676 E.00406
G1 X128.874 Y101.41 E.03491
G1 X129.393 Y102.121 E.0276
G1 X129.703 Y102.591 E.01765
G1 X130.102 Y103.63 E.0349
G1 X130.144 Y103.837 E.00662
G1 X130.311 Y105.15 E.0415
G1 X130.309 Y105.171 E.00066
M204 S1000
G1 X130.309 Y105.171 F10800
G1 X129.833 Y105.359
M204 S800
;TYPE:External perimeter
G1 F1200
G1 X129.784 Y105.389 E.0018
G1 X129.809 Y105.869 E.01507
G1 X129.766 Y106.18 E.00984
G1 X129.368 Y107.242 E.03556
G1 X128.706 Y108.221 E.03705
G1 X127.829 Y109.013 E.03705
G1 X126.787 Y109.573 E.03709
G1 X125.837 Y109.818 E.03076
G1 X125.596 Y109.873 E.00775
G1 X124.458 Y109.88 E.03568
G1 X123.307 Y109.608 E.03708
G1 X122.252 Y109.069 E.03715
G1 X121.437 Y108.363 E.03381
G1 X120.914 Y107.666 E.02732
G1 X120.666 Y107.302 E.01381
G1 X120.234 Y106.177 E.03778
G1 X120.091 Y105.005 E.03702
G1 X120.235 Y103.82 E.03743
G1 X120.515 Y103.066 E.02522
G1 X120.689 Y102.657 E.01394
G1 X121.334 Y101.736 E.03525
G1 X122.189 Y100.975 E.03589
G1 X123.201 Y100.433 E.03599
G1 X124.17 Y100.181 E.03139
G1 X124.504 Y100.121 E.01064
G1 X125.54 Y100.121 E.03248
G1 X126.732 Y100.406 E.03843
G1 X127.753 Y100.935 E.03605
G1 X128.625 Y101.693 E.03623
G1 X129.085 Y102.338 E.02484
G1 X129.351 Y102.726 E.01475
G1 X129.75 Y103.765 E.0349
G1 X129.937 Y105.198 E.04531
G1 X129.919 Y105.306 E.00343
G1 X129.884 Y105.327 E.00128
M204 S1000
;WIPE_START
G1 F8640
G1 X129.833 Y105.359 E-.0139
G1 X129.784 Y105.389 E-.01327
G1 X129.809 Y105.869 E-.11098
G1 X129.766 Y106.18 E-.07249
G1 X129.368 Y107.242 E-.26187
G1 X128.706 Y108.221 E-.27288
G1 X128.53 Y108.38 E-.05461
;WIPE_END
G1 Z.6 F720
G1 X130.083 Y97.462 F10800
G1 Z.2 F720
G1 E.8 F2100
M204 S800
;TYPE:Solid infill
;WIDTH:0.422685
G1 F1200
G1 X131.314 Y98.693 E.05497
G1 X132.421 Y100.042 E.0551
G1 X132.76 Y100.676 E.0227
G1 X129.324 Y97.24 E.15344
G1 X128.415 Y96.754 E.03255
G1 X128.252 Y96.705 E.00537
G1 X133.295 Y101.748 E.22521
G1 X133.529 Y102.519 E.02544
G1 X127.481 Y96.471 E.27009
G1 X126.717 Y96.244 E.02517
G1 X133.756 Y103.283 E.31434
G1 X133.815 Y103.879 E.01891
G1 X126.121 Y96.185 E.34359
G1 X125.525 Y96.127 E.01891
G1 X133.873 Y104.475 E.3728
G1 X133.919 Y105.058 E.01847
M73 P5 R9
M73 Q5 S9
G1 X124.942 Y96.081 E.40089
G1 X124.453 Y96.129 E.01552
G1 X133.871 Y105.547 E.42058
G1 X133.823 Y106.035 E.01548
G1 X123.965 Y96.177 E.44023
G1 X123.476 Y96.225 E.01552
G1 X127.124 Y99.874 E.16293
G1 X126.939 Y99.779 E.00657
G1 X126.352 Y99.638 E.01906
G1 X123.029 Y96.316 E.14837
G1 X122.617 Y96.441 E.0136
G1 X125.646 Y99.47 E.13527
G1 X125.102 Y99.463 E.01718
G1 X122.205 Y96.566 E.12937
G1 X121.793 Y96.691 E.0136
G1 X124.564 Y99.461 E.12372
G1 X124.086 Y99.521 E.01521
G1 X121.412 Y96.847 E.11941
G1 X121.062 Y97.034 E.01253
G1 X123.658 Y99.63 E.11593
G1 X123.23 Y99.74 E.01395
G1 X120.712 Y97.221 E.11247
M73 P5 R8
G1 X120.362 Y97.408 E.01253
G1 X122.835 Y99.881 E.11044
G1 X122.484 Y100.067 E.01254
G1 X120.017 Y97.6 E.11017
G1 X119.722 Y97.842 E.01205
G1 X122.133 Y100.254 E.10769
G1 X121.86 Y100.399 E.00976
G1 X121.797 Y100.454 E.00264
G1 X119.427 Y98.084 E.10584
G1 X119.132 Y98.326 E.01205
G1 X121.511 Y100.706 E.10626
G1 X121.226 Y100.958 E.01201
G1 X118.837 Y98.568 E.10671
G1 X118.689 Y98.689 E.00604
M73 Q6 S9
G1 X118.568 Y98.837 E.00604
G1 X120.941 Y101.209 E.10595
G1 X120.835 Y101.303 E.00447
M73 P6 R8
G1 X120.696 Y101.501 E.00764
G1 X118.326 Y99.132 E.10582
G1 X118.084 Y99.427 E.01205
G1 X120.475 Y101.818 E.10678
G1 X120.254 Y102.134 E.01218
G1 X117.842 Y99.722 E.10771
G1 X117.6 Y100.017 E.01205
G1 X120.05 Y102.466 E.10939
G1 X119.893 Y102.847 E.01301
G1 X117.408 Y100.362 E.11097
G1 X117.221 Y100.712 E.01253
M73 Q6 S8
G1 X119.745 Y103.236 E.11272
G1 X119.606 Y103.634 E.01331
G1 X117.034 Y101.062 E.11486
G1 X116.847 Y101.412 E.01253
G1 X119.536 Y104.101 E.12008
G1 X119.478 Y104.58 E.01524
G1 X116.691 Y101.793 E.12446
G1 X116.566 Y102.205 E.0136
G1 X119.434 Y105.073 E.12808
G1 X119.509 Y105.685 E.01947
G1 X116.441 Y102.617 E.13701
G1 X116.316 Y103.03 E.01363
G1 X119.59 Y106.303 E.14619
G1 X119.909 Y107.159 E.02885
G1 X116.07 Y103.32 E.17144
M204 S1000
;WIPE_START
G1 F8640
G1 X118.52 Y105.77 E-.8
;WIPE_END
G1 Z.6 F720
G1 X129.813 Y102.563 F10800
G1 Z.2 F720
G1 E.8 F2100
M204 S800
G1 F1200
G1 X133.775 Y106.524 E.17691
G1 X133.753 Y106.741 E.00689
G1 X133.684 Y106.971 E.00758
G1 X130.4 Y103.687 E.14666
G1 X130.483 Y104.307 E.01975
G1 X133.559 Y107.383 E.13737
G1 X133.434 Y107.795 E.0136
G1 X130.566 Y104.927 E.12808
G1 X130.595 Y105.304 E.01194
G1 X130.563 Y105.461 E.00506
G1 X133.309 Y108.207 E.12263
G1 X133.246 Y108.415 E.00686
G1 X133.153 Y108.588 E.0062
G1 X130.468 Y105.903 E.11991
G1 X130.398 Y106.37 E.01491
G1 X132.966 Y108.938 E.11468
G1 X132.779 Y109.288 E.01253
G1 X130.252 Y106.761 E.11285
G1 X130.106 Y107.152 E.01318
G1 X132.592 Y109.638 E.11102
G1 X132.421 Y109.958 E.01146
M73 Q7 S8
G1 X132.4 Y109.983 E.00103
G1 X129.954 Y107.537 E.10923
G1 X129.747 Y107.867 E.0123
M73 P7 R8
G1 X132.158 Y110.278 E.10767
G1 X131.916 Y110.573 E.01205
G1 X129.528 Y108.185 E.10664
G1 X129.309 Y108.504 E.01222
G1 X131.674 Y110.868 E.10559
G1 X131.432 Y111.163 E.01205
G1 X129.058 Y108.789 E.10602
G1 X128.776 Y109.045 E.01203
G1 X131.163 Y111.432 E.1066
G1 X130.868 Y111.674 E.01205
G1 X128.494 Y109.3 E.10602
G1 X128.207 Y109.549 E.012
G1 X130.573 Y111.916 E.10568
G1 X130.278 Y112.158 E.01205
G1 X127.867 Y109.746 E.10769
G1 X127.516 Y109.933 E.01256
G1 X129.983 Y112.4 E.11017
G1 X129.638 Y112.592 E.01247
G1 X127.165 Y110.119 E.11044
G1 X126.946 Y110.218 E.00759
G1 X126.771 Y110.262 E.0057
G1 X129.288 Y112.779 E.1124
G1 X128.938 Y112.966 E.01253
G1 X126.34 Y110.368 E.11602
G1 X125.908 Y110.474 E.01405
G1 X128.588 Y113.153 E.11966
G1 X128.415 Y113.246 E.0062
G1 X128.207 Y113.309 E.00686
G1 X125.429 Y110.531 E.12406
G1 X124.894 Y110.533 E.01689
G1 X127.795 Y113.434 E.12955
G1 X127.383 Y113.559 E.0136
G1 X124.356 Y110.532 E.13518
G1 X123.654 Y110.368 E.02276
G1 X126.97 Y113.684 E.14808
G1 X126.741 Y113.753 E.00755
G1 X126.524 Y113.775 E.00689
G1 X122.497 Y109.747 E.17986
M204 S1000
;WIPE_START
G1 F8640
G1 X124.947 Y112.197 E-.8
;WIPE_END
G1 Z.6 F720
G1 X126.191 Y113.978 F10800
G1 Z.2 F720
G1 E.8 F2100
M204 S800
G1 F1200
G1 X116.177 Y103.965 E.44718
G1 X116.129 Y104.453 E.01548
G1 X125.547 Y113.871 E.42058
G1 X125.058 Y113.919 E.01552
M73 P8 R8
M73 Q8 S8
G1 X116.081 Y104.942 E.40089
G1 X116.127 Y105.526 E.0185
G1 X124.474 Y113.873 E.37276
G1 X123.879 Y113.814 E.01888
G1 X116.186 Y106.121 E.34355
G1 X116.244 Y106.717 E.01891
G1 X123.283 Y113.756 E.31434
G1 X122.519 Y113.529 E.02517
G1 X116.471 Y107.481 E.27009
G1 X116.705 Y108.252 E.02544
G1 X121.748 Y113.295 E.22521
G1 X121.585 Y113.246 E.00537
G1 X120.676 Y112.76 E.03255
G1 X117.24 Y109.324 E.15344
G1 X117.579 Y109.958 E.0227
G1 X118.686 Y111.307 E.0551
G1 X119.917 Y112.538 E.05497
M204 S1000
M106 S84.15
;LAYER_CHANGE
;Z:0.4
;HEIGHT:0.2
;BEFORE_LAYER_CHANGE
G92 E0.0
;0.4


;WIPE_START
G1 F8640
G1 X118.686 Y111.307 E-.40198
G1 X117.593 Y109.975 E-.39802
;WIPE_END
G1 Z.4 F720
;AFTER_LAYER_CHANGE
;0.4
M104 S210 ; set temperature
; stop printing object machinePince-supportPincefixationVisFinale.stl id:0 copy 0
G1 Z.8
G1 X114.617 Y112.313 F10800
G1 Z.4 F720
G1 E.8 F2100
;TYPE:Skirt/Brim
;WIDTH:0.42
G1 F3000
G1 X114.256 Y111.854 E.01831
G1 X113.126 Y109.626 E.07833
G1 X112.451 Y107.221 E.07832
G1 X112.259 Y104.73 E.07834
G1 X112.557 Y102.25 E.07832
G1 X113.332 Y99.875 E.07833
G1 X114.556 Y97.697 E.07833
G1 X116.182 Y95.8 E.07834
G1 X118.146 Y94.256 E.07833
G1 X120.374 Y93.126 E.07833
G1 X122.779 Y92.451 E.07832
G1 X124.73 Y92.259 E.06147
G1 X125.4 Y92.272 E.02101
G1 X127.75 Y92.557 E.07422
G1 X130.125 Y93.332 E.07833
G1 X132.303 Y94.556 E.07833
G1 X134.2 Y96.182 E.07834
G1 X135.744 Y98.146 E.07833
G1 X136.874 Y100.374 E.07833
G1 X137.549 Y102.779 E.07832
G1 X137.741 Y105.27 E.07834
G1 X137.443 Y107.75 E.07832
G1 X136.668 Y110.125 E.07833
G1 X135.444 Y112.303 E.07833
G1 X133.818 Y114.2 E.07834
M73 Q9 S8
G1 X131.854 Y115.744 E.07833
G1 X129.626 Y116.874 E.07833
M73 P9 R8
G1 X127.221 Y117.549 E.07832
G1 X124.73 Y117.741 E.07834
G1 X122.25 Y117.443 E.07832
G1 X119.875 Y116.668 E.07833
G1 X117.697 Y115.444 E.07833
G1 X115.8 Y113.818 E.07834
G1 X114.654 Y112.361 E.05812
G1 X114.654 Y112.361 F10800
G1 X114.947 Y112.13
G1 F3000
G1 X114.589 Y111.676 E.01813
G1 X113.486 Y109.517 E.07602
G1 X112.827 Y107.184 E.07601
G1 X112.634 Y104.767 E.07602
G1 X112.917 Y102.359 E.07602
G1 X113.665 Y100.053 E.07601
G1 X114.848 Y97.936 E.07604
G1 X116.421 Y96.091 E.07602
G1 X118.324 Y94.589 E.07601
G1 X120.483 Y93.486 E.07602
G1 X122.816 Y92.827 E.07601
G1 X124.767 Y92.634 E.06147
G1 X125.363 Y92.647 E.01869
G1 X127.641 Y92.917 E.07193
