; generated by PrusaSlicer 2.8.0+win64 on 2024-08-20 at 08:44:41 UTC


;
;
; 

; external perimeters extrusion width = 0.45mm
; perimeters extrusion width = 0.45mm
; infill extrusion width = 0.45mm
; solid infill extrusion width = 0.45mm
; top infill extrusion width = 0.40mm
; support material extrusion width = 0.35mm
; first layer extrusion width = 0.42mm

M73 P0 R218
M73 Q0 S220
M201 X1000 Y1000 Z200 E5000 ; sets maximum accelerations, mm/sec^2
M203 X200 Y200 Z12 E120 ; sets maximum feedrates, mm / sec
M204 S1250 T1250 ; sets acceleration (S) and retract acceleration (R), mm/sec^2
M205 X8.00 Y8.00 Z0.40 E4.50 ; sets the jerk limits, mm/sec
M205 S0 T0 ; sets the minimum extruding and travel feed rate, mm/sec

; printing object machinePince-PinceBoitier201pinceBoitier201.stl id:0 copy 0
; stop printing object machinePince-PinceBoitier201pinceBoitier201.stl id:0 copy 0

;TYPE:Custom
M862.3 P "MK3S" ; printer model check
M862.1 P0.4 ; nozzle diameter check
M115 U3.14.0 ; tell printer latest fw version
G90 ; use absolute coordinates
M83 ; extruder relative mode
M104 S215 ; set extruder temp
M140 S60 ; set bed temp
M190 S60 ; wait for bed temp
M109 S215 ; wait for extruder temp
G28 W ; home all without mesh bed level
G80 X82.6229 Y82.3729 W89.225 H48.7113 ; mesh bed levelling

G1 Z0.2 F720
G1 Y-3 F1000 ; go outside print area
G92 E0
G1 X60 E9 F1000 ; intro line
G1 X100 E12.5 F1000 ; intro line

G92 E0
M221 S95

; Don't change E values below. Excessive value can damage the printer.
M907 E430 ; set extruder motor current
G21 ; set units to millimeters
G90 ; use absolute coordinates
M83 ; use relative distances for extrusion

M900 K0.05 ; Filament gcode LA 1.5
M900 K30 ; Filament gcode LA 1.0




M107
;LAYER_CHANGE
;Z:0.2
;HEIGHT:0.2
G1 E-.8 F2100
G1 Z.6 F720
G1 X83.202 Y83.502 F10800
G1 Z.2 F720
G1 E.8 F2100
M204 S800
;TYPE:Skirt/Brim
;WIDTH:0.42
G1 F1200
G1 X84.235 Y82.699 E.04102
G1 X85 Y82.561 E.02437
G1 X165 Y82.561 E2.50834
G1 X166.248 Y82.952 E.04101
M73 P0 R217
G1 X167.166 Y84.439 E.05479
G1 X171.637 Y115.588 E.98666
G1 X171.659 Y128.707 E.41134
G1 X171.269 Y129.955 E.041
G1 X170.236 Y130.758 E.04102
G1 X169.471 Y130.896 E.02437
G1 X105.907 Y130.896 E1.993
G1 X105.045 Y130.719 E.02759
G1 X84.138 Y121.762 E.71315
G1 X83.145 Y120.911 E.041
G1 X82.811 Y119.75 E.03788
G1 X82.811 Y84.75 E1.0974
G1 X83.184 Y83.559 E.03913
M204 S1000
;WIPE_START
G1 F8640
G1 X83.202 Y83.502 E-.0138
G1 X84.235 Y82.699 E-.30211
G1 X85 Y82.561 E-.17949
G1 X86.319 Y82.561 E-.3046
;WIPE_END
G1 Z.6 F720
; printing object machinePince-PinceBoitier201pinceBoitier201.stl id:0 copy 0
G1 X169.471 Y128.707 F10800
G1 Z.2 F720
G1 E.8 F2100
M204 S800
;TYPE:Support material
G1 F1200
G1 X154.356 Y128.707 E.47392
G1 X154.356 Y120.23 E.26579
G1 X165.199 Y120.23 E.33997
G1 X165.48 Y119.949 E.01246
G1 X165.48 Y115.899 E.12698
G1 X169.471 Y115.899 E.12514
G1 X169.471 Y128.651 E.39983
M204 S1000
G1 X169.471 Y128.651 F10800
G1 X168.993 Y128.537
M204 S800
G1 F1200
G1 X168.993 Y116.238 E.38563
G1 X168.574 Y116.238 E.01314
G1 X168.574 Y128.368 E.38033
G1 X168.155 Y128.368 E.01314
G1 X168.155 Y116.238 E.38033
G1 X167.736 Y116.238 E.01314
G1 X167.736 Y128.368 E.38033
G1 X167.317 Y128.368 E.01314
G1 X167.317 Y116.238 E.38033
G1 X166.898 Y116.238 E.01314
G1 X166.898 Y128.368 E.38033
G1 X166.479 Y128.368 E.01314
G1 X166.479 Y116.238 E.38033
G1 X166.06 Y116.238 E.01314
G1 X166.06 Y128.368 E.38033
G1 X165.641 Y128.368 E.01314
G1 X165.641 Y120.268 E.25397
G1 X165.339 Y120.569 E.01337
G1 X165.222 Y120.569 E.00367
G1 X165.222 Y128.368 E.24453
G1 X164.803 Y128.368 E.01314
G1 X164.803 Y120.569 E.24453
G1 X164.384 Y120.569 E.01314
M73 Q0 S219
G1 X164.384 Y128.368 E.24453
G1 X163.965 Y128.368 E.01314
G1 X163.965 Y120.569 E.24453
G1 X163.546 Y120.569 E.01314
G1 X163.546 Y128.368 E.24453
G1 X163.127 Y128.368 E.01314
G1 X163.127 Y120.569 E.24453
G1 X162.708 Y120.569 E.01314
G1 X162.708 Y128.368 E.24453
G1 X162.289 Y128.368 E.01314
G1 X162.289 Y120.569 E.24453
G1 X161.87 Y120.569 E.01314
G1 X161.87 Y128.368 E.24453
G1 X161.451 Y128.368 E.01314
G1 X161.451 Y120.569 E.24453
G1 X161.032 Y120.569 E.01314
G1 X161.032 Y128.368 E.24453
G1 X160.613 Y128.368 E.01314
G1 X160.613 Y120.569 E.24453
G1 X160.194 Y120.569 E.01314
G1 X160.194 Y128.368 E.24453
G1 X159.775 Y128.368 E.01314
G1 X159.775 Y120.569 E.24453
G1 X159.356 Y120.569 E.01314
G1 X159.356 Y128.368 E.24453
G1 X158.937 Y128.368 E.01314
G1 X158.937 Y120.569 E.24453
G1 X158.518 Y120.569 E.01314
G1 X158.518 Y128.368 E.24453
G1 X158.099 Y128.368 E.01314
G1 X158.099 Y120.569 E.24453
G1 X157.68 Y120.569 E.01314
G1 X157.68 Y128.368 E.24453
G1 X157.261 Y128.368 E.01314
G1 X157.261 Y120.569 E.24453
G1 X156.842 Y120.569 E.01314
G1 X156.842 Y128.368 E.24453
G1 X156.423 Y128.368 E.01314
G1 X156.423 Y120.569 E.24453
G1 X156.004 Y120.569 E.01314
G1 X156.004 Y128.368 E.24453
G1 X155.585 Y128.368 E.01314
G1 X155.585 Y120.569 E.24453
G1 X155.166 Y120.569 E.01314
G1 X155.166 Y128.368 E.24453
G1 X154.747 Y128.368 E.01314
G1 X154.747 Y120.4 E.24983
M204 S1000
;WIPE_START
G1 F8640
G1 X154.747 Y123.865 E-.8
;WIPE_END
G1 Z.6 F720
G1 X121.022 Y128.707 F10800
G1 Z.2 F720
G1 E.8 F2100
M204 S800
G1 F1200
G1 X105.907 Y128.707 E.47392
G1 X105.907 Y120.23 E.26579
G1 X121.022 Y120.23 E.47392
G1 X121.022 Y128.651 E.26403
M204 S1000
G1 X121.022 Y128.651 F10800
G1 X120.391 Y128.537
M204 S800
G1 F1200
G1 X120.391 Y120.569 E.24983
G1 X119.972 Y120.569 E.01314
G1 X119.972 Y128.368 E.24453
G1 X119.553 Y128.368 E.01314
G1 X119.553 Y120.569 E.24453
G1 X119.134 Y120.569 E.01314
G1 X119.134 Y128.368 E.24453
G1 X118.715 Y128.368 E.01314
G1 X118.715 Y120.569 E.24453
G1 X118.296 Y120.569 E.01314
G1 X118.296 Y128.368 E.24453
G1 X117.877 Y128.368 E.01314
G1 X117.877 Y120.569 E.24453
G1 X117.458 Y120.569 E.01314
G1 X117.458 Y128.368 E.24453
G1 X117.039 Y128.368 E.01314
G1 X117.039 Y120.569 E.24453
G1 X116.62 Y120.569 E.01314
G1 X116.62 Y128.368 E.24453
G1 X116.201 Y128.368 E.01314
G1 X116.201 Y120.569 E.24453
G1 X115.783 Y120.569 E.01311
G1 X115.783 Y128.368 E.24453
G1 X115.364 Y128.368 E.01314
G1 X115.364 Y120.569 E.24453
G1 X114.945 Y120.569 E.01314
G1 X114.945 Y128.368 E.24453
G1 X114.526 Y128.368 E.01314
G1 X114.526 Y120.569 E.24453
G1 X114.107 Y120.569 E.01314
G1 X114.107 Y128.368 E.24453
G1 X113.688 Y128.368 E.01314
G1 X113.688 Y120.569 E.24453
G1 X113.269 Y120.569 E.01314
G1 X113.269 Y128.368 E.24453
G1 X112.85 Y128.368 E.01314
G1 X112.85 Y120.569 E.24453
G1 X112.431 Y120.569 E.01314
G1 X112.431 Y128.368 E.24453
G1 X112.012 Y128.368 E.01314
G1 X112.012 Y120.569 E.24453
G1 X111.593 Y120.569 E.01314
G1 X111.593 Y128.368 E.24453
G1 X111.174 Y128.368 E.01314
G1 X111.174 Y120.569 E.24453
G1 X110.755 Y120.569 E.01314
G1 X110.755 Y128.368 E.24453
G1 X110.336 Y128.368 E.01314
G1 X110.336 Y120.569 E.24453
G1 X109.917 Y120.569 E.01314
G1 X109.917 Y128.368 E.24453
G1 X109.498 Y128.368 E.01314
G1 X109.498 Y120.569 E.24453
G1 X109.079 Y120.569 E.01314
G1 X109.079 Y128.368 E.24453
G1 X108.66 Y128.368 E.01314
G1 X108.66 Y120.569 E.24453
G1 X108.241 Y120.569 E.01314
G1 X108.241 Y128.368 E.24453
G1 X107.822 Y128.368 E.01314
G1 X107.822 Y120.569 E.24453
G1 X107.403 Y120.569 E.01314
G1 X107.403 Y128.368 E.24453
G1 X106.984 Y128.368 E.01314
G1 X106.984 Y120.569 E.24453
G1 X106.565 Y120.569 E.01314
G1 X106.565 Y128.537 E.24983
M204 S1000
;WIPE_START
G1 F8640
G1 X106.565 Y125.072 E-.8
;WIPE_END
G1 Z.6 F720
G1 X123.588 Y115.681 F10800
G1 Z.2 F720
G1 E.8 F2100
M204 S800
;TYPE:Perimeter
;WIDTH:0.419999
G1 F1200
G1 X123.622 Y115.624 E.00208
G1 X123.774 Y115.46 E.00701
G1 X124.279 Y115.115 E.01918
G1 X124.844 Y114.977 E.01824
G1 X125.068 Y114.972 E.00703
G1 X125.574 Y115.062 E.01611
G1 X125.752 Y115.137 E.00606
G1 X126.179 Y115.412 E.01592
G1 X126.559 Y115.888 E.0191
G1 X126.649 Y116.08 E.00665
G1 X126.784 Y116.649 E.01834
G1 X126.707 Y117.252 E.01906
G1 X126.631 Y117.463 E.00703
G1 X126.378 Y117.876 E.01519
G1 X126.226 Y118.04 E.00701
G1 X125.833 Y118.323 E.01518
G1 X125.628 Y118.415 E.00705
;WIDTH:0.450386
G1 X125.131 Y118.543 E.01739
G1 X124.93 Y118.543 E.00681
G1 X124.455 Y118.444 E.01644
;WIDTH:0.419999
G1 X124.247 Y118.362 E.00701
G1 X123.84 Y118.1 E.01518
G1 X123.68 Y117.943 E.00703
G1 X123.407 Y117.543 E.01518
G1 X123.323 Y117.351 E.00657
G1 X123.228 Y116.937 E.01332
G1 X123.221 Y116.727 E.00659
G1 X123.326 Y116.124 E.01919
G1 X123.558 Y115.733 E.01426
M204 S1000
G1 X123.558 Y115.733 F10800
G1 X123.89 Y115.909
M204 S800
;TYPE:External perimeter
G1 F1200
G1 X123.944 Y115.821 E.00324
G1 X124.425 Y115.463 E.0188
G1 X124.928 Y115.345 E.0162
G1 X125.479 Y115.427 E.01747
G1 X125.949 Y115.712 E.01723
G1 X126.253 Y116.109 E.01568
G1 X126.403 Y116.643 E.01739
G1 X126.334 Y117.196 E.01747
G1 X126.056 Y117.679 E.01747
G1 X125.612 Y118.017 E.0175
G1 X125.072 Y118.155 E.01748
G1 X124.521 Y118.073 E.01747
G1 X124.045 Y117.783 E.01748
G1 X123.719 Y117.331 E.01747
G1 X123.593 Y116.783 E.01763
G1 X123.677 Y116.263 E.01652
G1 X123.859 Y115.961 E.01106
M204 S1000
;WIPE_START
G1 F8640
G1 X123.89 Y115.909 E-.01398
G1 X123.944 Y115.821 E-.02384
G1 X124.425 Y115.463 E-.13845
G1 X124.928 Y115.345 E-.1193
G1 X125.479 Y115.427 E-.12863
G1 X125.949 Y115.712 E-.12692
G1 X126.253 Y116.109 E-.11546
G1 X126.403 Y116.643 E-.12807
G1 X126.4 Y116.666 E-.00535
;WIPE_END
G1 Z.6 F720
G1 X123.3 Y88.183 F10800
G1 Z.2 F720
G1 E.8 F2100
M204 S800
;TYPE:Perimeter
G1 F1200
G1 X123.232 Y87.95 E.00761
G1 X123.221 Y87.727 E.007
G1 X123.293 Y87.248 E.01519
G1 X123.369 Y87.037 E.00703
G1 X123.622 Y86.624 E.01519
G1 X123.774 Y86.46 E.00701
G1 X124.167 Y86.177 E.01518
G1 X124.372 Y86.085 E.00705
;WIDTH:0.450386
G1 X124.869 Y85.957 E.01739
G1 X125.07 Y85.957 E.00681
G1 X125.545 Y86.056 E.01644
;WIDTH:0.419999
G1 X125.752 Y86.137 E.00697
G1 X126.153 Y86.394 E.01493
G1 X126.305 Y86.538 E.00656
G1 X126.559 Y86.888 E.01356
G1 X126.649 Y87.08 E.00665
G1 X126.768 Y87.55 E.0152
G1 X126.779 Y87.773 E.007
G1 X126.674 Y88.376 E.01919
G1 X126.378 Y88.876 E.01822
G1 X126.226 Y89.04 E.00701
G1 X125.806 Y89.341 E.0162
G1 X125.628 Y89.415 E.00604
G1 X125.126 Y89.529 E.01614
G1 X124.932 Y89.528 E.00608
G1 X124.426 Y89.438 E.01611
G1 X123.889 Y89.142 E.01923
G1 X123.734 Y89.001 E.00657
G1 X123.414 Y88.571 E.01681
G1 X123.317 Y88.24 E.01081
M204 S1000
G1 X123.317 Y88.24 F10800
G1 X123.663 Y88.09
M204 S800
;TYPE:External perimeter
G1 F1200
G1 X123.597 Y87.857 E.00759
G1 X123.666 Y87.304 E.01747
G1 X123.944 Y86.821 E.01747
G1 X124.388 Y86.483 E.0175
G1 X124.928 Y86.345 E.01748
G1 X125.479 Y86.427 E.01747
G1 X125.949 Y86.712 E.01723
G1 X126.253 Y87.109 E.01568
G1 X126.403 Y87.643 E.01739
G1 X126.334 Y88.196 E.01747
G1 X126.056 Y88.679 E.01747
G1 X125.612 Y89.017 E.0175
G1 X125.072 Y89.155 E.01748
G1 X124.521 Y89.073 E.01747
G1 X124.087 Y88.821 E.01574
G1 X123.749 Y88.393 E.0171
G1 X123.679 Y88.148 E.00799
M204 S1000
;WIPE_START
G1 F8640
G1 X123.663 Y88.09 E-.01389
G1 X123.597 Y87.857 E-.05592
G1 X123.666 Y87.304 E-.12868
G1 X123.944 Y86.821 E-.12868
G1 X124.388 Y86.483 E-.12885
G1 X124.928 Y86.345 E-.12869
G1 X125.479 Y86.427 E-.12863
G1 X125.8 Y86.621 E-.08666
;WIPE_END
G1 Z.6 F720
G1 X85.787 Y118.963 F10800
G1 Z.2 F720
G1 E.8 F2100
M204 S800
;TYPE:Perimeter
G1 F1200
G1 X85.787 Y85.537 E1.04805
G1 X124.31 Y85.537 E1.20786
;WIDTH:0.444486
G1 X125.59 Y85.537 E.04274
;WIDTH:0.419999
G1 X164.213 Y85.537 E1.211
G1 X164.213 Y102.25 E.52402
G1 X164.213 Y118.963 E.52402
G1 X125.69 Y118.963 E1.20786
;WIDTH:0.444486
G1 X124.41 Y118.963 E.04274
M73 P0 R216
;WIDTH:0.419999
G1 X85.847 Y118.963 E1.20911
M204 S1000
G1 X85.41 Y119.34 F10800
M204 S800
;TYPE:External perimeter
G1 F1200
G1 X85.41 Y85.16 E1.07169
G1 X164.59 Y85.16 E2.48263
G1 X164.59 Y102.25 E.53584
G1 X164.59 Y119.34 E.53584
G1 X85.47 Y119.34 E2.48075
M204 S1000
;WIPE_START
G1 F8640
G1 X85.41 Y119.34 E-.01385
G1 X85.41 Y115.935 E-.78615
;WIPE_END
G1 Z.6 F720
G1 X164.043 Y86.471 F10800
G1 Z.2 F720
G1 E.8 F2100
M204 S800
;TYPE:Solid infill
;WIDTH:0.421114
G1 F1200
G1 X163.448 Y85.876 E.02646
G1 X162.913 Y85.876 E.01682
G1 X163.874 Y86.837 E.04274
G1 X163.874 Y87.371 E.01679
G1 X162.379 Y85.876 E.06649
G1 X161.844 Y85.876 E.01682
G1 X163.874 Y87.906 E.09028
G1 X163.874 Y88.441 E.01682
G1 X161.309 Y85.876 E.11407
G1 X160.774 Y85.876 E.01682
G1 X163.874 Y88.976 E.13787
G1 X163.874 Y89.511 E.01682
G1 X160.239 Y85.876 E.16166
G1 X159.704 Y85.876 E.01682
G1 X163.874 Y90.046 E.18545
G1 X163.874 Y90.58 E.01679
G1 X159.17 Y85.876 E.2092
G1 X158.635 Y85.876 E.01682
G1 X163.874 Y91.115 E.23299
G1 X163.874 Y91.65 E.01682
G1 X158.1 Y85.876 E.25679
G1 X157.565 Y85.876 E.01682
G1 X163.874 Y92.185 E.28058
G1 X163.874 Y92.72 E.01682
G1 X157.03 Y85.876 E.30437
G1 X156.495 Y85.876 E.01682
M73 Q0 S218
G1 X163.874 Y93.255 E.32816
G1 X163.874 Y93.79 E.01682
G1 X155.96 Y85.876 E.35196
G1 X155.426 Y85.876 E.01679
G1 X163.874 Y94.324 E.37571
G1 X163.874 Y94.859 E.01682
G1 X154.891 Y85.876 E.3995
G1 X154.356 Y85.876 E.01682
G1 X163.874 Y95.394 E.42329
G1 X163.874 Y95.929 E.01682
G1 X153.821 Y85.876 E.44708
G1 X153.286 Y85.876 E.01682
G1 X163.874 Y96.464 E.47088
G1 X163.874 Y96.999 E.01682
G1 X152.751 Y85.876 E.49467
G1 X152.217 Y85.876 E.01679
G1 X163.874 Y97.534 E.51844
G1 X163.874 Y98.068 E.01679
G1 X151.682 Y85.876 E.54221
G1 X151.147 Y85.876 E.01682
G1 X163.874 Y98.603 E.566
G1 X163.874 Y99.138 E.01682
G1 X150.612 Y85.876 E.5898
G1 X150.077 Y85.876 E.01682
G1 X163.874 Y99.673 E.61359
G1 X163.874 Y100.208 E.01682
G1 X149.542 Y85.876 E.63738
G1 X149.007 Y85.876 E.01682
G1 X163.874 Y100.743 E.66118
G1 X163.874 Y101.277 E.01679
G1 X148.473 Y85.876 E.68492
G1 X147.938 Y85.876 E.01682
G1 X163.874 Y101.812 E.70872
G1 X163.874 Y102.347 E.01682
G1 X147.403 Y85.876 E.73251
G1 X146.868 Y85.876 E.01682
G1 X163.874 Y102.882 E.7563
G1 X163.874 Y103.417 E.01682
G1 X146.333 Y85.876 E.7801
G1 X145.798 Y85.876 E.01682
G1 X163.874 Y103.952 E.80389
G1 X163.874 Y104.487 E.01682
G1 X145.263 Y85.876 E.82768
G1 X144.729 Y85.876 E.01679
G1 X163.874 Y105.021 E.85143
G1 X163.874 Y105.556 E.01682
G1 X144.194 Y85.876 E.87522
G1 X143.659 Y85.876 E.01682
G1 X163.874 Y106.091 E.89902
G1 X163.874 Y106.626 E.01682
G1 X143.124 Y85.876 E.92281
G1 X142.589 Y85.876 E.01682
G1 X163.874 Y107.161 E.9466
G1 X163.874 Y107.696 E.01682
G1 X142.054 Y85.876 E.97039
G1 X141.52 Y85.876 E.01679
G1 X163.874 Y108.23 E.99414
G1 X163.874 Y108.765 E.01682
G1 X140.985 Y85.876 E1.01794
G1 X140.45 Y85.876 E.01682
G1 X163.874 Y109.3 E1.04173
G1 X163.874 Y109.835 E.01682
G1 X139.915 Y85.876 E1.06552
G1 X139.38 Y85.876 E.01682
G1 X163.874 Y110.37 E1.08931
G1 X163.874 Y110.905 E.01682
G1 X138.845 Y85.876 E1.11311
G1 X138.31 Y85.876 E.01682
M73 P0 R215
G1 X163.874 Y111.44 E1.1369
G1 X163.874 Y111.974 E.01679
M73 P1 R215
M73 Q1 S218
G1 X137.776 Y85.876 E1.16065
G1 X137.241 Y85.876 E.01682
G1 X163.874 Y112.509 E1.18444
G1 X163.874 Y113.044 E.01682
G1 X136.706 Y85.876 E1.20823
G1 X136.171 Y85.876 E.01682
G1 X163.874 Y113.579 E1.23203
G1 X163.874 Y114.114 E.01682
G1 X135.636 Y85.876 E1.25582
G1 X135.101 Y85.876 E.01682
G1 X163.874 Y114.649 E1.27961
G1 X163.874 Y115.183 E.01679
G1 X134.567 Y85.876 E1.30336
G1 X134.032 Y85.876 E.01682
G1 X163.874 Y115.718 E1.32715
G1 X163.874 Y116.253 E.01682
G1 X133.497 Y85.876 E1.35095
G1 X132.962 Y85.876 E.01682
M73 Q1 S217
G1 X163.874 Y116.788 E1.37474
G1 X163.874 Y117.323 E.01682
G1 X132.427 Y85.876 E1.39853
G1 X131.892 Y85.876 E.01682
G1 X163.874 Y117.858 E1.42233
G1 X163.874 Y118.393 E.01682
G1 X131.357 Y85.876 E1.44612
G1 X130.823 Y85.876 E.01679
G1 X163.57 Y118.624 E1.45637
G1 X163.035 Y118.624 E.01682
G1 X130.288 Y85.876 E1.45637
G1 X129.753 Y85.876 E.01682
G1 X162.5 Y118.624 E1.45637
G1 X161.965 Y118.624 E.01682
G1 X129.218 Y85.876 E1.45637
G1 X128.683 Y85.876 E.01682
G1 X161.43 Y118.624 E1.45637
G1 X160.895 Y118.624 E.01682
G1 X128.148 Y85.876 E1.45637
G1 X127.614 Y85.876 E.01679
G1 X160.361 Y118.624 E1.45637
G1 X159.826 Y118.624 E.01682
G1 X127.079 Y85.876 E1.45637
G1 X126.544 Y85.876 E.01682
G1 X159.291 Y118.624 E1.45637
G1 X158.756 Y118.624 E.01682
G1 X125.839 Y85.707 E1.46391
M204 S1000
;WIPE_START
G1 F8640
G1 X128.289 Y88.157 E-.8
