; generated by PrusaSlicer 2.7.4+win64 on 2024-06-21 at 10:30:33 UTC


;
;
; 

; external perimeters extrusion width = 0.45mm
; perimeters extrusion width = 0.45mm
; infill extrusion width = 0.45mm
; solid infill extrusion width = 0.45mm
; top infill extrusion width = 0.40mm
; first layer extrusion width = 0.42mm

M73 P0 R45
M73 Q0 S45
M201 X1000 Y1000 Z200 E5000 ; sets maximum accelerations, mm/sec^2
M203 X200 Y200 Z12 E120 ; sets maximum feedrates, mm / sec
M204 S1250 T1250 ; sets acceleration (S) and retract acceleration (R), mm/sec^2
M205 X8.00 Y8.00 Z0.40 E4.50 ; sets the jerk limits, mm/sec
M205 S0 T0 ; sets the minimum extruding and travel feed rate, mm/sec

; printing object machinePince-supportPince.stl id:0 copy 0
; stop printing object machinePince-supportPince.stl id:0 copy 0

;TYPE:Custom
M862.3 P "MK3S" ; printer model check
M862.1 P0.4 ; nozzle diameter check
M115 U3.12.1 ; tell printer latest fw version
G90 ; use absolute coordinates
M83 ; extruder relative mode
M104 S215 ; set extruder temp
M140 S60 ; set bed temp
M190 S60 ; wait for bed temp
M109 S215 ; wait for extruder temp
G28 W ; home all without mesh bed level
G80 ; mesh bed leveling

G1 Z0.2 F720
G1 Y-3 F1000 ; go outside print area
G92 E0
G1 X60 E9 F1000 ; intro line
M73 P0 R44
G1 X100 E12.5 F1000 ; intro line

G92 E0
M221 S95

; Don't change E values below. Excessive value can damage the printer.
M907 E430 ; set extruder motor current
G21 ; set units to millimeters
G90 ; use absolute coordinates
M83 ; use relative distances for extrusion
M900 K0.05 ; Filament gcode LA 1.5
M900 K30 ; Filament gcode LA 1.0
M107
;LAYER_CHANGE
;Z:0.2
;HEIGHT:0.2
G1 E-.8 F2100
G1 Z.6 F720
G1 X74.06 Y92.817 F10800
G1 Z.2 F720
G1 E.8 F2100
M204 S800
;TYPE:Skirt/Brim
;WIDTH:0.42
G1 F1200
G1 X75 Y92.623 E.03009
G1 X175 Y92.623 E3.13543
G1 X176.307 Y93.015 E.04278
G1 X177.183 Y94.06 E.04275
G1 X177.377 Y95 E.03009
G1 X177.377 Y115 E.62709
G1 X176.985 Y116.307 E.04278
G1 X175.94 Y117.183 E.04275
G1 X175 Y117.377 E.03009
G1 X75 Y117.377 E3.13543
G1 X73.693 Y116.985 E.04278
G1 X72.817 Y115.94 E.04275
G1 X72.623 Y115 E.03009
G1 X72.623 Y95 E.62709
G1 X73.015 Y93.693 E.04278
G1 X74.014 Y92.855 E.04088
M204 S1000
;WIPE_START
G1 F8640
G1 X74.06 Y92.817 E-.01378
G1 X75 Y92.623 E-.22162
G1 X77.445 Y92.623 E-.5646
;WIPE_END
G1 Z.6 F720
; printing object machinePince-supportPince.stl id:0 copy 0
G1 X174.213 Y114.213 F10800
G1 Z.2 F720
G1 E.8 F2100
M204 S800
;TYPE:Perimeter
;WIDTH:0.419999
G1 F1200
G1 X75.787 Y114.213 E3.08607
G1 X75.787 Y95.787 E.57773
M73 Q0 S44
G1 X174.213 Y95.787 E3.08607
M73 Q1 S44
G1 X174.213 Y102.17 E.20013
M73 P1 R44
G1 X174.213 Y114.153 E.37572
M204 S1000
G1 X174.59 Y114.59 F10800
M204 S800
;TYPE:External perimeter
G1 F1200
G1 X75.41 Y114.59 E3.10971
G1 X75.41 Y95.41 E.60137
G1 X174.59 Y95.41 E3.10971
G1 X174.59 Y102.17 E.21195
G1 X174.59 Y114.53 E.38754
M204 S1000
;WIPE_START
G1 F8640
G1 X174.59 Y114.59 E-.01385
G1 X171.185 Y114.59 E-.78615
;WIPE_END
G1 Z.6 F720
G1 X150.281 Y104.132 F10800
G1 Z.2 F720
G1 E.8 F2100
M204 S800
;TYPE:Perimeter
G1 F1200
G1 X150.386 Y103.599 E.01703
G1 X150.553 Y103.047 E.01808
G1 X150.774 Y102.515 E.01806
G1 X151.048 Y102.007 E.0181
G1 X151.37 Y101.529 E.01807
G1 X151.739 Y101.085 E.0181
G1 X152.15 Y100.68 E.01809
G1 X152.599 Y100.318 E.01808
G1 X153.082 Y100.003 E.01808
G1 X153.594 Y99.737 E.01809
G1 X154.13 Y99.524 E.01808
G1 X154.685 Y99.365 E.0181
G1 X155.253 Y99.262 E.0181
G1 X155.828 Y99.216 E.01809
G1 X156.404 Y99.228 E.01806
G1 X156.977 Y99.297 E.0181
G1 X157.54 Y99.422 E.01808
G1 X158.088 Y99.603 E.0181
G1 X158.615 Y99.838 E.01809
G1 X159.116 Y100.124 E.01809
G1 X159.586 Y100.458 E.01808
G1 X160.02 Y100.838 E.01809
G1 X160.415 Y101.259 E.0181
G1 X160.765 Y101.717 E.01807
G1 X161.068 Y102.208 E.01809
G1 X161.321 Y102.726 E.01808
G1 X161.521 Y103.267 E.01808
G1 X161.666 Y103.826 E.01811
G1 X161.755 Y104.396 E.01809
G1 X161.786 Y104.972 E.01809
G1 X161.761 Y105.548 E.01808
G1 X161.617 Y106.387 E.02669
G1 X161.447 Y106.953 E.01853
G1 X161.226 Y107.485 E.01806
G1 X160.952 Y107.993 E.0181
G1 X160.63 Y108.471 E.01807
G1 X160.261 Y108.915 E.0181
G1 X159.85 Y109.32 E.01809
G1 X159.401 Y109.682 E.01808
G1 X158.918 Y109.997 E.01808
G1 X158.406 Y110.263 E.01809
G1 X157.87 Y110.476 E.01808
G1 X157.315 Y110.635 E.0181
G1 X156.747 Y110.738 E.0181
G1 X156.172 Y110.784 E.01809
G1 X155.596 Y110.772 E.01806
G1 X155.023 Y110.703 E.0181
G1 X154.46 Y110.578 E.01808
G1 X153.912 Y110.397 E.0181
G1 X153.385 Y110.162 E.01809
G1 X152.884 Y109.876 E.01809
G1 X152.414 Y109.542 E.01808
G1 X151.98 Y109.162 E.01809
G1 X151.585 Y108.741 E.0181
G1 X151.235 Y108.283 E.01807
G1 X150.932 Y107.792 E.01809
G1 X150.679 Y107.274 E.01808
G1 X150.487 Y106.755 E.01735
G1 X150.334 Y106.174 E.01884
G1 X150.245 Y105.604 E.01809
G1 X150.22 Y104.754 E.02666
G1 X150.272 Y104.191 E.01773
M204 S1000
G1 X150.272 Y104.191 F10800
G1 X150.608 Y104.629
M204 S800
;TYPE:External perimeter
G1 F1200
G1 X150.649 Y104.203 E.01342
G1 X150.755 Y103.674 E.01692
G1 X150.913 Y103.159 E.01689
G1 X151.122 Y102.661 E.01693
G1 X151.379 Y102.187 E.01691
G1 X151.682 Y101.741 E.01691
G1 X152.028 Y101.327 E.01692
G1 X152.413 Y100.95 E.0169
G1 X152.834 Y100.613 E.01691
G1 X153.287 Y100.32 E.01692
G1 X153.766 Y100.073 E.0169
G1 X154.268 Y99.875 E.01692
G1 X154.787 Y99.728 E.01691
G1 X155.318 Y99.633 E.01691
G1 X155.856 Y99.592 E.01692
G1 X156.395 Y99.605 E.0169
G1 X156.93 Y99.671 E.0169
G1 X157.456 Y99.79 E.01691
G1 X157.968 Y99.961 E.01693
G1 X158.46 Y100.182 E.01691
G1 X158.927 Y100.45 E.01688
G1 X159.366 Y100.765 E.01694
G1 X159.771 Y101.121 E.01691
G1 X160.138 Y101.515 E.01688
G1 X160.465 Y101.945 E.01694
G1 X160.747 Y102.404 E.01689
G1 X160.981 Y102.89 E.01691
G1 X161.167 Y103.396 E.0169
G1 X161.301 Y103.919 E.01693
G1 X161.382 Y104.452 E.0169
G1 X161.41 Y104.991 E.01692
G1 X161.384 Y105.529 E.01689
G1 X161.246 Y106.321 E.02521
G1 X161.087 Y106.841 E.01705
G1 X160.878 Y107.339 E.01693
G1 X160.621 Y107.813 E.01691
G1 X160.318 Y108.259 E.01691
G1 X159.972 Y108.673 E.01692
G1 X159.587 Y109.05 E.0169
G1 X159.166 Y109.387 E.01691
G1 X158.713 Y109.68 E.01692
G1 X158.234 Y109.927 E.0169
G1 X157.732 Y110.125 E.01692
G1 X157.213 Y110.272 E.01691
G1 X156.682 Y110.367 E.01691
G1 X156.144 Y110.408 E.01692
G1 X155.605 Y110.395 E.0169
G1 X155.07 Y110.329 E.0169
G1 X154.544 Y110.21 E.01691
G1 X154.032 Y110.039 E.01693
G1 X153.54 Y109.818 E.01691
G1 X153.073 Y109.55 E.01688
G1 X152.634 Y109.235 E.01694
G1 X152.229 Y108.879 E.01691
G1 X151.862 Y108.485 E.01688
G1 X151.535 Y108.055 E.01694
G1 X151.253 Y107.596 E.01689
G1 X151.019 Y107.11 E.01691
G1 X150.842 Y106.626 E.01616
G1 X150.699 Y106.081 E.01767
G1 X150.618 Y105.548 E.0169
G1 X150.596 Y104.744 E.02522
G1 X150.602 Y104.689 E.00173
M204 S1000
;WIPE_START
G1 F8640
G1 X150.608 Y104.629 E-.01392
G1 X150.649 Y104.203 E-.09882
G1 X150.755 Y103.674 E-.12458
G1 X150.913 Y103.159 E-.12439
G1 X151.122 Y102.661 E-.12471
G1 X151.379 Y102.187 E-.1245
G1 X151.682 Y101.741 E-.1245
G1 X151.861 Y101.527 E-.06458
;WIPE_END
G1 Z.6 F720
G1 X115.626 Y103.286 F10800
G1 Z.2 F720
G1 E.8 F2100
M204 S800
;TYPE:Perimeter
G1 F1200
G1 X115.676 Y103.259 E.00178
G1 X116.036 Y103.15 E.01179
G1 X116.409 Y103.115 E.01175
G1 X116.783 Y103.154 E.01179
G1 X117.141 Y103.266 E.01176
G1 X117.47 Y103.448 E.01179
G1 X117.756 Y103.69 E.01175
G1 X118.013 Y103.979 E.01213
G1 X118.013 Y98.279 E.17872
G1 X118.036 Y98.12 E.00504
G1 X118.126 Y97.939 E.00634
G1 X118.312 Y97.779 E.00769
G1 X118.579 Y97.713 E.00862
G1 X141.921 Y97.713 E.73187
G1 X142.188 Y97.779 E.00862
G1 X142.374 Y97.939 E.00769
G1 X142.464 Y98.12 E.00634
G1 X142.487 Y98.279 E.00504
G1 X142.487 Y104.029 E.18029
G1 X142.603 Y103.861 E.0064
G1 X143.046 Y103.437 E.01923
G1 X143.376 Y103.259 E.01176
G1 X143.736 Y103.15 E.01179
G1 X144.109 Y103.115 E.01175
G1 X144.483 Y103.154 E.01179
G1 X144.841 Y103.266 E.01176
G1 X145.17 Y103.448 E.01179
G1 X145.512 Y103.757 E.01445
G1 X145.705 Y104.015 E.0101
G1 X145.869 Y104.36 E.01198
G1 X145.985 Y104.907 E.01753
G1 X145.942 Y105.389 E.01517
G1 X145.839 Y105.724 E.01099
G1 X145.679 Y106.031 E.01085
G1 X145.443 Y106.323 E.01177
G1 X145.154 Y106.563 E.01178
G1 X144.824 Y106.741 E.01176
G1 X144.464 Y106.85 E.01179
G1 X144.091 Y106.885 E.01175
G1 X143.717 Y106.846 E.01179
G1 X143.359 Y106.734 E.01176
G1 X143.03 Y106.552 E.01179
G1 X142.744 Y106.31 E.01175
G1 X142.487 Y106.021 E.01213
G1 X142.487 Y111.721 E.17872
G1 X142.464 Y111.88 E.00504
G1 X142.374 Y112.061 E.00634
G1 X142.188 Y112.221 E.00769
G1 X141.921 Y112.287 E.00862
G1 X118.579 Y112.287 E.73187
G1 X118.312 Y112.221 E.00862
G1 X118.126 Y112.061 E.00769
G1 X118.036 Y111.88 E.00634
G1 X118.013 Y111.721 E.00504
G1 X118.013 Y105.971 E.18029
G1 X117.675 Y106.388 E.01683
M73 Q2 S44
G1 X117.375 Y106.614 E.01178
G1 X117.036 Y106.775 E.01177
G1 X116.63 Y106.867 E.01305
G1 X116.017 Y106.846 E.01923
G1 X115.659 Y106.734 E.01176
G1 X115.33 Y106.552 E.01179
G1 X115.044 Y106.31 E.01175
G1 X114.811 Y106.015 E.01179
G1 X114.642 Y105.68 E.01176
G1 X114.528 Y105.18 E.01608
G1 X114.513 Y105.028 E.00479
G1 X114.564 Y104.571 E.01442
G1 X114.707 Y104.18 E.01305
G1 X115.001 Y103.734 E.01675
G1 X115.346 Y103.437 E.01427
M73 P2 R44
G1 X115.573 Y103.315 E.00808
M204 S1000
G1 X115.573 Y103.315 F10800
G1 X115.817 Y103.61
M204 S800
;TYPE:External perimeter
G1 F1200
G1 X116.082 Y103.524 E.00874
G1 X116.381 Y103.491 E.00943
G1 X116.681 Y103.517 E.00944
G1 X116.969 Y103.602 E.00942
G1 X117.235 Y103.742 E.00942
G1 X117.467 Y103.933 E.00942
G1 X117.658 Y104.165 E.00942
;WIDTH:0.445453
G1 X117.779 Y104.42 E.00945
;WIDTH:0.470906
G1 X117.9 Y104.675 E.01004
;WIDTH:0.472443
G1 X117.935 Y105.021 E.01242
;WIDTH:0.478219
G1 X117.903 Y105.326 E.0111
G1 X117.78 Y105.58 E.01021
;WIDTH:0.449109
G1 X117.658 Y105.835 E.00955
;WIDTH:0.419999
G1 X117.44 Y106.094 E.01061
G1 X117.203 Y106.278 E.00941
G1 X116.934 Y106.412 E.00942
G1 X116.63 Y106.49 E.00984
G1 X116.119 Y106.483 E.01602
G1 X115.831 Y106.398 E.00942
G1 X115.565 Y106.258 E.00942
G1 X115.333 Y106.067 E.00942
G1 X115.142 Y105.835 E.00942
G1 X115.002 Y105.569 E.00942
G1 X114.903 Y105.142 E.01374
G1 X114.89 Y105.009 E.00419
G1 X114.924 Y104.683 E.01028
G1 X115.024 Y104.385 E.00986
G1 X115.306 Y103.96 E.01599
G1 X115.534 Y103.764 E.00943
G1 X115.762 Y103.636 E.0082
M204 S1000
;WIPE_START
G1 F8640
G1 X115.817 Y103.61 E-.01405
G1 X116.082 Y103.524 E-.06433
G1 X116.381 Y103.491 E-.06946
G1 X116.681 Y103.517 E-.06953
G1 X116.969 Y103.602 E-.06934
G1 X117.235 Y103.742 E-.06941
G1 X117.467 Y103.933 E-.06939
G1 X117.658 Y104.165 E-.06939
G1 X117.779 Y104.42 E-.06517
G1 X117.9 Y104.675 E-.06517
G1 X117.935 Y105.021 E-.0803
G1 X117.903 Y105.326 E-.07081
G1 X117.859 Y105.418 E-.02365
;WIPE_END
G1 Z.6 F720
G1 X142.11 Y111.721 F10800
G1 Z.2 F720
G1 E.8 F2100
M204 S800
G1 F1200
G1 X142.072 Y111.835 E.00377
G1 X141.921 Y111.91 E.00529
G1 X118.579 Y111.91 E.73187
G1 X118.428 Y111.835 E.00529
G1 X118.39 Y111.721 E.00377
G1 X118.39 Y108.25 E.10883
G1 X118.39 Y105.758 E.07813
;WIDTH:0.446221
G1 X118.377 Y105.4 E.01201
;WIDTH:0.472443
G1 X118.364 Y105.043 E.01276
G1 X118.386 Y104.342 E.02505
;WIDTH:0.42727
G1 X118.39 Y103.597 E.02381
;WIDTH:0.419999
G1 X118.39 Y98.279 E.16674
G1 X118.428 Y98.165 E.00377
G1 X118.579 Y98.09 E.00529
G1 X141.921 Y98.09 E.73187
G1 X142.072 Y98.165 E.00529
G1 X142.11 Y98.279 E.00377
G1 X142.11 Y104.242 E.18697
;WIDTH:0.446221
G1 X142.123 Y104.6 E.01201
;WIDTH:0.472442
G1 X142.136 Y104.957 E.01276
G1 X142.117 Y105.658 E.02505
;WIDTH:0.433096
G1 X142.11 Y106.403 E.02417
;WIDTH:0.419999
G1 X142.11 Y111.661 E.16486
M204 S1000
;WIPE_START
G1 F8640
G1 X142.11 Y111.721 E-.01385
G1 X142.072 Y111.835 E-.02775
G1 X141.921 Y111.91 E-.03893
G1 X138.805 Y111.91 E-.71947
;WIPE_END
G1 Z.6 F720
G1 X144.682 Y106.39 F10800
G1 Z.2 F720
G1 E.8 F2100
M204 S800
G1 F1200
G1 X144.418 Y106.476 E.00871
G1 X144.119 Y106.509 E.00943
G1 X143.819 Y106.483 E.00944
G1 X143.531 Y106.398 E.00942
G1 X143.265 Y106.258 E.00942
G1 X143.033 Y106.067 E.00942
G1 X142.842 Y105.835 E.00942
;WIDTH:0.449111
G1 X142.72 Y105.58 E.00955
;WIDTH:0.478222
G1 X142.597 Y105.326 E.01021
G1 X142.565 Y104.979 E.01261
;WIDTH:0.472442
G1 X142.6 Y104.675 E.01093
;WIDTH:0.470908
G1 X142.721 Y104.42 E.01004
;WIDTH:0.445454
G1 X142.842 Y104.166 E.00942
;WIDTH:0.419999
G1 X143.194 Y103.795 E.01604
G1 X143.496 Y103.617 E.01099
G1 X143.782 Y103.524 E.00943
G1 X144.081 Y103.491 E.00943
G1 X144.381 Y103.517 E.00944
G1 X144.669 Y103.602 E.00942
G1 X145.089 Y103.866 E.01555
G1 X145.374 Y104.195 E.01365
G1 X145.52 Y104.524 E.01129
G1 X145.608 Y104.944 E.01345
G1 X145.576 Y105.296 E.01108
G1 X145.398 Y105.771 E.0159
G1 X145.194 Y106.04 E.01059
G1 X144.966 Y106.236 E.00943
G1 X144.736 Y106.365 E.00827
M204 S1000
;WIPE_START
G1 F8640
G1 X144.682 Y106.39 E-.01374
G1 X144.418 Y106.476 E-.06411
G1 X144.119 Y106.509 E-.06946
G1 X143.819 Y106.483 E-.06953
G1 X143.531 Y106.398 E-.06934
G1 X143.265 Y106.258 E-.06941
G1 X143.033 Y106.067 E-.06939
G1 X142.842 Y105.835 E-.06939
G1 X142.72 Y105.58 E-.06527
G1 X142.597 Y105.326 E-.06516
G1 X142.565 Y104.979 E-.08046
G1 X142.6 Y104.675 E-.07066
G1 X142.645 Y104.581 E-.02408
;WIPE_END
G1 Z.6 F720
G1 X94.145 Y110.782 F10800
G1 Z.2 F720
M73 P2 R43
G1 E.8 F2100
M204 S800
;TYPE:Perimeter
G1 F1200
G1 X93.596 Y110.772 E.01722
G1 X93.023 Y110.703 E.0181
G1 X92.46 Y110.578 E.01808
G1 X91.912 Y110.397 E.0181
G1 X91.385 Y110.162 E.01809
G1 X90.884 Y109.876 E.01809
G1 X90.414 Y109.542 E.01808
G1 X89.98 Y109.162 E.01809
G1 X89.585 Y108.741 E.0181
G1 X89.235 Y108.283 E.01807
G1 X88.932 Y107.792 E.01809
G1 X88.679 Y107.274 E.01808
G1 X88.479 Y106.733 E.01808
G1 X88.334 Y106.174 E.01811
G1 X88.245 Y105.604 E.01809
G1 X88.22 Y104.754 E.02666
G1 X88.274 Y104.165 E.01855
G1 X88.386 Y103.599 E.01809
G1 X88.553 Y103.047 E.01808
G1 X88.774 Y102.515 E.01806
G1 X89.048 Y102.007 E.0181
G1 X89.37 Y101.529 E.01807
G1 X89.739 Y101.085 E.0181
G1 X90.15 Y100.68 E.01809
G1 X90.599 Y100.318 E.01808
G1 X91.082 Y100.003 E.01808
G1 X91.594 Y99.737 E.01809
G1 X92.13 Y99.524 E.01808
G1 X92.685 Y99.365 E.0181
G1 X93.253 Y99.262 E.0181
G1 X93.828 Y99.216 E.01809
G1 X94.404 Y99.228 E.01806
G1 X94.977 Y99.297 E.0181
G1 X95.54 Y99.422 E.01808
G1 X96.088 Y99.603 E.0181
G1 X96.615 Y99.838 E.01809
G1 X97.116 Y100.124 E.01809
G1 X97.586 Y100.458 E.01808
G1 X98.02 Y100.838 E.01809
G1 X98.415 Y101.259 E.0181
G1 X98.765 Y101.717 E.01807
G1 X99.068 Y102.208 E.01809
G1 X99.321 Y102.726 E.01808
G1 X99.521 Y103.267 E.01808
G1 X99.666 Y103.826 E.01811
G1 X99.755 Y104.396 E.01809
G1 X99.786 Y104.972 E.01809
G1 X99.761 Y105.548 E.01808
G1 X99.677 Y106.119 E.0181
G1 X99.538 Y106.679 E.01809
G1 X99.343 Y107.222 E.01809
G1 X99.095 Y107.743 E.01809
G1 X98.797 Y108.236 E.01806
G1 X98.451 Y108.698 E.0181
G1 X98.061 Y109.123 E.01809
G1 X97.63 Y109.506 E.01808
G1 X97.163 Y109.845 E.01809
G1 X96.665 Y110.136 E.01808
G1 X96.14 Y110.376 E.0181
G1 X95.594 Y110.563 E.0181
G1 X95.033 Y110.694 E.01806
G1 X94.205 Y110.781 E.0261
M204 S1000
G1 X94.205 Y110.781 F10800
G1 X94.163 Y110.406
M204 S800
;TYPE:External perimeter
G1 F1200
G1 X94.149 Y110.408 E.00044
G1 X93.605 Y110.395 E.01706
G1 X93.07 Y110.329 E.0169
G1 X92.544 Y110.21 E.01691
G1 X92.032 Y110.039 E.01693
G1 X91.54 Y109.818 E.01691
G1 X91.073 Y109.55 E.01688
G1 X90.634 Y109.235 E.01694
G1 X90.229 Y108.879 E.01691
G1 X89.862 Y108.485 E.01688
G1 X89.535 Y108.055 E.01694
G1 X89.253 Y107.596 E.01689
G1 X89.019 Y107.11 E.01691
G1 X88.833 Y106.604 E.0169
G1 X88.699 Y106.081 E.01693
G1 X88.618 Y105.548 E.0169
G1 X88.596 Y104.744 E.02522
G1 X88.649 Y104.203 E.01704
G1 X88.755 Y103.674 E.01692
G1 X88.913 Y103.159 E.01689
G1 X89.122 Y102.661 E.01693
G1 X89.379 Y102.187 E.01691
G1 X89.682 Y101.741 E.01691
G1 X90.028 Y101.327 E.01692
G1 X90.413 Y100.95 E.0169
G1 X90.834 Y100.613 E.01691
G1 X91.287 Y100.32 E.01692
G1 X91.766 Y100.073 E.0169
G1 X92.268 Y99.875 E.01692
G1 X92.787 Y99.728 E.01691
G1 X93.318 Y99.633 E.01691
G1 X93.856 Y99.592 E.01692
G1 X94.395 Y99.605 E.0169
G1 X94.93 Y99.671 E.0169
G1 X95.456 Y99.79 E.01691
G1 X95.968 Y99.961 E.01693
