; generated by PrusaSlicer 2.7.4+win64 on 2024-06-21 at 08:46:33 UTC


;
;
; 

; external perimeters extrusion width = 0.45mm
; perimeters extrusion width = 0.45mm
; infill extrusion width = 0.45mm
; solid infill extrusion width = 0.45mm
; top infill extrusion width = 0.40mm
; first layer extrusion width = 0.42mm

M73 P0 R48
M73 Q0 S49
M201 X1000 Y1000 Z200 E5000 ; sets maximum accelerations, mm/sec^2
M203 X200 Y200 Z12 E120 ; sets maximum feedrates, mm / sec
M204 S1250 T1250 ; sets acceleration (S) and retract acceleration (R), mm/sec^2
M205 X8.00 Y8.00 Z0.40 E4.50 ; sets the jerk limits, mm/sec
M205 S0 T0 ; sets the minimum extruding and travel feed rate, mm/sec

; printing object machinePince-pinceNonMotorisée.stl id:0 copy 0
; stop printing object machinePince-pinceNonMotorisée.stl id:0 copy 0

;TYPE:Custom
M862.3 P "MK3S" ; printer model check
M862.1 P0.4 ; nozzle diameter check
M115 U3.12.1 ; tell printer latest fw version
G90 ; use absolute coordinates
M83 ; extruder relative mode
M104 S215 ; set extruder temp
M140 S60 ; set bed temp
M190 S60 ; wait for bed temp
M109 S215 ; wait for extruder temp
G28 W ; home all without mesh bed level
G80 ; mesh bed leveling

G1 Z0.2 F720
G1 Y-3 F1000 ; go outside print area
G92 E0
G1 X60 E9 F1000 ; intro line
G1 X100 E12.5 F1000 ; intro line

G92 E0
M221 S95

; Don't change E values below. Excessive value can damage the printer.
M907 E430 ; set extruder motor current
G21 ; set units to millimeters
G90 ; use absolute coordinates
M83 ; use relative distances for extrusion
M900 K0.05 ; Filament gcode LA 1.5
M900 K30 ; Filament gcode LA 1.0
M107
;LAYER_CHANGE
;Z:0.2
;HEIGHT:0.2
G1 E-.8 F2100
G1 Z.6 F720
G1 X84.41 Y93.028 F10800
G1 Z.2 F720
G1 E.8 F2100
M204 S800
;TYPE:Skirt/Brim
;WIDTH:0.42
G1 F1200
G1 X90.776 Y88.403 E.24672
G1 X91.898 Y87.899 E.03857
G1 X92.902 Y87.591 E.03293
G1 X93.562 Y87.497 E.0209
G1 X101.435 Y87.496 E.24685
G1 X101.944 Y87.551 E.01605
G1 X168.01 Y102.03 E2.12062
G1 X169.203 Y102.692 E.04278
M73 Q0 S48
G1 X169.878 Y104.352 E.05619
G1 X169.878 Y110.352 E.18813
G1 X169.486 Y111.659 E.04278
G1 X168.684 Y112.414 E.03454
G1 X165.867 Y114.031 E.10184
G1 X162.874 Y115.565 E.10545
G1 X159.811 Y116.954 E.10545
G1 X156.577 Y118.233 E.10904
G1 X153.393 Y119.315 E.10544
G1 X150.161 Y120.243 E.10543
G1 X146.999 Y120.991 E.10188
G1 X143.694 Y121.609 E.10542
G1 X140.362 Y122.068 E.10546
G1 X136.898 Y122.373 E.10903
G1 X133.538 Y122.504 E.10543
G1 X130.227 Y122.475 E.10382
G1 X93.485 Y121.207 E1.15271
G1 X92.906 Y121.114 E.01839
G1 X91.825 Y120.78 E.03547
G1 X90.776 Y120.301 E.03616
G1 X84.41 Y115.676 E.24672
G1 X83.931 Y115.212 E.02091
G1 X82.979 Y113.902 E.05077
G1 X82.686 Y113.302 E.02094
G1 X80.254 Y105.819 E.2467
G1 X80.122 Y104.596 E.03857
G1 X80.139 Y103.542 E.03305
G1 X80.254 Y102.885 E.02091
G1 X82.686 Y95.402 E.2467
G1 X82.979 Y94.802 E.02094
G1 X83.584 Y93.94 E.03302
G1 X84.37 Y93.072 E.03672
M204 S1000
;WIPE_START
G1 F8640
G1 X84.41 Y93.028 E-.01373
G1 X87.165 Y91.026 E-.78627
;WIPE_END
G1 Z.6 F720
; printing object machinePince-pinceNonMotorisée.stl id:0 copy 0
G1 X105.756 Y106.355 F10800
G1 Z.2 F720
G1 E.8 F2100
M204 S800
;TYPE:Perimeter
;WIDTH:0.639156
G1 F1200
G1 X105.752 Y106.266 E.00442
;WIDTH:0.595325
G1 X105.747 Y106.177 E.00409
;WIDTH:0.551494
G1 X105.743 Y106.087 E.00381
;WIDTH:0.507662
G1 X105.738 Y105.998 E.00344
;WIDTH:0.463831
G1 X105.733 Y105.908 E.00315
;WIDTH:0.419999
G1 X105.836 Y105.195 E.02259
G1 X105.879 Y104.332 E.02709
G1 X105.838 Y103.534 E.02505
G1 X105.73 Y102.778 E.02394
;WIDTH:0.462994
G1 X105.734 Y102.689 E.00311
;WIDTH:0.505989
G1 X105.738 Y102.599 E.00347
;WIDTH:0.548983
G1 X105.741 Y102.509 E.00379
;WIDTH:0.591978
G1 X105.745 Y102.42 E.00407
;WIDTH:0.634972
G1 X105.749 Y102.33 E.00444
G1 X105.781 Y102.367 E.00241
;WIDTH:0.609097
G1 X105.812 Y102.403 E.00224
;WIDTH:0.583221
G1 X105.945 Y102.548 E.00884
;WIDTH:0.542416
G1 X106.078 Y102.693 E.00817
;WIDTH:0.50161
G1 X106.21 Y102.838 E.00748
;WIDTH:0.460805
G1 X106.343 Y102.982 E.00681
;WIDTH:0.419999
G1 X106.894 Y103.293 E.01984
G1 X107.276 Y103.384 E.01231
G1 X107.749 Y103.371 E.01484
G1 X109.179 Y103.125 E.0455
G1 X109.734 Y103.183 E.0175
G1 X110.141 Y103.307 E.01334
G1 X110.848 Y103.566 E.02361
G1 X111.703 Y104.05 E.03081
G1 X111.703 Y104.656 E.019
G1 X111.384 Y104.861 E.01189
G1 X110.811 Y105.16 E.02026
G1 X110.174 Y105.403 E.02138
G1 X109.766 Y105.5 E.01315
G1 X109.18 Y105.58 E.01854
G1 X107.576 Y105.316 E.05097
G1 X107.011 Y105.373 E.01781
G1 X106.477 Y105.622 E.01847
G1 X106.143 Y105.923 E.0141
;WIDTH:0.463831
G1 X106.065 Y106.01 E.00409
;WIDTH:0.507662
G1 X105.988 Y106.096 E.00446
;WIDTH:0.551494
G1 X105.911 Y106.182 E.00488
;WIDTH:0.595325
G1 X105.834 Y106.269 E.00534
;WIDTH:0.639156
G1 X105.796 Y106.311 E.00281
M204 S1000
;WIPE_START
G1 F8640
G1 X105.756 Y106.355 E-.01373
G1 X105.752 Y106.266 E-.02057
G1 X105.747 Y106.177 E-.02058
G1 X105.743 Y106.087 E-.0208
G1 X105.738 Y105.998 E-.02058
G1 X105.733 Y105.908 E-.02081
G1 X105.836 Y105.195 E-.16634
G1 X105.879 Y104.332 E-.19952
G1 X105.838 Y103.534 E-.1845
G1 X105.757 Y102.966 E-.13257
;WIPE_END
G1 Z.6 F720
G1 X105.354 Y101.122 F10800
G1 Z.2 F720
G1 E.8 F2100
M204 S800
;WIDTH:0.64693
G1 F1200
G1 X105.289 Y101.031 E.00562
;WIDTH:0.601544
G1 X105.225 Y100.94 E.00517
;WIDTH:0.556158
G1 X105.161 Y100.849 E.00475
;WIDTH:0.510772
G1 X105.096 Y100.758 E.00435
;WIDTH:0.465386
G1 X105.032 Y100.667 E.00391
;WIDTH:0.419999
G1 X104.657 Y99.979 E.02457
G1 X104.217 Y99.329 E.02461
G1 X103.875 Y98.915 E.01684
G1 X103.363 Y98.367 E.02351
;WIDTH:0.464419
G1 X103.286 Y98.266 E.00445
;WIDTH:0.508839
G1 X103.208 Y98.165 E.00494
;WIDTH:0.553259
G1 X103.13 Y98.064 E.00542
;WIDTH:0.597679
G1 X103.053 Y97.963 E.00586
;WIDTH:0.642098
G1 X102.975 Y97.862 E.00636
G1 X103.044 Y97.874 E.00349
;WIDTH:0.604195
G1 X103.113 Y97.887 E.00328
;WIDTH:0.566292
G1 X103.182 Y97.9 E.00306
;WIDTH:0.528389
G1 X103.251 Y97.913 E.00283
;WIDTH:0.490486
G1 X103.515 Y97.977 E.01011
;WIDTH:0.455243
G1 X103.779 Y98.041 E.00931
;WIDTH:0.419999
G1 X104.258 Y98.028 E.01502
G1 X104.71 Y97.892 E.0148
G1 X105.133 Y97.611 E.01592
G1 X106.108 Y96.616 E.04368
G1 X106.475 Y96.338 E.01444
G1 X106.997 Y96.094 E.01807
G1 X107.497 Y95.944 E.01637
G1 X108.059 Y95.83 E.01798
G1 X108.808 Y95.752 E.02361
G1 X109.169 Y96.25 E.01929
G1 X109.032 Y96.603 E.01187
G1 X108.741 Y97.187 E.02046
G1 X108.458 Y97.642 E.0168
G1 X108.042 Y98.158 E.02078
G1 X107.655 Y98.489 E.01597
G1 X106.221 Y99.208 E.0503
G1 X105.848 Y99.518 E.01521
G1 X105.538 Y100.027 E.01869
G1 X105.415 Y100.601 E.01841
;WIDTH:0.465386
G1 X105.403 Y100.705 E.00368
;WIDTH:0.510772
G1 X105.391 Y100.809 E.00407
;WIDTH:0.556158
G1 X105.378 Y100.914 E.00452
;WIDTH:0.601544
G1 X105.366 Y101.018 E.00486
;WIDTH:0.64693
G1 X105.361 Y101.062 E.00222
M204 S1000
;WIPE_START
G1 F8640
G1 X105.354 Y101.122 E-.01395
G1 X105.289 Y101.031 E-.02582
G1 X105.225 Y100.94 E-.02569
G1 X105.161 Y100.849 E-.02569
G1 X105.096 Y100.758 E-.02582
G1 X105.032 Y100.667 E-.02569
G1 X104.657 Y99.979 E-.18093
G1 X104.217 Y99.329 E-.18124
G1 X103.875 Y98.915 E-.12399
G1 X103.369 Y98.374 E-.17118
;WIPE_END
G1 Z.6 F720
G1 X98.642 Y96.043 F10800
G1 Z.2 F720
G1 E.8 F2100
M204 S800
;WIDTH:0.465102
G1 F1200
G1 X98.544 Y96.012 E.00361
;WIDTH:0.510205
G1 X98.445 Y95.981 E.00403
;WIDTH:0.555307
G1 X98.346 Y95.949 E.00443
;WIDTH:0.60041
G1 X98.247 Y95.918 E.00481
;WIDTH:0.645512
G1 X98.149 Y95.886 E.00517
G1 X98.203 Y95.863 E.00294
;WIDTH:0.612915
G1 X98.366 Y95.787 E.00852
;WIDTH:0.564686
G1 X98.53 Y95.712 E.00782
;WIDTH:0.516457
G1 X98.694 Y95.637 E.0071
;WIDTH:0.468228
G1 X98.858 Y95.562 E.00638
;WIDTH:0.419999
G1 X99.25 Y95.265 E.01542
G1 X99.537 Y94.888 E.01486
G1 X99.726 Y94.356 E.0177
G1 X99.94 Y92.882 E.0467
G1 X100.207 Y92.295 E.02022
G1 X100.533 Y91.817 E.01814
G1 X100.887 Y91.412 E.01687
G1 X101.594 Y90.748 E.03041
G1 X102.178 Y90.939 E.01927
G1 X102.275 Y91.305 E.01187
G1 X102.383 Y91.949 E.02047
G1 X102.422 Y92.483 E.01679
G1 X102.389 Y93.145 E.02078
G1 X102.27 Y93.638 E.0159
G1 X101.577 Y94.957 E.04672
G1 X101.412 Y95.536 E.01888
G1 X101.438 Y96.042 E.01589
G1 X101.577 Y96.455 E.01366
;WIDTH:0.462381
G1 X101.62 Y96.55 E.00364
;WIDTH:0.504762
G1 X101.663 Y96.645 E.004
;WIDTH:0.547143
G1 X101.706 Y96.74 E.00437
;WIDTH:0.589524
G1 X101.749 Y96.835 E.00474
;WIDTH:0.631905
G1 X101.792 Y96.929 E.00506
;WIDTH:0.674286
G1 X101.835 Y97.024 E.00547
G1 X101.759 Y97.011 E.00405
;WIDTH:0.626938
G1 X101.684 Y96.997 E.00371
;WIDTH:0.57959
G1 X101.608 Y96.983 E.00345
;WIDTH:0.532242
G1 X101.533 Y96.97 E.0031
;WIDTH:0.484894
G1 X101.274 Y96.853 E.01044
;WIDTH:0.452447
G1 X101.015 Y96.736 E.00968
;WIDTH:0.419999
G1 X100.026 Y96.362 E.03315
G1 X99.408 Y96.185 E.02016
G1 X98.701 Y96.054 E.02254
M204 S1000
;WIPE_START
G1 F8640
G1 X98.642 Y96.043 E-.01386
G1 X98.544 Y96.012 E-.02373
G1 X98.445 Y95.981 E-.02395
G1 X98.346 Y95.949 E-.02402
G1 X98.247 Y95.918 E-.02395
G1 X98.149 Y95.886 E-.0238
G1 X98.203 Y95.863 E-.01355
G1 X98.366 Y95.787 E-.04153
G1 X98.53 Y95.712 E-.04164
G1 X98.694 Y95.637 E-.04164
G1 X98.858 Y95.562 E-.04164
G1 X99.25 Y95.265 E-.11356
G1 X99.537 Y94.888 E-.1094
G1 X99.726 Y94.356 E-.13036
G1 X99.809 Y93.785 E-.13337
;WIPE_END
G1 Z.6 F720
G1 X93.035 Y97.13 F10800
G1 Z.2 F720
G1 E.8 F2100
M204 S800
;WIDTH:0.647728
G1 F1200
G1 X93.114 Y96.993 E.00795
;WIDTH:0.602183
G1 X93.194 Y96.855 E.00742
;WIDTH:0.556637
G1 X93.273 Y96.718 E.00676
;WIDTH:0.511091
G1 X93.352 Y96.581 E.00616
;WIDTH:0.465545
G1 X93.432 Y96.443 E.00561
;WIDTH:0.419999
G1 X93.53 Y96.174 E.00898
G1 X93.596 Y95.705 E.01485
G1 X93.56 Y95.354 E.01106
G1 X93.401 Y94.909 E.01482
G1 X92.785 Y93.738 E.04149
G1 X92.691 Y93.509 E.00776
G1 X92.595 Y92.984 E.01673
G1 X92.608 Y92.279 E.02211
G1 X92.667 Y91.659 E.01953
G1 X92.825 Y90.938 E.02314
G1 X93.393 Y90.753 E.01873
G1 X93.726 Y91.039 E.01376
G1 X94.172 Y91.471 E.01947
G1 X94.591 Y91.979 E.02065
G1 X94.803 Y92.332 E.01291
G1 X95.06 Y92.865 E.01855
G1 X95.33 Y94.573 E.05422
G1 X95.511 Y94.953 E.0132
G1 X95.871 Y95.379 E.01749
G1 X96.233 Y95.606 E.0134
;WIDTH:0.461745
G1 X96.372 Y95.661 E.00521
;WIDTH:0.50349
G1 X96.511 Y95.716 E.00572
;WIDTH:0.545236
G1 X96.651 Y95.771 E.00628
;WIDTH:0.586981
G1 X96.79 Y95.826 E.00676
;WIDTH:0.628726
G1 X96.929 Y95.881 E.00728
G1 X96.849 Y95.914 E.00422
;WIDTH:0.584428
G1 X96.768 Y95.948 E.00396
;WIDTH:0.54013
G1 X96.688 Y95.981 E.00358
;WIDTH:0.495832
G1 X96.435 Y96.036 E.00975
;WIDTH:0.457916
G1 X96.182 Y96.09 E.00893
;WIDTH:0.419999
G1 X95.504 Y96.214 E.02161
G1 X94.629 Y96.481 E.02868
G1 X94.12 Y96.677 E.0171
G1 X93.546 Y96.962 E.02009
;WIDTH:0.465545
G1 X93.444 Y96.996 E.00378
;WIDTH:0.511091
G1 X93.342 Y97.029 E.00417
;WIDTH:0.556637
G1 X93.239 Y97.063 E.00463
;WIDTH:0.602183
G1 X93.137 Y97.096 E.00499
;WIDTH:0.647728
G1 X93.092 Y97.111 E.00239
M204 S1000
;WIPE_START
G1 F8640
G1 X93.035 Y97.13 E-.01387
G1 X93.114 Y96.993 E-.03652
G1 X93.194 Y96.855 E-.03683
G1 X93.273 Y96.718 E-.03652
G1 X93.352 Y96.581 E-.03652
G1 X93.432 Y96.443 E-.03683
G1 X93.53 Y96.174 E-.06611
G1 X93.596 Y95.705 E-.10936
G1 X93.56 Y95.354 E-.08147
G1 X93.401 Y94.909 E-.10911
G1 X92.923 Y94.001 E-.23686
;WIPE_END
G1 Z.6 F720
G1 X89.631 Y101.166 F10800
G1 Z.2 F720
G1 E.8 F2100
M204 S800
;WIDTH:0.637132
G1 F1200
G1 X89.62 Y101.022 E.00714
;WIDTH:0.593706
G1 X89.609 Y100.877 E.00666
;WIDTH:0.550279
G1 X89.597 Y100.733 E.0061
;WIDTH:0.506853
G1 X89.586 Y100.588 E.00561
;WIDTH:0.463426
G1 X89.575 Y100.443 E.00508
;WIDTH:0.419999
G1 X89.403 Y99.893 E.01807
G1 X89.13 Y99.493 E.01518
G1 X88.731 Y99.176 E.01598
G1 X87.484 Y98.557 E.04365
G1 X87.106 Y98.293 E.01446
G1 X86.712 Y97.872 E.01808
G1 X86.415 Y97.443 E.01636
G1 X86.133 Y96.944 E.01797
G1 X85.828 Y96.256 E.0236
G1 X86.189 Y95.758 E.01929
G1 X86.568 Y95.78 E.0119
G1 X87.213 Y95.876 E.02045
G1 X87.733 Y96.004 E.01679
G1 X88.353 Y96.241 E.02081
G1 X88.787 Y96.506 E.01594
G1 X89.914 Y97.648 E.05031
G1 X90.326 Y97.908 E.01528
G1 X90.828 Y98.04 E.01627
G1 X91.346 Y98.018 E.01626
;WIDTH:0.466616
G1 X91.463 Y98 E.00417
;WIDTH:0.513233
G1 X91.58 Y97.982 E.00463
;WIDTH:0.55985
G1 X91.698 Y97.963 E.00514
;WIDTH:0.606467
G1 X91.815 Y97.945 E.00555
;WIDTH:0.653084
G1 X91.932 Y97.927 E.00601
G1 X91.898 Y97.985 E.00341
;WIDTH:0.615033
G1 X91.865 Y98.044 E.00322
;WIDTH:0.576982
G1 X91.831 Y98.102 E.00299
;WIDTH:0.538931
G1 X91.691 Y98.263 E.0088
;WIDTH:0.499287
G1 X91.551 Y98.425 E.00812
;WIDTH:0.459643
G1 X91.412 Y98.586 E.00737
;WIDTH:0.419999
G1 X90.877 Y99.208 E.02572
G1 X90.431 Y99.842 E.0243
G1 X90.158 Y100.317 E.01718
G1 X89.893 Y100.843 E.01847
;WIDTH:0.463426
G1 X89.84 Y100.907 E.00291
;WIDTH:0.506853
G1 X89.788 Y100.972 E.00321
;WIDTH:0.550279
G1 X89.736 Y101.037 E.00351
;WIDTH:0.593706
G1 X89.683 Y101.102 E.00384
;WIDTH:0.637132
G1 X89.669 Y101.12 E.00113
M204 S1000
;WIPE_START
G1 F8640
G1 X89.631 Y101.166 E-.01378
G1 X89.62 Y101.022 E-.03335
G1 X89.609 Y100.877 E-.03358
G1 X89.597 Y100.733 E-.03337
G1 X89.586 Y100.588 E-.03358
G1 X89.575 Y100.443 E-.03358
G1 X89.403 Y99.893 E-.13306
G1 X89.13 Y99.493 E-.11182
G1 X88.731 Y99.176 E-.11767
G1 X87.737 Y98.682 E-.25621
;WIPE_END
G1 Z.6 F720
G1 X89.249 Y106.369 F10800
G1 Z.2 F720
G1 E.8 F2100
M204 S800
;WIDTH:0.641634
G1 F1200
G1 X89.204 Y106.319 E.00335
;WIDTH:0.605285
G1 X89.158 Y106.269 E.00318
;WIDTH:0.568935
G1 X89.013 Y106.105 E.00957
;WIDTH:0.51929
G1 X88.867 Y105.942 E.00867
;WIDTH:0.469645
G1 X88.722 Y105.778 E.00777
;WIDTH:0.419999
G1 X88.381 Y105.529 E.01324
G1 X87.78 Y105.332 E.01983
G1 X87.307 Y105.325 E.01483
G1 X85.964 Y105.555 E.04272
G1 X85.703 Y105.576 E.00821
G1 X85.173 Y105.505 E.01677
G1 X84.148 Y105.13 E.03422
G1 X83.298 Y104.663 E.03041
G1 X83.298 Y104.048 E.01928
G1 X83.617 Y103.843 E.01189
G1 X84.196 Y103.542 E.02046
G1 X84.692 Y103.34 E.01679
G1 X85.231 Y103.194 E.01751
G1 X85.808 Y103.125 E.01822
G1 X87.304 Y103.378 E.04757
G1 X87.895 Y103.352 E.01855
G1 X88.27 Y103.233 E.01234
G1 X88.617 Y103.017 E.01282
G1 X88.912 Y102.715 E.01324
;WIDTH:0.464494
G1 X88.98 Y102.641 E.00352
;WIDTH:0.508989
G1 X89.048 Y102.566 E.00392
;WIDTH:0.553483
G1 X89.116 Y102.492 E.00427
;WIDTH:0.597978
G1 X89.183 Y102.418 E.00461
;WIDTH:0.642472
G1 X89.251 Y102.344 E.00501
G1 X89.256 Y102.434 E.00449
;WIDTH:0.593442
G1 X89.261 Y102.525 E.00417
;WIDTH:0.544412
G1 X89.266 Y102.615 E.00376
;WIDTH:0.495382
G1 X89.271 Y102.706 E.00343
;WIDTH:0.446352
G1 X89.208 Y103.147 E.01494
;WIDTH:0.419999
G1 X89.132 Y103.803 E.02071
G1 X89.121 Y104.378 E.01803
G1 X89.154 Y105.075 E.02188
G1 X89.253 Y105.822 E.02363
;WIDTH:0.464326
G1 X89.252 Y105.931 E.00382
;WIDTH:0.508653
G1 X89.252 Y106.041 E.00426
;WIDTH:0.55298
G1 X89.251 Y106.15 E.00462
;WIDTH:0.597307
G1 X89.25 Y106.26 E.00507
;WIDTH:0.641634
G1 X89.25 Y106.309 E.00244
M204 S1000
;WIPE_START
G1 F8640
G1 X89.249 Y106.369 E-.01386
G1 X89.204 Y106.319 E-.01553
G1 X89.158 Y106.269 E-.01569
G1 X89.013 Y106.105 E-.05055
G1 X88.867 Y105.942 E-.05053
G1 X88.722 Y105.778 E-.05055
G1 X88.381 Y105.529 E-.0975
G1 X87.78 Y105.332 E-.14604
G1 X87.307 Y105.325 E-.10923
G1 X86.238 Y105.508 E-.25052
;WIPE_END
G1 Z.6 F720
G1 X92.002 Y110.822 F10800
G1 Z.2 F720
G1 E.8 F2100
M204 S800
;WIDTH:0.646902
G1 F1200
G1 X91.919 Y110.81 E.00421
;WIDTH:0.599103
G1 X91.835 Y110.798 E.00392
;WIDTH:0.551303
G1 X91.752 Y110.786 E.00355
;WIDTH:0.503503
G1 X91.669 Y110.774 E.00321
;WIDTH:0.455703
G1 X91.43 Y110.705 E.00854
;WIDTH:0.419999
G1 X90.83 Y110.665 E.01885
G1 X90.339 Y110.79 E.01589
G1 X89.914 Y111.056 E.01572
G1 X88.788 Y112.196 E.05024
G1 X88.225 Y112.515 E.02029
G1 X87.498 Y112.758 E.02403
G1 X86.923 Y112.871 E.01837
G1 X86.188 Y112.945 E.02316
G1 X85.837 Y112.461 E.01875
G1 X86.006 Y112.056 E.01376
G1 X86.294 Y111.472 E.02042
G1 X86.568 Y111.037 E.01612
G1 X86.929 Y110.604 E.01768
G1 X87.331 Y110.223 E.01737
G1 X88.781 Y109.496 E.05086
G1 X89.179 Y109.157 E.01639
G1 X89.474 Y108.667 E.01793
G1 X89.575 Y108.261 E.01312
;WIDTH:0.46324
G1 X89.596 Y108.178 E.00299
;WIDTH:0.50648
G1 X89.617 Y108.095 E.0033
;WIDTH:0.54972
G1 X89.638 Y108.012 E.00361
;WIDTH:0.59296
G1 X89.659 Y107.928 E.00396
;WIDTH:0.6362
