; generated by PrusaSlicer 2.8.0+win64 on 2024-08-11 at 08:23:44 UTC


;
;
; 

; external perimeters extrusion width = 0.45mm
; perimeters extrusion width = 0.45mm
; infill extrusion width = 0.45mm
; solid infill extrusion width = 0.45mm
; top infill extrusion width = 0.40mm
; first layer extrusion width = 0.42mm

M73 P0 R83
M73 Q0 S83
M201 X1000 Y1000 Z200 E5000 ; sets maximum accelerations, mm/sec^2
M203 X200 Y200 Z12 E120 ; sets maximum feedrates, mm / sec
M204 S1250 T1250 ; sets acceleration (S) and retract acceleration (R), mm/sec^2
M205 X8.00 Y8.00 Z0.40 E4.50 ; sets the jerk limits, mm/sec
M205 S0 T0 ; sets the minimum extruding and travel feed rate, mm/sec

; printing object machinePince-AxeXBarreCamera001.stl id:0 copy 0
; stop printing object machinePince-AxeXBarreCamera001.stl id:0 copy 0

;TYPE:Custom
M862.3 P "MK3S" ; printer model check
M862.1 P0.4 ; nozzle diameter check
M115 U3.14.0 ; tell printer latest fw version
G90 ; use absolute coordinates
M83 ; extruder relative mode
M104 S215 ; set extruder temp
M140 S60 ; set bed temp
M190 S60 ; wait for bed temp
M109 S215 ; wait for extruder temp
G28 W ; home all without mesh bed level
G80 X15.2037 Y13.1897 W219.593 H183.621 ; mesh bed levelling

G1 Z0.2 F720
G1 Y-3 F1000 ; go outside print area
G92 E0
G1 X60 E9 F1000 ; intro line
G1 X100 E12.5 F1000 ; intro line

G92 E0
M221 S95

; Don't change E values below. Excessive value can damage the printer.
M907 E430 ; set extruder motor current
G21 ; set units to millimeters
G90 ; use absolute coordinates
M83 ; use relative distances for extrusion

M900 K0.05 ; Filament gcode LA 1.5
M900 K30 ; Filament gcode LA 1.0




M107
;LAYER_CHANGE
;Z:0.2
;HEIGHT:0.2
G1 E-.8 F2100
G1 Z.6 F720
G1 X92.991 Y115.178 F10800
G1 Z.2 F720
G1 E.8 F2100
M204 S800
;TYPE:Skirt/Brim
;WIDTH:0.42
G1 F1200
G1 X218.492 Y13.853 E5.05741
G1 X219.709 Y13.373 E.04102
M73 P0 R82
G1 X220.982 Y13.672 E.041
G1 X221.57 Y14.181 E.02438
G1 X234.133 Y29.742 E.62707
G1 X234.613 Y30.959 E.04102
G1 X234.314 Y32.232 E.041
G1 X233.805 Y32.82 E.02438
G1 X31.508 Y196.147 E8.1521
G1 X30.291 Y196.627 E.04102
G1 X29.018 Y196.328 E.041
G1 X28.43 Y195.819 E.02438
G1 X15.867 Y180.258 E.62707
G1 X15.387 Y179.041 E.04102
G1 X15.686 Y177.768 E.041
G1 X16.195 Y177.18 E.02438
G1 X92.944 Y115.216 E3.0928
M204 S1000
;WIPE_START
G1 F8640
G1 X92.991 Y115.178 E-.01396
G1 X95.64 Y113.04 E-.78604
;WIPE_END
G1 Z.6 F720
; printing object machinePince-AxeXBarreCamera001.stl id:0 copy 0
G1 X168.605 Y77.001 F10800
G1 Z.2 F720
M73 Q0 S82
G1 E.8 F2100
M204 S800
;TYPE:External perimeter
;WIDTH:0.419999
G1 F1200
G1 X168.614 Y77.002 E.00028
G1 X169.011 Y77.104 E.01285
G1 X169.38 Y77.283 E.01286
G1 X169.706 Y77.532 E.01286
G1 X169.976 Y77.84 E.01284
G1 X170.18 Y78.196 E.01286
G1 X170.31 Y78.585 E.01286
G1 X170.36 Y78.987 E.0127
G1 X170.343 Y79.3 E.00983
G1 X170.251 Y79.699 E.01284
;WIDTH:0.461424
G1 X170.075 Y80.05 E.01366
;WIDTH:0.502848
G1 X169.899 Y80.4 E.01498
G1 X169.56 Y80.716 E.01772
;WIDTH:0.498433
G1 X169.202 Y80.932 E.01584
;WIDTH:0.497025
G1 X168.818 Y81.012 E.01481
;WIDTH:0.458512
G1 X168.434 Y81.092 E.01355
;WIDTH:0.419999
G1 X167.987 Y81.073 E.01403
G1 X167.59 Y80.97 E.01286
G1 X167.221 Y80.791 E.01286
G1 X166.895 Y80.543 E.01284
G1 X166.625 Y80.234 E.01287
G1 X166.421 Y79.878 E.01286
G1 X166.291 Y79.489 E.01286
G1 X166.243 Y79.12 E.01167
G1 X166.274 Y78.673 E.01405
G1 X166.386 Y78.279 E.01284
G1 X166.574 Y77.915 E.01285
G1 X166.831 Y77.595 E.01287
G1 X167.146 Y77.332 E.01287
G1 X167.507 Y77.137 E.01286
G1 X167.894 Y77.018 E.01269
G1 X168.213 Y76.98 E.01007
G1 X168.545 Y76.998 E.01042
M204 S1000
;WIPE_START
G1 F8640
G1 X168.605 Y77.001 E-.01387
G1 X168.614 Y77.002 E-.00209
G1 X169.011 Y77.104 E-.09465
G1 X169.38 Y77.283 E-.0947
G1 X169.706 Y77.532 E-.09472
G1 X169.976 Y77.84 E-.09458
G1 X170.18 Y78.196 E-.09474
G1 X170.31 Y78.585 E-.0947
G1 X170.36 Y78.987 E-.09354
G1 X170.343 Y79.3 E-.07238
G1 X170.294 Y79.511 E-.05003
;WIPE_END
G1 Z.6 F720
G1 X157.485 Y68.503 F10800
G1 Z.2 F720
G1 E.8 F2100
M204 S800
G1 F1200
G1 X157.448 Y68.227 E.00873
G1 X157.479 Y67.781 E.01402
G1 X157.591 Y67.386 E.01287
;WIDTH:0.46098
G1 X157.785 Y67.045 E.01364
;WIDTH:0.501961
G1 X157.978 Y66.704 E.01496
;WIDTH:0.502483
G1 X158.331 Y66.403 E.01773
;WIDTH:0.506224
G1 X158.699 Y66.203 E.01614
G1 X159.042 Y66.146 E.01339
;WIDTH:0.463112
G1 X159.386 Y66.088 E.01219
;WIDTH:0.419999
G1 X159.819 Y66.109 E.01359
G1 X160.216 Y66.211 E.01285
G1 X160.585 Y66.391 E.01287
G1 X160.911 Y66.639 E.01284
G1 X161.182 Y66.947 E.01286
G1 X161.386 Y67.303 E.01286
G1 X161.515 Y67.692 E.01285
G1 X161.565 Y68.094 E.0127
G1 X161.548 Y68.407 E.00983
G1 X161.456 Y68.806 E.01284
G1 X161.286 Y69.18 E.01288
G1 X161.046 Y69.512 E.01284
G1 X160.744 Y69.79 E.01287
G1 X160.394 Y70.003 E.01285
G1 X160.008 Y70.142 E.01286
G1 X159.602 Y70.201 E.01286
G1 X159.193 Y70.18 E.01284
G1 X158.796 Y70.077 E.01286
G1 X158.427 Y69.898 E.01286
G1 X158.101 Y69.65 E.01284
G1 X157.83 Y69.341 E.01289
G1 X157.626 Y68.986 E.01284
G1 X157.497 Y68.596 E.01288
G1 X157.492 Y68.563 E.00105
M204 S1000
;WIPE_START
G1 F8640
G1 X157.485 Y68.503 E-.01395
G1 X157.448 Y68.227 E-.0643
G1 X157.479 Y67.781 E-.10323
G1 X157.591 Y67.386 E-.0948
G1 X157.785 Y67.045 E-.09059
G1 X157.978 Y66.704 E-.09047
G1 X158.331 Y66.403 E-.10712
G1 X158.699 Y66.203 E-.09671
G1 X159.042 Y66.146 E-.08029
G1 X159.292 Y66.104 E-.05854
;WIPE_END
G1 Z.6 F720
G1 X170.902 Y57.364 F10800
G1 Z.2 F720
G1 E.8 F2100
M204 S800
G1 F1200
G1 X171.109 Y57.417 E.0067
G1 X171.478 Y57.596 E.01286
G1 X171.804 Y57.845 E.01286
G1 X172.075 Y58.153 E.01286
G1 X172.279 Y58.509 E.01286
G1 X172.408 Y58.898 E.01285
G1 X172.458 Y59.305 E.01286
G1 X172.426 Y59.714 E.01286
G1 X172.314 Y60.108 E.01284
G1 X172.125 Y60.472 E.01286
G1 X171.869 Y60.792 E.01285
G1 X171.558 Y61.052 E.01271
G1 X171.286 Y61.208 E.00983
G1 X170.901 Y61.347 E.01283
G1 X170.495 Y61.407 E.01287
G1 X170.086 Y61.385 E.01284
G1 X169.689 Y61.283 E.01285
G1 X169.32 Y61.104 E.01286
G1 X168.994 Y60.855 E.01286
G1 X168.723 Y60.547 E.01286
G1 X168.519 Y60.191 E.01286
G1 X168.39 Y59.802 E.01285
G1 X168.34 Y59.395 E.01286
G1 X168.372 Y58.986 E.01286
G1 X168.484 Y58.592 E.01284
;WIDTH:0.460981
G1 X168.678 Y58.25 E.01367
;WIDTH:0.501962
G1 X168.871 Y57.909 E.01496
G1 X169.188 Y57.636 E.01597
;WIDTH:0.499064
G1 X169.396 Y57.543 E.00864
;WIDTH:0.459532
G1 X169.605 Y57.45 E.00792
;WIDTH:0.419999
G1 X169.993 Y57.331 E.01272
G1 X170.311 Y57.293 E.01004
G1 X170.712 Y57.314 E.01259
G1 X170.844 Y57.349 E.00428
M204 S1000
;WIPE_START
G1 F8640
G1 X170.902 Y57.364 E-.01383
G1 X171.109 Y57.417 E-.04934
G1 X171.478 Y57.596 E-.0947
G1 X171.804 Y57.845 E-.09472
G1 X172.075 Y58.153 E-.09473
G1 X172.279 Y58.509 E-.09474
G1 X172.408 Y58.898 E-.09463
G1 X172.458 Y59.305 E-.09468
G1 X172.426 Y59.714 E-.09473
G1 X172.338 Y60.022 E-.0739
;WIPE_END
G1 Z.6 F720
G1 X178.489 Y68.315 F10800
G1 Z.2 F720
G1 E.8 F2100
M204 S800
G1 F1200
G1 X178.787 Y68.224 E.00977
G1 X179.106 Y68.185 E.01008
G1 X179.507 Y68.207 E.01259
G1 X179.904 Y68.31 E.01286
G1 X180.273 Y68.489 E.01286
G1 X180.599 Y68.738 E.01286
G1 X180.869 Y69.046 E.01284
G1 X181.073 Y69.402 E.01286
G1 X181.203 Y69.791 E.01286
G1 X181.252 Y70.198 E.01285
G1 X181.22 Y70.607 E.01286
G1 X181.108 Y71.001 E.01284
;WIDTH:0.460979
G1 X180.915 Y71.342 E.01362
;WIDTH:0.501958
G1 X180.721 Y71.684 E.01501
;WIDTH:0.502482
G1 X180.368 Y71.984 E.0177
G1 X180.048 Y72.108 E.01311
;WIDTH:0.461241
G1 X179.727 Y72.232 E.01197
;WIDTH:0.419999
G1 X179.29 Y72.3 E.01387
G1 X178.88 Y72.278 E.01287
G1 X178.483 Y72.176 E.01285
G1 X178.114 Y71.997 E.01286
G1 X177.788 Y71.748 E.01286
G1 X177.518 Y71.44 E.01284
G1 X177.314 Y71.084 E.01286
G1 X177.184 Y70.695 E.01286
G1 X177.135 Y70.318 E.01192
G1 X177.167 Y69.879 E.0138
G1 X177.279 Y69.484 E.01287
G1 X177.467 Y69.12 E.01285
G1 X177.724 Y68.8 E.01287
G1 X178.039 Y68.538 E.01285
G1 X178.399 Y68.343 E.01284
G1 X178.432 Y68.333 E.00108
M204 S1000
;WIPE_START
G1 F8640
G1 X178.489 Y68.315 E-.0138
G1 X178.787 Y68.224 E-.07195
G1 X179.106 Y68.185 E-.07421
G1 X179.507 Y68.207 E-.09273
G1 X179.904 Y68.31 E-.0947
G1 X180.273 Y68.489 E-.0947
G1 X180.599 Y68.738 E-.09472
G1 X180.869 Y69.046 E-.09458
G1 X181.073 Y69.402 E-.09474
G1 X181.174 Y69.705 E-.07387
;WIPE_END
G1 Z.6 F720
G1 X79.679 Y131.321 F10800
G1 Z.2 F720
G1 E.8 F2100
M204 S800
G1 F1200
G1 X79.641 Y131.008 E.00989
G1 X79.673 Y130.599 E.01286
G1 X79.785 Y130.204 E.01287
;WIDTH:0.46098
G1 X79.978 Y129.863 E.01362
;WIDTH:0.50196
G1 X80.171 Y129.522 E.01496
G1 X80.488 Y129.249 E.01597
;WIDTH:0.49906
G1 X80.697 Y129.156 E.00868
;WIDTH:0.45953
G1 X80.905 Y129.063 E.00789
;WIDTH:0.419999
G1 X81.293 Y128.944 E.01272
G1 X81.612 Y128.905 E.01008
G1 X82.013 Y128.927 E.01259
G1 X82.41 Y129.03 E.01286
G1 X82.779 Y129.209 E.01286
G1 X83.105 Y129.457 E.01284
G1 X83.375 Y129.766 E.01287
G1 X83.579 Y130.122 E.01286
G1 X83.709 Y130.511 E.01286
G1 X83.758 Y130.918 E.01285
G1 X83.727 Y131.322 E.0127
G1 X83.647 Y131.632 E.01004
G1 X83.48 Y131.998 E.01261
G1 X83.239 Y132.33 E.01286
G1 X82.938 Y132.608 E.01285
G1 X82.587 Y132.821 E.01287
G1 X82.201 Y132.96 E.01286
G1 X81.796 Y133.02 E.01284
G1 X81.386 Y132.998 E.01287
G1 X80.989 Y132.896 E.01285
G1 X80.62 Y132.717 E.01286
G1 X80.294 Y132.468 E.01286
G1 X80.024 Y132.16 E.01284
G1 X79.82 Y131.804 E.01286
G1 X79.69 Y131.415 E.01286
G1 X79.686 Y131.381 E.00107
M204 S1000
;WIPE_START
G1 F8640
G1 X79.679 Y131.321 E-.01395
G1 X79.641 Y131.008 E-.0728
G1 X79.673 Y130.599 E-.09473
G1 X79.785 Y130.204 E-.0948
G1 X79.978 Y129.863 E-.09047
G1 X80.171 Y129.522 E-.09047
G1 X80.488 Y129.249 E-.0966
G1 X80.697 Y129.156 E-.05282
G1 X80.905 Y129.063 E-.05261
G1 X81.293 Y128.944 E-.09371
G1 X81.495 Y128.92 E-.04704
;WIPE_END
G1 Z.6 F720
G1 X89.985 Y139.868 F10800
G1 Z.2 F720
G1 E.8 F2100
M204 S800
G1 F1200
G1 X90.088 Y139.836 E.00338
G1 X90.406 Y139.798 E.01004
G1 X90.807 Y139.82 E.01259
G1 X91.204 Y139.923 E.01286
G1 X91.573 Y140.102 E.01286
G1 X91.899 Y140.35 E.01284
G1 X92.17 Y140.659 E.01289
G1 X92.374 Y141.014 E.01284
G1 X92.503 Y141.404 E.01288
G1 X92.553 Y141.811 E.01286
G1 X92.522 Y142.215 E.0127
G1 X92.444 Y142.518 E.00981
;WIDTH:0.461424
G1 X92.268 Y142.868 E.01363
;WIDTH:0.502848
G1 X92.092 Y143.219 E.01502
G1 X91.753 Y143.534 E.0177
;WIDTH:0.498434
G1 X91.395 Y143.75 E.01584
;WIDTH:0.49703
G1 X91.011 Y143.83 E.01481
;WIDTH:0.458515
G1 X90.628 Y143.911 E.01353
;WIDTH:0.419999
G1 X90.181 Y143.891 E.01403
G1 X89.784 Y143.789 E.01285
G1 X89.415 Y143.609 E.01287
G1 X89.089 Y143.361 E.01284
G1 X88.818 Y143.053 E.01286
G1 X88.614 Y142.697 E.01286
G1 X88.485 Y142.308 E.01285
G1 X88.436 Y141.931 E.01192
G1 X88.467 Y141.492 E.0138
G1 X88.579 Y141.097 E.01287
G1 X88.768 Y140.733 E.01286
G1 X89.024 Y140.413 E.01285
G1 X89.339 Y140.151 E.01285
G1 X89.7 Y139.956 E.01286
G1 X89.928 Y139.885 E.00749
M204 S1000
;WIPE_START
G1 F8640
G1 X89.985 Y139.868 E-.01373
G1 X90.088 Y139.836 E-.0249
G1 X90.406 Y139.798 E-.07395
G1 X90.807 Y139.82 E-.09273
G1 X91.204 Y139.923 E-.0947
G1 X91.573 Y140.102 E-.0947
G1 X91.899 Y140.35 E-.09458
G1 X92.17 Y140.659 E-.0949
G1 X92.374 Y141.014 E-.09454
G1 X92.503 Y141.404 E-.09485
G1 X92.517 Y141.517 E-.02642
;WIPE_END
G1 Z.6 F720
G1 X78.899 Y152.585 F10800
G1 Z.2 F720
G1 E.8 F2100
M204 S800
G1 F1200
G1 X78.891 Y152.583 E.00026
G1 X78.522 Y152.404 E.01286
G1 X78.196 Y152.155 E.01286
G1 X77.925 Y151.847 E.01286
G1 X77.721 Y151.491 E.01286
G1 X77.592 Y151.102 E.01285
G1 X77.543 Y150.733 E.01167
G1 X77.574 Y150.286 E.01405
G1 X77.686 Y149.892 E.01284
G1 X77.875 Y149.528 E.01286
G1 X78.131 Y149.208 E.01285
G1 X78.446 Y148.945 E.01287
G1 X78.807 Y148.75 E.01286
G1 X79.195 Y148.631 E.01272
G1 X79.513 Y148.593 E.01004
G1 X79.914 Y148.615 E.01259
G1 X80.311 Y148.717 E.01285
G1 X80.68 Y148.896 E.01286
G1 X81.006 Y149.145 E.01286
G1 X81.277 Y149.453 E.01286
G1 X81.481 Y149.809 E.01286
G1 X81.61 Y150.198 E.01285
G1 X81.66 Y150.605 E.01286
G1 X81.628 Y151.014 E.01286
G1 X81.516 Y151.408 E.01284
;WIDTH:0.46098
G1 X81.322 Y151.75 E.01367
;WIDTH:0.50196
G1 X81.129 Y152.091 E.01496
G1 X80.781 Y152.388 E.01746
;WIDTH:0.501556
G1 X80.503 Y152.546 E.01219
;WIDTH:0.500748
G1 X80.119 Y152.626 E.01493
;WIDTH:0.460374
G1 X79.735 Y152.705 E.01361
;WIDTH:0.419999
G1 X79.288 Y152.686 E.01403
G1 X78.957 Y152.6 E.01072
M204 S1000
;WIPE_START
G1 F8640
G1 X78.899 Y152.585 E-.01383
G1 X78.891 Y152.583 E-.0019
G1 X78.522 Y152.404 E-.0947
G1 X78.196 Y152.155 E-.09472
G1 X77.925 Y151.847 E-.09473
G1 X77.721 Y151.491 E-.09474
G1 X77.592 Y151.102 E-.09463
G1 X77.543 Y150.733 E-.08595
G1 X77.574 Y150.286 E-.10346
G1 X77.686 Y149.892 E-.09458
G1 X77.739 Y149.789 E-.02676
;WIPE_END
G1 Z.6 F720
G1 X68.772 Y140.015 F10800
G1 Z.2 F720
G1 E.8 F2100
M204 S800
G1 F1200
G1 X68.749 Y139.84 E.00553
G1 X68.78 Y139.393 E.01405
G1 X68.892 Y138.999 E.01284
;WIDTH:0.460979
G1 X69.085 Y138.658 E.01362
;WIDTH:0.501958
G1 X69.279 Y138.316 E.01501
;WIDTH:0.502481
G1 X69.632 Y138.016 E.0177
;WIDTH:0.506222
G1 X70 Y137.816 E.01614
G1 X70.343 Y137.759 E.01339
;WIDTH:0.463111
G1 X70.686 Y137.701 E.01215
;WIDTH:0.419999
G1 X71.12 Y137.722 E.01362
G1 X71.517 Y137.824 E.01285
G1 X71.886 Y138.003 E.01286
G1 X72.212 Y138.252 E.01286
G1 X72.482 Y138.56 E.01284
G1 X72.686 Y138.916 E.01286
G1 X72.816 Y139.305 E.01286
G1 X72.865 Y139.712 E.01285
G1 X72.833 Y140.121 E.01286
G1 X72.721 Y140.516 E.01287
G1 X72.533 Y140.88 E.01285
G1 X72.276 Y141.2 E.01287
G1 X71.966 Y141.46 E.01269
G1 X71.694 Y141.615 E.00982
G1 X71.308 Y141.754 E.01286
G1 X70.903 Y141.814 E.01284
G1 X70.493 Y141.793 E.01287
G1 X70.096 Y141.69 E.01286
G1 X69.727 Y141.511 E.01286
G1 X69.401 Y141.262 E.01286
G1 X69.131 Y140.954 E.01284
G1 X68.927 Y140.598 E.01286
G1 X68.797 Y140.209 E.01286
G1 X68.78 Y140.074 E.00427
M204 S1000
;WIPE_START
G1 F8640
G1 X68.772 Y140.015 E-.01375
G1 X68.749 Y139.84 E-.04076
G1 X68.78 Y139.393 E-.10346
G1 X68.892 Y138.999 E-.09458
G1 X69.085 Y138.658 E-.09047
G1 X69.279 Y138.316 E-.09079
G1 X69.632 Y138.016 E-.10697
G1 X70 Y137.816 E-.09671
G1 X70.343 Y137.759 E-.08029
G1 X70.686 Y137.701 E-.08032
G1 X70.694 Y137.701 E-.0019
;WIPE_END
G1 Z.6 F720
G1 X219.749 Y16.662 F10800
G1 Z.2 F720
G1 E.8 F2100
M204 S800
;TYPE:Perimeter
G1 F1200
G1 X225.536 Y23.831 E.28887
G1 X231.324 Y30.999 E.28887
G1 X181.361 Y71.337 E2.01339
M73 Q1 S82
G1 X181.445 Y71.171 E.00583
M73 P1 R82
G1 X181.584 Y70.707 E.01519
G1 X181.629 Y70.224 E.01521
G1 X181.576 Y69.742 E.0152
G1 X181.43 Y69.279 E.01522
G1 X181.195 Y68.855 E.0152
G1 X180.88 Y68.486 E.01521
G1 X180.499 Y68.187 E.01519
G1 X180.065 Y67.969 E.01523
G1 X179.598 Y67.841 E.01518
G1 X179.123 Y67.809 E.01493
G1 X178.739 Y67.85 E.01211
G1 X178.286 Y67.983 E.0148
G1 X177.856 Y68.208 E.01522
G1 X177.48 Y68.513 E.01518
G1 X177.171 Y68.887 E.01521
G1 X176.942 Y69.314 E.01519
G1 X176.803 Y69.779 E.01522
G1 X176.758 Y70.262 E.01521
G1 X176.811 Y70.744 E.0152
G1 X176.957 Y71.206 E.01519
G1 X177.192 Y71.63 E.0152
G1 X177.507 Y71.999 E.01521
G1 X177.888 Y72.299 E.0152
G1 X178.322 Y72.516 E.01521
G1 X178.789 Y72.644 E.01518
G1 X179.273 Y72.677 E.01521
G1 X179.793 Y72.603 E.01647
G1 X170.473 Y80.127 E.37556
G1 X170.595 Y79.852 E.00943
G1 X170.711 Y79.382 E.01518
G1 X170.736 Y79.004 E.01188
G1 X170.684 Y78.536 E.01476
G1 X170.537 Y78.074 E.0152
G1 X170.302 Y77.65 E.0152
G1 X169.987 Y77.281 E.01521
G1 X169.606 Y76.982 E.01519
G1 X169.172 Y76.764 E.01523
G1 X168.705 Y76.636 E.01518
G1 X168.23 Y76.603 E.01493
G1 X167.846 Y76.644 E.01211
G1 X167.393 Y76.778 E.01481
G1 X166.963 Y77.002 E.0152
G1 X166.587 Y77.307 E.01518
G1 X166.278 Y77.681 E.01521
G1 X166.049 Y78.109 E.01522
G1 X165.91 Y78.573 E.01519
G1 X165.866 Y79.056 E.01521
G1 X165.918 Y79.538 E.0152
G1 X166.064 Y80.001 E.01522
G1 X166.299 Y80.425 E.0152
G1 X166.614 Y80.794 E.01521
G1 X166.995 Y81.093 E.01519
G1 X167.429 Y81.311 E.01523
G1 X167.896 Y81.439 E.01518
G1 X168.38 Y81.471 E.01521
G1 X168.901 Y81.397 E.0165
G1 X92.666 Y142.946 E3.07208
G1 X92.789 Y142.671 E.00945
G1 X92.888 Y142.306 E.01186
G1 X92.929 Y141.837 E.01476
G1 X92.877 Y141.354 E.01523
G1 X92.73 Y140.892 E.0152
G1 X92.495 Y140.468 E.0152
