; generated by PrusaSlicer 2.7.4+win64 on 2024-06-21 at 08:45:09 UTC


;
;
; 

; external perimeters extrusion width = 0.45mm
; perimeters extrusion width = 0.45mm
; infill extrusion width = 0.45mm
; solid infill extrusion width = 0.45mm
; top infill extrusion width = 0.40mm
; support material extrusion width = 0.35mm
; first layer extrusion width = 0.42mm

M73 P0 R231
M73 Q0 S233
M201 X1000 Y1000 Z200 E5000 ; sets maximum accelerations, mm/sec^2
M203 X200 Y200 Z12 E120 ; sets maximum feedrates, mm / sec
M204 S1250 T1250 ; sets acceleration (S) and retract acceleration (R), mm/sec^2
M205 X8.00 Y8.00 Z0.40 E4.50 ; sets the jerk limits, mm/sec
M205 S0 T0 ; sets the minimum extruding and travel feed rate, mm/sec

; printing object machinePince-pinceBoitier.stl id:0 copy 0
; stop printing object machinePince-pinceBoitier.stl id:0 copy 0

;TYPE:Custom
M862.3 P "MK3S" ; printer model check
M862.1 P0.4 ; nozzle diameter check
M115 U3.12.1 ; tell printer latest fw version
G90 ; use absolute coordinates
M83 ; extruder relative mode
M104 S215 ; set extruder temp
M140 S60 ; set bed temp
M190 S60 ; wait for bed temp
M109 S215 ; wait for extruder temp
G28 W ; home all without mesh bed level
G80 ; mesh bed leveling

G1 Z0.2 F720
G1 Y-3 F1000 ; go outside print area
G92 E0
G1 X60 E9 F1000 ; intro line
G1 X100 E12.5 F1000 ; intro line

G92 E0
M221 S95

; Don't change E values below. Excessive value can damage the printer.
M907 E430 ; set extruder motor current
G21 ; set units to millimeters
G90 ; use absolute coordinates
M83 ; use relative distances for extrusion
M900 K0.05 ; Filament gcode LA 1.5
M900 K30 ; Filament gcode LA 1.0
M107
;LAYER_CHANGE
;Z:0.2
;HEIGHT:0.2
G1 E-.8 F2100
G1 Z.6 F720
G1 X83.015 Y85.443 F10800
G1 Z.2 F720
G1 E.8 F2100
M204 S800
;TYPE:Skirt/Brim
;WIDTH:0.42
G1 F1200
G1 X84.646 Y84.399 E.06072
G1 X105.553 Y81.249 E.66292
G1 X118.877 Y81.228 E.41777
G1 X165.161 Y84.378 E1.45456
G1 X166.439 Y84.858 E.0428
G1 X167.242 Y85.961 E.04278
G1 X167.377 Y86.75 E.0251
G1 X167.377 Y121.75 E1.0974
G1 X167.103 Y122.858 E.03579
G1 X164.653 Y127.508 E.1648
G1 X163.697 Y128.482 E.04279
G1 X162.55 Y128.777 E.03713
G1 X108.214 Y128.777 E1.70367
G1 X84.533 Y124.081 E.75696
G1 X83.328 Y123.44 E.04279
G1 X82.623 Y121.75 E.05741
G1 X82.623 Y86.75 E1.0974
G1 X82.997 Y85.5 E.04091
M204 S1000
;WIPE_START
G1 F8640
G1 X83.015 Y85.443 E-.0138
G1 X84.646 Y84.399 E-.44715
G1 X86.098 Y84.18 E-.33905
;WIPE_END
G1 Z.6 F720
; printing object machinePince-pinceBoitier.stl id:0 copy 0
G1 X162.55 Y126.4 F10800
G1 Z.2 F720
G1 E.8 F2100
M204 S800
;TYPE:Support material
G1 F1200
G1 X122.057 Y126.4 E1.26963
G1 X122.057 Y122.23 E.13075
G1 X162.55 Y122.23 E1.26963
G1 X162.55 Y126.344 E.12899
M204 S1000
G1 X162.55 Y126.344 F10800
G1 X161.87 Y126.23
M204 S800
G1 F1200
G1 X161.87 Y122.569 E.11479
G1 X161.451 Y122.569 E.01314
G1 X161.451 Y126.061 E.10949
G1 X161.032 Y126.061 E.01314
G1 X161.032 Y122.569 E.10949
G1 X160.613 Y122.569 E.01314
G1 X160.613 Y126.061 E.10949
G1 X160.194 Y126.061 E.01314
G1 X160.194 Y122.569 E.10949
G1 X159.775 Y122.569 E.01314
G1 X159.775 Y126.061 E.10949
G1 X159.356 Y126.061 E.01314
G1 X159.356 Y122.569 E.10949
G1 X158.937 Y122.569 E.01314
G1 X158.937 Y126.061 E.10949
G1 X158.518 Y126.061 E.01314
G1 X158.518 Y122.569 E.10949
G1 X158.099 Y122.569 E.01314
G1 X158.099 Y126.061 E.10949
G1 X157.68 Y126.061 E.01314
G1 X157.68 Y122.569 E.10949
G1 X157.261 Y122.569 E.01314
G1 X157.261 Y126.061 E.10949
G1 X156.842 Y126.061 E.01314
G1 X156.842 Y122.569 E.10949
G1 X156.423 Y122.569 E.01314
G1 X156.423 Y126.061 E.10949
G1 X156.004 Y126.061 E.01314
G1 X156.004 Y122.569 E.10949
G1 X155.585 Y122.569 E.01314
G1 X155.585 Y126.061 E.10949
G1 X155.166 Y126.061 E.01314
G1 X155.166 Y122.569 E.10949
G1 X154.747 Y122.569 E.01314
G1 X154.747 Y126.061 E.10949
G1 X154.328 Y126.061 E.01314
G1 X154.328 Y122.569 E.10949
G1 X153.909 Y122.569 E.01314
G1 X153.909 Y126.061 E.10949
G1 X153.49 Y126.061 E.01314
G1 X153.49 Y122.569 E.10949
G1 X153.071 Y122.569 E.01314
G1 X153.071 Y126.061 E.10949
G1 X152.652 Y126.061 E.01314
G1 X152.652 Y122.569 E.10949
G1 X152.234 Y122.569 E.01311
G1 X152.234 Y126.061 E.10949
G1 X151.815 Y126.061 E.01314
G1 X151.815 Y122.569 E.10949
G1 X151.396 Y122.569 E.01314
G1 X151.396 Y126.061 E.10949
G1 X150.977 Y126.061 E.01314
G1 X150.977 Y122.569 E.10949
G1 X150.558 Y122.569 E.01314
G1 X150.558 Y126.061 E.10949
G1 X150.139 Y126.061 E.01314
G1 X150.139 Y122.569 E.10949
G1 X149.72 Y122.569 E.01314
G1 X149.72 Y126.061 E.10949
G1 X149.301 Y126.061 E.01314
G1 X149.301 Y122.569 E.10949
G1 X148.882 Y122.569 E.01314
G1 X148.882 Y126.061 E.10949
G1 X148.463 Y126.061 E.01314
G1 X148.463 Y122.569 E.10949
G1 X148.044 Y122.569 E.01314
G1 X148.044 Y126.061 E.10949
G1 X147.625 Y126.061 E.01314
G1 X147.625 Y122.569 E.10949
G1 X147.206 Y122.569 E.01314
G1 X147.206 Y126.061 E.10949
G1 X146.787 Y126.061 E.01314
G1 X146.787 Y122.569 E.10949
G1 X146.368 Y122.569 E.01314
G1 X146.368 Y126.061 E.10949
G1 X145.949 Y126.061 E.01314
G1 X145.949 Y122.569 E.10949
G1 X145.53 Y122.569 E.01314
G1 X145.53 Y126.061 E.10949
G1 X145.111 Y126.061 E.01314
G1 X145.111 Y122.569 E.10949
G1 X144.692 Y122.569 E.01314
G1 X144.692 Y126.061 E.10949
G1 X144.273 Y126.061 E.01314
G1 X144.273 Y122.569 E.10949
G1 X143.854 Y122.569 E.01314
G1 X143.854 Y126.061 E.10949
G1 X143.435 Y126.061 E.01314
G1 X143.435 Y122.569 E.10949
G1 X143.016 Y122.569 E.01314
G1 X143.016 Y126.061 E.10949
G1 X142.597 Y126.061 E.01314
G1 X142.597 Y122.569 E.10949
G1 X142.178 Y122.569 E.01314
G1 X142.178 Y126.061 E.10949
G1 X141.759 Y126.061 E.01314
G1 X141.759 Y122.569 E.10949
G1 X141.34 Y122.569 E.01314
G1 X141.34 Y126.061 E.10949
G1 X140.921 Y126.061 E.01314
G1 X140.921 Y122.569 E.10949
G1 X140.502 Y122.569 E.01314
G1 X140.502 Y126.061 E.10949
G1 X140.083 Y126.061 E.01314
G1 X140.083 Y122.569 E.10949
G1 X139.664 Y122.569 E.01314
G1 X139.664 Y126.061 E.10949
G1 X139.245 Y126.061 E.01314
G1 X139.245 Y122.569 E.10949
G1 X138.826 Y122.569 E.01314
G1 X138.826 Y126.061 E.10949
G1 X138.407 Y126.061 E.01314
G1 X138.407 Y122.569 E.10949
G1 X137.988 Y122.569 E.01314
G1 X137.988 Y126.061 E.10949
G1 X137.569 Y126.061 E.01314
G1 X137.569 Y122.569 E.10949
G1 X137.15 Y122.569 E.01314
G1 X137.15 Y126.061 E.10949
G1 X136.731 Y126.061 E.01314
G1 X136.731 Y122.569 E.10949
G1 X136.312 Y122.569 E.01314
G1 X136.312 Y126.061 E.10949
G1 X135.893 Y126.061 E.01314
G1 X135.893 Y122.569 E.10949
G1 X135.474 Y122.569 E.01314
G1 X135.474 Y126.061 E.10949
G1 X135.055 Y126.061 E.01314
G1 X135.055 Y122.569 E.10949
G1 X134.636 Y122.569 E.01314
G1 X134.636 Y126.061 E.10949
G1 X134.217 Y126.061 E.01314
G1 X134.217 Y122.569 E.10949
G1 X133.799 Y122.569 E.01311
G1 X133.799 Y126.061 E.10949
G1 X133.38 Y126.061 E.01314
G1 X133.38 Y122.569 E.10949
G1 X132.961 Y122.569 E.01314
G1 X132.961 Y126.061 E.10949
G1 X132.542 Y126.061 E.01314
G1 X132.542 Y122.569 E.10949
G1 X132.123 Y122.569 E.01314
G1 X132.123 Y126.061 E.10949
G1 X131.704 Y126.061 E.01314
G1 X131.704 Y122.569 E.10949
G1 X131.285 Y122.569 E.01314
G1 X131.285 Y126.061 E.10949
G1 X130.866 Y126.061 E.01314
G1 X130.866 Y122.569 E.10949
G1 X130.447 Y122.569 E.01314
G1 X130.447 Y126.061 E.10949
G1 X130.028 Y126.061 E.01314
G1 X130.028 Y122.569 E.10949
G1 X129.609 Y122.569 E.01314
G1 X129.609 Y126.061 E.10949
G1 X129.19 Y126.061 E.01314
G1 X129.19 Y122.569 E.10949
G1 X128.771 Y122.569 E.01314
G1 X128.771 Y126.061 E.10949
G1 X128.352 Y126.061 E.01314
G1 X128.352 Y122.569 E.10949
G1 X127.933 Y122.569 E.01314
G1 X127.933 Y126.061 E.10949
G1 X127.514 Y126.061 E.01314
G1 X127.514 Y122.569 E.10949
G1 X127.095 Y122.569 E.01314
G1 X127.095 Y126.061 E.10949
G1 X126.676 Y126.061 E.01314
G1 X126.676 Y122.569 E.10949
G1 X126.257 Y122.569 E.01314
G1 X126.257 Y126.061 E.10949
G1 X125.838 Y126.061 E.01314
G1 X125.838 Y122.569 E.10949
G1 X125.419 Y122.569 E.01314
G1 X125.419 Y126.061 E.10949
G1 X125 Y126.061 E.01314
G1 X125 Y122.569 E.10949
G1 X124.581 Y122.569 E.01314
G1 X124.581 Y126.061 E.10949
G1 X124.162 Y126.061 E.01314
G1 X124.162 Y122.569 E.10949
G1 X123.743 Y122.569 E.01314
G1 X123.743 Y126.061 E.10949
G1 X123.324 Y126.061 E.01314
G1 X123.324 Y122.569 E.10949
G1 X122.905 Y122.569 E.01314
G1 X122.905 Y126.061 E.10949
G1 X122.486 Y126.061 E.01314
G1 X122.486 Y122.4 E.11479
M204 S1000
;WIPE_START
G1 F8640
M73 Q0 S232
G1 X122.486 Y125.864 E-.8
;WIPE_END
G1 Z.6 F720
G1 X125.039 Y118.232 F10800
G1 Z.2 F720
G1 E.8 F2100
M204 S800
G1 F1200
G1 X125.381 Y118.396 E.01189
G1 X125.519 Y118.776 E.01268
G1 X125.363 Y119.122 E.0119
G1 X124.987 Y119.27 E.01267
G1 X124.637 Y119.122 E.01191
G1 X124.48 Y118.75 E.01266
G1 X124.619 Y118.396 E.01192
G1 X124.982 Y118.231 E.0125
M204 S1000
G1 X124.982 Y118.231 F10800
G1 X125 Y119.1
M204 S800
G1 F1200
G1 X125 Y118.4 E.02195
M204 S1000
;WIPE_START
G1 F8640
G1 X125 Y119.1 E-.16163
;WIPE_END
G1 E-.63837 F2100
G1 Z.6 F720
G1 X118.715 Y126.4 F10800
G1 Z.2 F720
G1 E.8 F2100
M204 S800
G1 F1200
G1 X108.214 Y126.4 E.32925
G1 X108.214 Y122.23 E.13075
G1 X118.715 Y122.23 E.32925
G1 X118.715 Y126.344 E.12899
M204 S1000
G1 X118.715 Y126.344 F10800
G1 X118.296 Y126.23
M204 S800
G1 F1200
G1 X118.296 Y122.569 E.11479
G1 X117.877 Y122.569 E.01314
G1 X117.877 Y126.061 E.10949
G1 X117.458 Y126.061 E.01314
G1 X117.458 Y122.569 E.10949
G1 X117.039 Y122.569 E.01314
G1 X117.039 Y126.061 E.10949
G1 X116.62 Y126.061 E.01314
G1 X116.62 Y122.569 E.10949
G1 X116.201 Y122.569 E.01314
G1 X116.201 Y126.061 E.10949
G1 X115.783 Y126.061 E.01311
G1 X115.783 Y122.569 E.10949
G1 X115.364 Y122.569 E.01314
G1 X115.364 Y126.061 E.10949
G1 X114.945 Y126.061 E.01314
G1 X114.945 Y122.569 E.10949
G1 X114.526 Y122.569 E.01314
G1 X114.526 Y126.061 E.10949
G1 X114.107 Y126.061 E.01314
G1 X114.107 Y122.569 E.10949
G1 X113.688 Y122.569 E.01314
G1 X113.688 Y126.061 E.10949
G1 X113.269 Y126.061 E.01314
G1 X113.269 Y122.569 E.10949
G1 X112.85 Y122.569 E.01314
G1 X112.85 Y126.061 E.10949
G1 X112.431 Y126.061 E.01314
G1 X112.431 Y122.569 E.10949
G1 X112.012 Y122.569 E.01314
G1 X112.012 Y126.061 E.10949
G1 X111.593 Y126.061 E.01314
G1 X111.593 Y122.569 E.10949
G1 X111.174 Y122.569 E.01314
G1 X111.174 Y126.061 E.10949
G1 X110.755 Y126.061 E.01314
G1 X110.755 Y122.569 E.10949
G1 X110.336 Y122.569 E.01314
G1 X110.336 Y126.061 E.10949
G1 X109.917 Y126.061 E.01314
G1 X109.917 Y122.569 E.10949
G1 X109.498 Y122.569 E.01314
G1 X109.498 Y126.061 E.10949
G1 X109.079 Y126.061 E.01314
G1 X109.079 Y122.569 E.10949
G1 X108.66 Y122.569 E.01314
G1 X108.66 Y126.23 E.11479
M204 S1000
;WIPE_START
G1 F8640
G1 X108.66 Y122.766 E-.8
;WIPE_END
G1 Z.6 F720
G1 X125.039 Y89.232 F10800
G1 Z.2 F720
G1 E.8 F2100
M204 S800
G1 F1200
G1 X125.381 Y89.396 E.01189
G1 X125.519 Y89.776 E.01268
G1 X125.363 Y90.122 E.0119
G1 X124.987 Y90.27 E.01267
G1 X124.637 Y90.122 E.01191
G1 X124.48 Y89.75 E.01266
G1 X124.619 Y89.396 E.01192
G1 X124.982 Y89.231 E.0125
M204 S1000
G1 X124.982 Y89.231 F10800
G1 X125 Y90.1
M204 S800
G1 F1200
G1 X125 Y89.4 E.02195
M204 S1000
;WIPE_START
G1 F8640
G1 X125 Y90.1 E-.16163
;WIPE_END
G1 E-.63837 F2100
G1 Z.6 F720
G1 X118.715 Y86.27 F10800
G1 Z.2 F720
G1 E.8 F2100
M204 S800
G1 F1200
G1 X105.907 Y86.27 E.40159
G1 X105.907 Y83.6 E.08372
G1 X118.715 Y83.6 E.40159
M73 P0 R230
G1 X118.715 Y86.213 E.08193
M204 S1000
G1 X118.715 Y86.213 F10800
G1 X118.296 Y86.1
M204 S800
G1 F1200
G1 X118.296 Y83.939 E.06776
G1 X117.877 Y83.939 E.01314
G1 X117.877 Y85.931 E.06246
G1 X117.458 Y85.931 E.01314
G1 X117.458 Y83.939 E.06246
G1 X117.039 Y83.939 E.01314
G1 X117.039 Y85.931 E.06246
G1 X116.62 Y85.931 E.01314
G1 X116.62 Y83.939 E.06246
G1 X116.201 Y83.939 E.01314
G1 X116.201 Y85.931 E.06246
G1 X115.783 Y85.931 E.01311
G1 X115.783 Y83.939 E.06246
G1 X115.364 Y83.939 E.01314
G1 X115.364 Y85.931 E.06246
G1 X114.945 Y85.931 E.01314
G1 X114.945 Y83.939 E.06246
G1 X114.526 Y83.939 E.01314
G1 X114.526 Y85.931 E.06246
G1 X114.107 Y85.931 E.01314
G1 X114.107 Y83.939 E.06246
G1 X113.688 Y83.939 E.01314
G1 X113.688 Y85.931 E.06246
G1 X113.269 Y85.931 E.01314
G1 X113.269 Y83.939 E.06246
G1 X112.85 Y83.939 E.01314
G1 X112.85 Y85.931 E.06246
G1 X112.431 Y85.931 E.01314
G1 X112.431 Y83.939 E.06246
G1 X112.012 Y83.939 E.01314
G1 X112.012 Y85.931 E.06246
G1 X111.593 Y85.931 E.01314
G1 X111.593 Y83.939 E.06246
G1 X111.174 Y83.939 E.01314
G1 X111.174 Y85.931 E.06246
G1 X110.755 Y85.931 E.01314
G1 X110.755 Y83.939 E.06246
G1 X110.336 Y83.939 E.01314
G1 X110.336 Y85.931 E.06246
G1 X109.917 Y85.931 E.01314
G1 X109.917 Y83.939 E.06246
G1 X109.498 Y83.939 E.01314
G1 X109.498 Y85.931 E.06246
G1 X109.079 Y85.931 E.01314
G1 X109.079 Y83.939 E.06246
G1 X108.66 Y83.939 E.01314
G1 X108.66 Y85.931 E.06246
G1 X108.241 Y85.931 E.01314
G1 X108.241 Y83.939 E.06246
G1 X107.822 Y83.939 E.01314
G1 X107.822 Y85.931 E.06246
G1 X107.403 Y85.931 E.01314
G1 X107.403 Y83.939 E.06246
G1 X106.984 Y83.939 E.01314
G1 X106.984 Y85.931 E.06246
G1 X106.565 Y85.931 E.01314
G1 X106.565 Y83.77 E.06776
M204 S1000
;WIPE_START
G1 F8640
G1 X106.565 Y85.931 E-.49898
G1 X106.984 Y85.931 E-.09675
G1 X106.984 Y85.046 E-.20427
;WIPE_END
G1 Z.6 F720
G1 X164.213 Y120.963 F10800
G1 Z.2 F720
G1 E.8 F2100
M204 S800
;TYPE:Perimeter
;WIDTH:0.419999
G1 F1200
G1 X125.69 Y120.963 E1.20786
;WIDTH:0.444486
G1 X124.41 Y120.963 E.04274
;WIDTH:0.419999
G1 X85.787 Y120.963 E1.211
G1 X85.787 Y87.537 E1.04805
G1 X124.31 Y87.537 E1.20786
;WIDTH:0.444486
G1 X125.59 Y87.537 E.04274
;WIDTH:0.419999
G1 X164.213 Y87.537 E1.211
G1 X164.213 Y104.25 E.52402
G1 X164.213 Y120.903 E.52214
M204 S1000
G1 X164.59 Y121.34 F10800
M204 S800
;TYPE:External perimeter
G1 F1200
G1 X85.41 Y121.34 E2.48263
G1 X85.41 Y87.16 E1.07169
G1 X164.59 Y87.16 E2.48263
G1 X164.59 Y104.25 E.53584
G1 X164.59 Y121.28 E.53396
M204 S1000
;WIPE_START
G1 F8640
G1 X164.59 Y121.34 E-.01385
G1 X161.185 Y121.34 E-.78615
;WIPE_END
G1 Z.6 F720
G1 X125.08 Y120.543 F10800
G1 Z.2 F720
G1 E.8 F2100
M204 S800
;TYPE:Perimeter
;WIDTH:0.450386
G1 F1200
G1 X124.93 Y120.543 E.00508
G1 X124.455 Y120.444 E.01644
;WIDTH:0.419999
G1 X124.247 Y120.362 E.00701
G1 X123.84 Y120.1 E.01518
G1 X123.68 Y119.943 E.00703
G1 X123.407 Y119.543 E.01518
G1 X123.323 Y119.351 E.00657
G1 X123.228 Y118.937 E.01332
G1 X123.221 Y118.727 E.00659
G1 X123.326 Y118.124 E.01919
G1 X123.622 Y117.624 E.01822
G1 X123.774 Y117.46 E.00701
G1 X124.193 Y117.16 E.01616
G1 X124.372 Y117.085 E.00609
G1 X124.874 Y116.971 E.01614
G1 X125.068 Y116.972 E.00608
G1 X125.574 Y117.062 E.01611
G1 X125.752 Y117.137 E.00606
G1 X126.179 Y117.412 E.01592
G1 X126.559 Y117.888 E.0191
G1 X126.649 Y118.08 E.00665
G1 X126.784 Y118.649 E.01834
G1 X126.707 Y119.252 E.01906
G1 X126.631 Y119.463 E.00703
G1 X126.378 Y119.876 E.01519
G1 X126.226 Y120.04 E.00701
G1 X125.833 Y120.323 E.01518
G1 X125.628 Y120.415 E.00705
;WIDTH:0.450386
G1 X125.139 Y120.541 E.01711
M204 S1000
G1 X125.139 Y120.541 F10800
G1 X125.006 Y120.145
M204 S800
;TYPE:External perimeter
;WIDTH:0.419999
G1 F1200
G1 X124.521 Y120.073 E.01537
G1 X124.045 Y119.783 E.01748
G1 X123.719 Y119.331 E.01747
G1 X123.593 Y118.783 E.01763
G1 X123.677 Y118.263 E.01652
G1 X123.944 Y117.821 E.01619
G1 X124.388 Y117.483 E.0175
G1 X124.928 Y117.345 E.01748
G1 X125.002 Y117.343 E.00232
G1 X125.498 Y117.431 E.01579
G1 X125.949 Y117.712 E.01666
G1 X126.253 Y118.109 E.01568
G1 X126.403 Y118.643 E.01739
G1 X126.334 Y119.196 E.01747
G1 X126.056 Y119.679 E.01747
G1 X125.612 Y120.017 E.0175
G1 X125.072 Y120.155 E.01748
G1 X125.065 Y120.154 E.00022
M204 S1000
;WIPE_START
G1 F8640
G1 X125.006 Y120.145 E-.01378
G1 X124.521 Y120.073 E-.11322
G1 X124.045 Y119.783 E-.1287
G1 X123.719 Y119.331 E-.12868
G1 X123.593 Y118.783 E-.12984
G1 X123.677 Y118.263 E-.12163
G1 X123.944 Y117.821 E-.11923
G1 X124.099 Y117.703 E-.04492
;WIPE_END
G1 Z.6 F720
G1 X126.33 Y90.928 F10800
G1 Z.2 F720
G1 E.8 F2100
M204 S800
;TYPE:Perimeter
G1 F1200
G1 X126.226 Y91.04 E.00479
G1 X125.806 Y91.341 E.0162
G1 X125.628 Y91.415 E.00604
G1 X125.126 Y91.529 E.01614
G1 X124.932 Y91.528 E.00608
G1 X124.426 Y91.438 E.01611
G1 X124.247 Y91.362 E.0061
G1 X123.815 Y91.083 E.01612
G1 X123.68 Y90.943 E.0061
G1 X123.377 Y90.494 E.01698
