; generated by PrusaSlicer 2.7.4+win64 on 2024-06-24 at 08:22:29 UTC


;
;
; 

; external perimeters extrusion width = 0.45mm
; perimeters extrusion width = 0.45mm
; infill extrusion width = 0.45mm
; solid infill extrusion width = 0.45mm
; top infill extrusion width = 0.40mm
; first layer extrusion width = 0.42mm

M73 P0 R49
M73 Q0 S49
M201 X1000 Y1000 Z200 E5000 ; sets maximum accelerations, mm/sec^2
M203 X200 Y200 Z12 E120 ; sets maximum feedrates, mm / sec
M204 S1250 T1250 ; sets acceleration (S) and retract acceleration (R), mm/sec^2
M205 X8.00 Y8.00 Z0.40 E4.50 ; sets the jerk limits, mm/sec
M205 S0 T0 ; sets the minimum extruding and travel feed rate, mm/sec

; printing object machinePince-pinceNonMotorisée.stl id:0 copy 0
; stop printing object machinePince-pinceNonMotorisée.stl id:0 copy 0

;TYPE:Custom
M862.3 P "MK3S" ; printer model check
M862.1 P0.4 ; nozzle diameter check
M115 U3.12.1 ; tell printer latest fw version
G90 ; use absolute coordinates
M83 ; extruder relative mode
M104 S215 ; set extruder temp
M140 S60 ; set bed temp
M190 S60 ; wait for bed temp
M109 S215 ; wait for extruder temp
G28 W ; home all without mesh bed level
G80 ; mesh bed leveling

G1 Z0.2 F720
G1 Y-3 F1000 ; go outside print area
G92 E0
G1 X60 E9 F1000 ; intro line
G1 X100 E12.5 F1000 ; intro line

G92 E0
M221 S95

; Don't change E values below. Excessive value can damage the printer.
M907 E430 ; set extruder motor current
G21 ; set units to millimeters
G90 ; use absolute coordinates
M83 ; use relative distances for extrusion
M900 K0.05 ; Filament gcode LA 1.5
M900 K30 ; Filament gcode LA 1.0
M107
;LAYER_CHANGE
;Z:0.2
;HEIGHT:0.2
G1 E-.8 F2100
G1 Z.6 F720
G1 X85.915 Y91.52 F10800
G1 Z.2 F720
G1 E.8 F2100
M204 S800
;TYPE:Skirt/Brim
;WIDTH:0.42
G1 F1200
G1 X86.822 Y90.697 E.0384
G1 X87.69 Y90.088 E.03325
G1 X88.289 Y89.794 E.02092
G1 X95.772 Y87.363 E.24669
G1 X96.429 Y87.248 E.02091
G1 X98.47 Y87.3 E.06401
G1 X167.742 Y102.286 E2.22222
G1 X168.937 Y102.945 E.04279
G1 X169.617 Y104.61 E.05639
G1 X169.617 Y110.61 E.18813
G1 X169.225 Y111.917 E.04278
G1 X168.422 Y112.672 E.03456
G1 X165.54 Y114.324 E.10416
G1 X162.478 Y115.888 E.10781
G1 X159.342 Y117.299 E.10782
G1 X156.031 Y118.594 E.11147
G1 X152.77 Y119.685 E.10782
G1 X149.572 Y120.585 E.10417
G1 X146.221 Y121.356 E.10781
G1 X142.837 Y121.961 E.10779
G1 X139.31 Y122.41 E.11148
G1 X135.881 Y122.674 E.10783
G1 X132.444 Y122.769 E.10781
G1 X96.429 Y121.971 E1.1295
G1 X95.772 Y121.856 E.02091
G1 X88.289 Y119.425 E.24669
G1 X87.222 Y118.813 E.03857
G1 X86.379 Y118.179 E.03307
G1 X85.915 Y117.7 E.02091
G1 X81.29 Y111.335 E.24669
G1 X80.978 Y110.745 E.02093
G1 X80.477 Y109.204 E.05081
G1 X80.383 Y108.544 E.0209
G1 X80.383 Y100.675 E.24673
G1 X80.477 Y100.015 E.0209
G1 X80.976 Y98.479 E.05064
G1 X81.288 Y97.89 E.0209
G1 X85.88 Y91.568 E.24499
M204 S1000
;WIPE_START
G1 F8640
G1 X85.915 Y91.52 E-.01372
G1 X86.822 Y90.697 E-.28279
G1 X87.69 Y90.088 E-.24483
G1 X88.289 Y89.794 E-.15407
G1 X88.72 Y89.654 E-.10459
;WIPE_END
G1 Z.6 F720
; printing object machinePince-pinceNonMotorisée.stl id:0 copy 0
G1 X105.708 Y104.012 F10800
G1 Z.2 F720
G1 E.8 F2100
M204 S800
;TYPE:Perimeter
;WIDTH:0.637766
G1 F1200
G1 X105.678 Y103.931 E.00427
;WIDTH:0.594213
G1 X105.648 Y103.85 E.00396
;WIDTH:0.55066
G1 X105.618 Y103.768 E.00369
;WIDTH:0.507106
G1 X105.588 Y103.687 E.00333
;WIDTH:0.463553
G1 X105.558 Y103.606 E.00302
;WIDTH:0.419999
G1 X105.452 Y102.957 E.02062
G1 X105.324 Y102.4 E.01792
G1 X105.117 Y101.732 E.02193
G1 X104.914 Y101.247 E.01649
G1 X104.62 Y100.647 E.02095
;WIDTH:0.463228
G1 X104.589 Y100.546 E.00369
;WIDTH:0.506457
G1 X104.558 Y100.444 E.00411
;WIDTH:0.549685
G1 X104.527 Y100.343 E.00445
;WIDTH:0.592914
G1 X104.495 Y100.242 E.00485
;WIDTH:0.636142
G1 X104.464 Y100.141 E.00521
G1 X104.514 Y100.168 E.0028
;WIDTH:0.606083
G1 X104.564 Y100.196 E.00268
;WIDTH:0.576024
G1 X104.694 Y100.274 E.00672
;WIDTH:0.537018
G1 X104.824 Y100.353 E.00625
;WIDTH:0.498012
G1 X104.954 Y100.432 E.00576
;WIDTH:0.459006
G1 X105.085 Y100.51 E.00527
;WIDTH:0.419999
G1 X105.467 Y100.654 E.0128
G1 X105.816 Y100.704 E.01105
G1 X106.206 Y100.672 E.01227
G1 X106.683 Y100.51 E.01579
G1 X107.853 Y99.893 E.04147
G1 X108.082 Y99.799 E.00776
G1 X108.608 Y99.703 E.01676
G1 X109.312 Y99.717 E.02208
G1 X109.932 Y99.776 E.01953
G1 X110.654 Y99.933 E.02317
G1 X110.838 Y100.502 E.01875
G1 X110.553 Y100.835 E.01374
G1 X110.12 Y101.281 E.01949
G1 X109.613 Y101.7 E.02062
G1 X109.259 Y101.911 E.01292
G1 X108.726 Y102.169 E.01857
G1 X107.122 Y102.412 E.05087
G1 X106.736 Y102.56 E.01296
G1 X106.428 Y102.765 E.0116
G1 X106.11 Y103.123 E.01501
G1 X105.952 Y103.452 E.01144
;WIDTH:0.463553
G1 X105.903 Y103.564 E.00428
;WIDTH:0.507106
G1 X105.854 Y103.676 E.00472
;WIDTH:0.55066
G1 X105.806 Y103.788 E.00514
;WIDTH:0.594213
G1 X105.757 Y103.9 E.0056
;WIDTH:0.637766
G1 X105.732 Y103.957 E.00308
M204 S1000
;WIPE_START
G1 F8640
G1 X105.708 Y104.012 E-.01386
G1 X105.678 Y103.931 E-.01994
G1 X105.648 Y103.85 E-.01994
G1 X105.618 Y103.768 E-.02016
G1 X105.588 Y103.687 E-.01994
G1 X105.558 Y103.606 E-.01994
G1 X105.452 Y102.957 E-.15184
G1 X105.324 Y102.4 E-.13197
G1 X105.117 Y101.732 E-.16148
G1 X104.914 Y101.247 E-.1214
G1 X104.687 Y100.782 E-.11953
;WIPE_END
G1 Z.6 F720
G1 X103.675 Y99.061 F10800
G1 Z.2 F720
G1 E.8 F2100
M204 S800
;WIDTH:0.657602
G1 F1200
G1 X103.576 Y98.988 E.00629
;WIDTH:0.610082
G1 X103.476 Y98.916 E.00581
;WIDTH:0.562561
G1 X103.376 Y98.844 E.00532
;WIDTH:0.515041
G1 X103.276 Y98.771 E.00486
;WIDTH:0.46752
G1 X103.177 Y98.699 E.00432
;WIDTH:0.419999
G1 X102.768 Y98.306 E.01778
G1 X102.152 Y97.813 E.02474
G1 X101.504 Y97.388 E.0243
G1 X101.043 Y97.145 E.01634
;WIDTH:0.463354
G1 X100.977 Y97.089 E.00303
;WIDTH:0.506708
G1 X100.911 Y97.033 E.00334
;WIDTH:0.550063
G1 X100.845 Y96.977 E.00365
;WIDTH:0.593417
G1 X100.779 Y96.922 E.00393
;WIDTH:0.636772
G1 X100.713 Y96.866 E.00427
;WIDTH:0.680126
G1 X100.647 Y96.81 E.00459
G1 X100.73 Y96.789 E.00454
;WIDTH:0.636772
G1 X100.814 Y96.768 E.00428
;WIDTH:0.593417
G1 X100.897 Y96.747 E.00392
;WIDTH:0.550063
G1 X100.981 Y96.726 E.00365
;WIDTH:0.506708
G1 X101.065 Y96.705 E.00334
;WIDTH:0.463354
G1 X101.148 Y96.684 E.00299
;WIDTH:0.419999
G1 X101.699 Y96.512 E.0181
G1 X102.101 Y96.237 E.01527
G1 X102.415 Y95.84 E.01587
G1 X103.035 Y94.592 E.04369
G1 X103.298 Y94.214 E.01444
G1 X103.719 Y93.821 E.01806
G1 X104.148 Y93.524 E.01636
G1 X104.647 Y93.242 E.01797
G1 X105.336 Y92.937 E.02363
G1 X105.833 Y93.298 E.01926
G1 X105.811 Y93.677 E.0119
G1 X105.715 Y94.322 E.02045
G1 X105.587 Y94.842 E.01679
G1 X105.351 Y95.462 E.0208
G1 X105.085 Y95.896 E.01596
G1 X103.943 Y97.023 E.05031
G1 X103.684 Y97.432 E.01518
G1 X103.552 Y97.937 E.01637
G1 X103.574 Y98.455 E.01626
;WIDTH:0.46752
G1 X103.594 Y98.576 E.00433
;WIDTH:0.515041
G1 X103.614 Y98.698 E.00485
;WIDTH:0.562561
G1 X103.635 Y98.819 E.00531
;WIDTH:0.610082
G1 X103.655 Y98.94 E.00578
;WIDTH:0.657602
G1 X103.665 Y99.002 E.00321
M204 S1000
;WIPE_START
G1 F8640
G1 X103.675 Y99.061 E-.01382
G1 X103.576 Y98.988 E-.0284
G1 X103.476 Y98.916 E-.02845
G1 X103.376 Y98.844 E-.02845
G1 X103.276 Y98.771 E-.02859
G1 X103.177 Y98.699 E-.02827
G1 X102.768 Y98.306 E-.13097
G1 X102.152 Y97.813 E-.18218
G1 X101.504 Y97.388 E-.17894
G1 X101.043 Y97.145 E-.12033
G1 X100.977 Y97.089 E-.01999
G1 X100.939 Y97.057 E-.01161
;WIPE_END
G1 Z.6 F720
G1 X95.931 Y96.346 F10800
G1 Z.2 F720
G1 E.8 F2100
M204 S800
;WIDTH:0.462367
G1 F1200
G1 X95.843 Y96.338 E.00308
;WIDTH:0.504734
G1 X95.756 Y96.329 E.00336
;WIDTH:0.547101
G1 X95.669 Y96.321 E.00366
;WIDTH:0.589468
G1 X95.581 Y96.312 E.00402
;WIDTH:0.631835
G1 X95.494 Y96.304 E.00428
;WIDTH:0.674202
G1 X95.406 Y96.296 E.00464
G1 X95.462 Y96.23 E.00454
;WIDTH:0.631835
G1 X95.518 Y96.164 E.00424
;WIDTH:0.589468
G1 X95.574 Y96.098 E.00393
;WIDTH:0.547101
G1 X95.63 Y96.032 E.00363
;WIDTH:0.504734
G1 X95.687 Y95.966 E.00335
;WIDTH:0.462367
G1 X95.743 Y95.9 E.00302
;WIDTH:0.419999
G1 X96.087 Y95.438 E.01806
G1 X96.251 Y94.98 E.01525
G1 X96.272 Y94.473 E.01591
G1 X96.036 Y93.077 E.04439
G1 X96.031 Y92.639 E.01373
G1 X96.14 Y92.073 E.01807
G1 X96.313 Y91.58 E.01638
G1 X96.551 Y91.059 E.01796
G1 X96.928 Y90.407 E.02361
G1 X97.543 Y90.407 E.01928
G1 X97.748 Y90.726 E.01189
G1 X98.05 Y91.305 E.02048
G1 X98.251 Y91.801 E.01678
G1 X98.397 Y92.34 E.01751
G1 X98.466 Y92.916 E.01819
G1 X98.209 Y94.437 E.04837
G1 X98.24 Y95.004 E.0178
G1 X98.359 Y95.379 E.01234
G1 X98.665 Y95.831 E.01711
;WIDTH:0.463744
G1 X98.778 Y95.935 E.00537
;WIDTH:0.507489
G1 X98.892 Y96.039 E.00596
;WIDTH:0.551234
G1 X99.005 Y96.143 E.00649
;WIDTH:0.594979
G1 X99.118 Y96.247 E.00705
;WIDTH:0.638724
G1 X99.231 Y96.351 E.00761
G1 X99.126 Y96.353 E.0052
;WIDTH:0.594979
G1 X99.022 Y96.355 E.00477
;WIDTH:0.551234
G1 X98.917 Y96.357 E.00444
;WIDTH:0.507489
G1 X98.813 Y96.359 E.00402
;WIDTH:0.463744
G1 X98.708 Y96.362 E.00368
;WIDTH:0.419999
G1 X97.961 Y96.263 E.02363
G1 X97.256 Y96.231 E.02213
G1 X96.665 Y96.244 E.01853
G1 X95.99 Y96.338 E.02137
M204 S1000
;WIPE_START
G1 F8640
G1 X95.931 Y96.346 E-.01375
G1 X95.843 Y96.338 E-.0204
G1 X95.756 Y96.329 E-.0202
G1 X95.669 Y96.321 E-.02017
G1 X95.581 Y96.312 E-.02043
G1 X95.494 Y96.304 E-.02017
G1 X95.406 Y96.296 E-.0204
G1 X95.462 Y96.23 E-.01999
G1 X95.518 Y96.164 E-.01999
G1 X95.574 Y96.098 E-.01999
G1 X95.63 Y96.032 E-.01999
G1 X95.687 Y95.966 E-.02014
G1 X95.743 Y95.9 E-.01999
G1 X96.087 Y95.438 E-.133
G1 X96.251 Y94.98 E-.11233
G1 X96.272 Y94.473 E-.11717
G1 X96.141 Y93.696 E-.18189
;WIPE_END
G1 Z.6 F720
G1 X90.735 Y99.157 F10800
G1 Z.2 F720
G1 E.8 F2100
M204 S800
;WIDTH:0.637688
G1 F1200
G1 X90.752 Y99.092 E.00332
;WIDTH:0.601049
G1 X90.769 Y99.027 E.00312
;WIDTH:0.56441
G1 X90.824 Y98.772 E.01131
;WIDTH:0.516273
G1 X90.879 Y98.516 E.01031
;WIDTH:0.468136
G1 X90.934 Y98.261 E.00922
;WIDTH:0.419999
G1 X90.914 Y97.839 E.01325
G1 X90.779 Y97.4 E.0144
G1 X90.46 Y96.934 E.01771
G1 X89.394 Y95.895 E.04667
G1 X89.076 Y95.334 E.02022
G1 X88.881 Y94.789 E.01815
G1 X88.761 Y94.264 E.01689
M73 P0 R48
G1 X88.64 Y93.302 E.0304
G1 X89.137 Y92.941 E.01926
G1 X89.49 Y93.079 E.01188
G1 X90.075 Y93.369 E.02047
G1 X90.529 Y93.652 E.01677
G1 X91.046 Y94.068 E.02081
G1 X91.375 Y94.454 E.0159
G1 X92.034 Y95.79 E.04671
G1 X92.101 Y95.894 E.00388
G1 X92.433 Y96.287 E.01613
G1 X92.908 Y96.573 E.01738
G1 X93.316 Y96.683 E.01325
;WIDTH:0.462138
G1 X93.408 Y96.701 E.00327
;WIDTH:0.504277
G1 X93.499 Y96.72 E.00357
;WIDTH:0.546416
G1 X93.59 Y96.739 E.00389
;WIDTH:0.588555
G1 X93.682 Y96.757 E.00425
;WIDTH:0.630694
G1 X93.773 Y96.776 E.00454
;WIDTH:0.672832
G1 X93.865 Y96.794 E.00491
G1 X93.811 Y96.845 E.00389
;WIDTH:0.627755
G1 X93.758 Y96.896 E.00358
;WIDTH:0.582677
G1 X93.705 Y96.946 E.00327
;WIDTH:0.5376
G1 X93.652 Y96.997 E.00303
;WIDTH:0.492522
G1 X93.384 Y97.152 E.01157
;WIDTH:0.456261
G1 X93.116 Y97.307 E.01064
;WIDTH:0.419999
G1 X92.459 Y97.719 E.02432
G1 X92.034 Y98.045 E.01679
G1 X91.629 Y98.384 E.01656
G1 X91.157 Y98.836 E.02049
;WIDTH:0.463537
G1 X91.073 Y98.9 E.00369
;WIDTH:0.507075
G1 X90.988 Y98.964 E.00411
;WIDTH:0.550613
G1 X90.904 Y99.028 E.00446
;WIDTH:0.594151
G1 X90.82 Y99.093 E.00487
;WIDTH:0.637688
G1 X90.783 Y99.121 E.00229
M204 S1000
;WIPE_START
G1 F8640
G1 X90.735 Y99.157 E-.01385
G1 X90.752 Y99.092 E-.01551
G1 X90.769 Y99.027 E-.01551
G1 X90.824 Y98.772 E-.06023
G1 X90.879 Y98.516 E-.06046
G1 X90.934 Y98.261 E-.06023
G1 X90.914 Y97.839 E-.09755
G1 X90.779 Y97.4 E-.10605
G1 X90.46 Y96.934 E-.1304
G1 X89.715 Y96.208 E-.24021
;WIPE_END
G1 Z.6 F720
G1 X88.769 Y103.992 F10800
G1 Z.2 F720
G1 E.8 F2100
M204 S800
;WIDTH:0.632656
G1 F1200
G1 X88.737 Y103.91 E.00432
;WIDTH:0.586267
G1 X88.665 Y103.746 E.00809
;WIDTH:0.5447
G1 X88.593 Y103.582 E.00747
;WIDTH:0.503133
G1 X88.521 Y103.417 E.00689
;WIDTH:0.461566
G1 X88.449 Y103.253 E.00623
;WIDTH:0.419999
G1 X88.164 Y102.871 E.01494
G1 X87.778 Y102.586 E.01504
G1 X87.243 Y102.385 E.01792
G1 X85.77 Y102.171 E.04667
G1 X85.183 Y101.904 E.02022
G1 X84.56 Y101.458 E.02402
G1 X84.13 Y101.06 E.01837
G1 X83.639 Y100.508 E.02316
G1 X83.823 Y99.94 E.01872
G1 X84.25 Y99.838 E.01376
G1 X84.892 Y99.728 E.02042
G1 X85.405 Y99.694 E.01612
G1 X85.967 Y99.732 E.01766
G1 X86.512 Y99.833 E.01738
G1 X87.952 Y100.578 E.05083
G1 X88.369 Y100.689 E.01353
G1 X88.72 Y100.701 E.01101
G1 X89.189 Y100.598 E.01506
G1 X89.408 Y100.491 E.00764
;WIDTH:0.461718
G1 X89.536 Y100.412 E.00524
;WIDTH:0.503437
G1 X89.665 Y100.332 E.00581
;WIDTH:0.545155
G1 X89.793 Y100.253 E.00628
;WIDTH:0.586874
G1 X89.921 Y100.173 E.00683
;WIDTH:0.628592
G1 X90.049 Y100.094 E.00733
G1 X90.024 Y100.181 E.00441
;WIDTH:0.586874
G1 X89.998 Y100.269 E.00415
;WIDTH:0.545155
G1 X89.972 Y100.356 E.00379
;WIDTH:0.503437
G1 X89.947 Y100.444 E.0035
;WIDTH:0.461718
G1 X89.921 Y100.532 E.0032
;WIDTH:0.419999
G1 X89.625 Y101.113 E.02044
G1 X89.329 Y101.848 E.02484
G1 X89.143 Y102.423 E.01895
G1 X89.013 Y103.01 E.01885
;WIDTH:0.433854
G1 X88.912 Y103.636 E.02061
;WIDTH:0.483555
G1 X88.876 Y103.725 E.00352
;WIDTH:0.533255
G1 X88.84 Y103.814 E.00391
;WIDTH:0.582956
G1 X88.805 Y103.903 E.00429
;WIDTH:0.632656
G1 X88.791 Y103.936 E.00176
M204 S1000
;WIPE_START
G1 F8640
G1 X88.769 Y103.992 E-.01389
G1 X88.737 Y103.91 E-.02032
G1 X88.665 Y103.746 E-.04136
G1 X88.593 Y103.582 E-.04136
G1 X88.521 Y103.417 E-.04157
G1 X88.449 Y103.253 E-.04136
G1 X88.164 Y102.871 E-.11005
G1 X87.778 Y102.586 E-.11079
G1 X87.243 Y102.385 E-.13196
G1 X86.183 Y102.231 E-.24734
;WIPE_END
G1 Z.6 F720
G1 X90.017 Y109.077 F10800
G1 Z.2 F720
G1 E.8 F2100
M204 S800
;WIDTH:0.645916
G1 F1200
G1 X89.955 Y109.041 E.00359
;WIDTH:0.60717
G1 X89.893 Y109.006 E.00334
;WIDTH:0.568423
G1 X89.831 Y108.971 E.00311
;WIDTH:0.529676
G1 X89.686 Y108.884 E.00684
;WIDTH:0.493117
G1 X89.54 Y108.797 E.00636
;WIDTH:0.456558
G1 X89.394 Y108.709 E.00586
;WIDTH:0.419999
G1 X89.085 Y108.59 E.01038
G1 X88.663 Y108.515 E.01344
G1 X88.256 Y108.549 E.01281
G1 X87.796 Y108.71 E.01528
G1 X86.626 Y109.326 E.04146
G1 X86.397 Y109.42 E.00776
G1 X85.871 Y109.516 E.01676
G1 X85.167 Y109.503 E.02208
G1 X84.547 Y109.443 E.01953
G1 X83.825 Y109.286 E.02317
G1 X83.641 Y108.718 E.01872
G1 X83.926 Y108.385 E.01374
G1 X84.358 Y107.939 E.01947
G1 X84.866 Y107.519 E.02067
G1 X85.22 Y107.308 E.01292
G1 X85.753 Y107.051 E.01855
G1 X87.356 Y106.807 E.05084
G1 X87.697 Y106.685 E.01136
G1 X88.04 Y106.462 E.01283
G1 X88.368 Y106.097 E.01539
G1 X88.56 Y105.684 E.01428
;WIDTH:0.46403
G1 X88.602 Y105.588 E.00367
;WIDTH:0.508061
G1 X88.645 Y105.492 E.00407
;WIDTH:0.552092
G1 X88.687 Y105.395 E.00448
;WIDTH:0.596123
G1 X88.73 Y105.299 E.00484
;WIDTH:0.640154
G1 X88.772 Y105.203 E.0052
G1 X88.772 Y105.208 E.00025
;WIDTH:0.637783
G1 X88.803 Y105.31 E.00527
;WIDTH:0.594227
G1 X88.834 Y105.412 E.00489
;WIDTH:0.55067
G1 X88.865 Y105.515 E.00454
;WIDTH:0.507113
G1 X88.896 Y105.617 E.00411
;WIDTH:0.463556
G1 X88.927 Y105.719 E.00373
;WIDTH:0.419999
G1 X89.026 Y106.269 E.01752
G1 X89.171 Y106.864 E.0192
G1 X89.394 Y107.551 E.02265
G1 X89.617 Y108.106 E.01875
G1 X89.859 Y108.577 E.0166
;WIDTH:0.465183
G1 X89.891 Y108.677 E.00369
;WIDTH:0.510366
G1 X89.922 Y108.777 E.00407
;WIDTH:0.55555
G1 X89.954 Y108.877 E.00448
;WIDTH:0.600733
G1 X89.985 Y108.977 E.00486
;WIDTH:0.645916
G1 X89.999 Y109.019 E.00222
M204 S1000
;WIPE_START
G1 F8640
G1 X90.017 Y109.077 E-.01402
G1 X89.955 Y109.041 E-.01655
G1 X89.893 Y109.006 E-.01644
G1 X89.831 Y108.971 E-.01644
G1 X89.686 Y108.884 E-.03905
G1 X89.54 Y108.797 E-.03924
G1 X89.394 Y108.709 E-.03936
G1 X89.085 Y108.59 E-.07646
G1 X88.663 Y108.515 E-.09897
G1 X88.256 Y108.549 E-.0943
G1 X87.796 Y108.71 E-.11253
G1 X86.889 Y109.187 E-.23664
;WIPE_END
G1 Z.6 F720
G1 X94.054 Y112.478 F10800
G1 Z.2 F720
G1 E.8 F2100
M204 S800
;WIDTH:0.633733
G1 F1200
G1 X93.91 Y112.49 E.0071
;WIDTH:0.590987
G1 X93.765 Y112.501 E.00663
;WIDTH:0.54824
G1 X93.62 Y112.513 E.00611
;WIDTH:0.505493
G1 X93.476 Y112.524 E.00555
;WIDTH:0.462746
G1 X93.331 Y112.536 E.00508
;WIDTH:0.419999
G1 X92.78 Y112.707 E.01809
G1 X92.379 Y112.981 E.01523
G1 X92.064 Y113.379 E.01591
G1 X91.444 Y114.627 E.04369
G1 X91.181 Y115.005 E.01444
