; generated by PrusaSlicer 2.7.4+win64 on 2024-06-24 at 15:44:05 UTC


;
;
; 

; external perimeters extrusion width = 0.45mm
; perimeters extrusion width = 0.45mm
; infill extrusion width = 0.45mm
; solid infill extrusion width = 0.45mm
; top infill extrusion width = 0.40mm
; support material extrusion width = 0.35mm
; first layer extrusion width = 0.42mm

M73 P0 R228
M73 Q0 S229
M201 X1000 Y1000 Z200 E5000 ; sets maximum accelerations, mm/sec^2
M203 X200 Y200 Z12 E120 ; sets maximum feedrates, mm / sec
M204 S1250 T1250 ; sets acceleration (S) and retract acceleration (R), mm/sec^2
M205 X8.00 Y8.00 Z0.40 E4.50 ; sets the jerk limits, mm/sec
M205 S0 T0 ; sets the minimum extruding and travel feed rate, mm/sec

; printing object machinePince-pinceBoitier.stl id:0 copy 0
; stop printing object machinePince-pinceBoitier.stl id:0 copy 0

;TYPE:Custom
M862.3 P "MK3S" ; printer model check
M862.1 P0.4 ; nozzle diameter check
M115 U3.12.1 ; tell printer latest fw version
G90 ; use absolute coordinates
M83 ; extruder relative mode
M104 S215 ; set extruder temp
M140 S60 ; set bed temp
M190 S60 ; wait for bed temp
M109 S215 ; wait for extruder temp
G28 W ; home all without mesh bed level
G80 ; mesh bed leveling

G1 Z0.2 F720
G1 Y-3 F1000 ; go outside print area
G92 E0
G1 X60 E9 F1000 ; intro line
G1 X100 E12.5 F1000 ; intro line

G92 E0
M221 S95

; Don't change E values below. Excessive value can damage the printer.
M907 E430 ; set extruder motor current
G21 ; set units to millimeters
G90 ; use absolute coordinates
M83 ; use relative distances for extrusion
M900 K0.05 ; Filament gcode LA 1.5
M900 K30 ; Filament gcode LA 1.0
M107
;LAYER_CHANGE
;Z:0.2
;HEIGHT:0.2
G1 E-.8 F2100
M73 P0 R227
G1 Z.6 F720
G1 X83.618 Y85.772 F10800
G1 Z.2 F720
G1 E.8 F2100
M204 S800
;TYPE:Skirt/Brim
;WIDTH:0.42
G1 F1200
G1 X85.249 Y84.729 E.0607
G1 X106.156 Y81.578 E.66293
G1 X119.48 Y81.557 E.41777
G1 X165.765 Y84.707 E1.45459
G1 X167.042 Y85.187 E.04277
G1 X167.846 Y86.29 E.0428
G1 X167.981 Y87.079 E.0251
G1 X167.981 Y122.079 E1.0974
G1 X167.589 Y123.386 E.04278
G1 X166.91 Y124.065 E.03011
G1 X159.846 Y128.715 E.26517
G1 X158.539 Y129.106 E.04277
G1 X108.818 Y129.106 E1.55897
G1 X85.137 Y124.41 E.75696
G1 X83.932 Y123.769 E.04279
G1 X83.226 Y122.079 E.05743
G1 X83.226 Y87.079 E1.0974
G1 X83.601 Y85.83 E.04089
M204 S1000
;WIPE_START
G1 F8640
G1 X83.618 Y85.772 E-.01396
G1 X85.249 Y84.729 E-.44702
G1 X86.701 Y84.51 E-.33902
;WIPE_END
G1 Z.6 F720
; printing object machinePince-pinceBoitier.stl id:0 copy 0
G1 X158.539 Y126.729 F10800
G1 Z.2 F720
G1 E.8 F2100
M204 S800
;TYPE:Support material
G1 F1200
G1 X129.581 Y126.729 E.90796
G1 X129.581 Y122.559 E.13075
G1 X158.539 Y122.559 E.90796
G1 X158.539 Y126.673 E.12899
M204 S1000
G1 X158.539 Y126.673 F10800
G1 X157.865 Y126.559
M204 S800
G1 F1200
G1 X157.865 Y122.898 E.11479
G1 X157.446 Y122.898 E.01314
G1 X157.446 Y126.39 E.10949
G1 X157.027 Y126.39 E.01314
G1 X157.027 Y122.898 E.10949
G1 X156.608 Y122.898 E.01314
G1 X156.608 Y126.39 E.10949
G1 X156.189 Y126.39 E.01314
G1 X156.189 Y122.898 E.10949
G1 X155.77 Y122.898 E.01314
G1 X155.77 Y126.39 E.10949
G1 X155.351 Y126.39 E.01314
G1 X155.351 Y122.898 E.10949
G1 X154.932 Y122.898 E.01314
G1 X154.932 Y126.39 E.10949
G1 X154.513 Y126.39 E.01314
G1 X154.513 Y122.898 E.10949
G1 X154.094 Y122.898 E.01314
G1 X154.094 Y126.39 E.10949
G1 X153.675 Y126.39 E.01314
G1 X153.675 Y122.898 E.10949
G1 X153.256 Y122.898 E.01314
G1 X153.256 Y126.39 E.10949
G1 X152.837 Y126.39 E.01314
G1 X152.837 Y122.898 E.10949
G1 X152.418 Y122.898 E.01314
G1 X152.418 Y126.39 E.10949
G1 X151.999 Y126.39 E.01314
G1 X151.999 Y122.898 E.10949
G1 X151.58 Y122.898 E.01314
G1 X151.58 Y126.39 E.10949
G1 X151.161 Y126.39 E.01314
G1 X151.161 Y122.898 E.10949
G1 X150.742 Y122.898 E.01314
G1 X150.742 Y126.39 E.10949
G1 X150.323 Y126.39 E.01314
G1 X150.323 Y122.898 E.10949
G1 X149.904 Y122.898 E.01314
G1 X149.904 Y126.39 E.10949
G1 X149.485 Y126.39 E.01314
G1 X149.485 Y122.898 E.10949
G1 X149.066 Y122.898 E.01314
G1 X149.066 Y126.39 E.10949
G1 X148.647 Y126.39 E.01314
G1 X148.647 Y122.898 E.10949
G1 X148.228 Y122.898 E.01314
G1 X148.228 Y126.39 E.10949
G1 X147.809 Y126.39 E.01314
G1 X147.809 Y122.898 E.10949
G1 X147.39 Y122.898 E.01314
G1 X147.39 Y126.39 E.10949
G1 X146.971 Y126.39 E.01314
G1 X146.971 Y122.898 E.10949
G1 X146.552 Y122.898 E.01314
G1 X146.552 Y126.39 E.10949
G1 X146.133 Y126.39 E.01314
G1 X146.133 Y122.898 E.10949
G1 X145.714 Y122.898 E.01314
G1 X145.714 Y126.39 E.10949
G1 X145.295 Y126.39 E.01314
G1 X145.295 Y122.898 E.10949
G1 X144.876 Y122.898 E.01314
G1 X144.876 Y126.39 E.10949
G1 X144.457 Y126.39 E.01314
G1 X144.457 Y122.898 E.10949
G1 X144.038 Y122.898 E.01314
G1 X144.038 Y126.39 E.10949
G1 X143.619 Y126.39 E.01314
G1 X143.619 Y122.898 E.10949
G1 X143.2 Y122.898 E.01314
G1 X143.2 Y126.39 E.10949
G1 X142.781 Y126.39 E.01314
G1 X142.781 Y122.898 E.10949
G1 X142.363 Y122.898 E.01311
G1 X142.363 Y126.39 E.10949
G1 X141.944 Y126.39 E.01314
G1 X141.944 Y122.898 E.10949
G1 X141.525 Y122.898 E.01314
G1 X141.525 Y126.39 E.10949
G1 X141.106 Y126.39 E.01314
G1 X141.106 Y122.898 E.10949
G1 X140.687 Y122.898 E.01314
G1 X140.687 Y126.39 E.10949
G1 X140.268 Y126.39 E.01314
G1 X140.268 Y122.898 E.10949
G1 X139.849 Y122.898 E.01314
G1 X139.849 Y126.39 E.10949
G1 X139.43 Y126.39 E.01314
G1 X139.43 Y122.898 E.10949
G1 X139.011 Y122.898 E.01314
G1 X139.011 Y126.39 E.10949
G1 X138.592 Y126.39 E.01314
G1 X138.592 Y122.898 E.10949
G1 X138.173 Y122.898 E.01314
G1 X138.173 Y126.39 E.10949
G1 X137.754 Y126.39 E.01314
G1 X137.754 Y122.898 E.10949
G1 X137.335 Y122.898 E.01314
G1 X137.335 Y126.39 E.10949
G1 X136.916 Y126.39 E.01314
G1 X136.916 Y122.898 E.10949
G1 X136.497 Y122.898 E.01314
G1 X136.497 Y126.39 E.10949
G1 X136.078 Y126.39 E.01314
G1 X136.078 Y122.898 E.10949
G1 X135.659 Y122.898 E.01314
G1 X135.659 Y126.39 E.10949
G1 X135.24 Y126.39 E.01314
G1 X135.24 Y122.898 E.10949
G1 X134.821 Y122.898 E.01314
G1 X134.821 Y126.39 E.10949
G1 X134.402 Y126.39 E.01314
G1 X134.402 Y122.898 E.10949
G1 X133.983 Y122.898 E.01314
G1 X133.983 Y126.39 E.10949
G1 X133.564 Y126.39 E.01314
G1 X133.564 Y122.898 E.10949
G1 X133.145 Y122.898 E.01314
G1 X133.145 Y126.39 E.10949
G1 X132.726 Y126.39 E.01314
G1 X132.726 Y122.898 E.10949
G1 X132.307 Y122.898 E.01314
G1 X132.307 Y126.39 E.10949
G1 X131.888 Y126.39 E.01314
G1 X131.888 Y122.898 E.10949
G1 X131.469 Y122.898 E.01314
G1 X131.469 Y126.39 E.10949
G1 X131.05 Y126.39 E.01314
G1 X131.05 Y122.898 E.10949
G1 X130.631 Y122.898 E.01314
G1 X130.631 Y126.39 E.10949
G1 X130.212 Y126.39 E.01314
G1 X130.212 Y122.729 E.11479
M204 S1000
;WIPE_START
G1 F8640
G1 X130.212 Y126.193 E-.8
;WIPE_END
G1 Z.6 F720
G1 X125.642 Y118.561 F10800
G1 Z.2 F720
G1 E.8 F2100
M204 S800
G1 F1200
G1 X125.985 Y118.725 E.01192
G1 X126.123 Y119.105 E.01268
G1 X125.966 Y119.451 E.01191
G1 X125.591 Y119.599 E.01264
G1 X125.24 Y119.451 E.01194
G1 X125.084 Y119.079 E.01265
G1 X125.222 Y118.725 E.01191
G1 X125.586 Y118.56 E.01253
M204 S1000
G1 X125.586 Y118.56 F10800
G1 X125.603 Y119.429
M204 S800
G1 F1200
G1 X125.603 Y118.729 E.02195
M204 S1000
;WIPE_START
G1 F8640
G1 X125.603 Y119.429 E-.16163
;WIPE_END
G1 E-.63837 F2100
G1 Z.6 F720
G1 X119.319 Y126.729 F10800
G1 Z.2 F720
G1 E.8 F2100
M204 S800
G1 F1200
G1 X108.818 Y126.729 E.32925
G1 X108.818 Y122.559 E.13075
G1 X119.319 Y122.559 E.32925
G1 X119.319 Y126.673 E.12899
M204 S1000
G1 X119.319 Y126.673 F10800
G1 X118.9 Y126.559
M204 S800
G1 F1200
G1 X118.9 Y122.898 E.11479
G1 X118.481 Y122.898 E.01314
G1 X118.481 Y126.39 E.10949
G1 X118.062 Y126.39 E.01314
G1 X118.062 Y122.898 E.10949
G1 X117.643 Y122.898 E.01314
G1 X117.643 Y126.39 E.10949
G1 X117.224 Y126.39 E.01314
G1 X117.224 Y122.898 E.10949
G1 X116.805 Y122.898 E.01314
G1 X116.805 Y126.39 E.10949
G1 X116.386 Y126.39 E.01314
G1 X116.386 Y122.898 E.10949
G1 X115.967 Y122.898 E.01314
G1 X115.967 Y126.39 E.10949
G1 X115.548 Y126.39 E.01314
G1 X115.548 Y122.898 E.10949
G1 X115.129 Y122.898 E.01314
G1 X115.129 Y126.39 E.10949
G1 X114.71 Y126.39 E.01314
G1 X114.71 Y122.898 E.10949
M73 Q0 S228
G1 X114.291 Y122.898 E.01314
G1 X114.291 Y126.39 E.10949
G1 X113.872 Y126.39 E.01314
G1 X113.872 Y122.898 E.10949
G1 X113.453 Y122.898 E.01314
G1 X113.453 Y126.39 E.10949
G1 X113.034 Y126.39 E.01314
G1 X113.034 Y122.898 E.10949
G1 X112.615 Y122.898 E.01314
G1 X112.615 Y126.39 E.10949
G1 X112.196 Y126.39 E.01314
G1 X112.196 Y122.898 E.10949
G1 X111.777 Y122.898 E.01314
G1 X111.777 Y126.39 E.10949
G1 X111.358 Y126.39 E.01314
G1 X111.358 Y122.898 E.10949
G1 X110.939 Y122.898 E.01314
G1 X110.939 Y126.39 E.10949
G1 X110.52 Y126.39 E.01314
G1 X110.52 Y122.898 E.10949
G1 X110.101 Y122.898 E.01314
G1 X110.101 Y126.39 E.10949
G1 X109.682 Y126.39 E.01314
G1 X109.682 Y122.898 E.10949
G1 X109.263 Y122.898 E.01314
G1 X109.263 Y126.559 E.11479
M204 S1000
;WIPE_START
G1 F8640
G1 X109.263 Y123.095 E-.8
;WIPE_END
G1 Z.6 F720
G1 X125.642 Y89.561 F10800
G1 Z.2 F720
G1 E.8 F2100
M204 S800
G1 F1200
G1 X125.985 Y89.725 E.01192
G1 X126.123 Y90.105 E.01268
G1 X125.966 Y90.451 E.01191
G1 X125.591 Y90.599 E.01264
G1 X125.24 Y90.451 E.01194
G1 X125.084 Y90.079 E.01265
G1 X125.222 Y89.725 E.01191
G1 X125.586 Y89.56 E.01253
M204 S1000
G1 X125.586 Y89.56 F10800
G1 X125.603 Y90.429
M204 S800
G1 F1200
G1 X125.603 Y89.729 E.02195
M204 S1000
;WIPE_START
G1 F8640
G1 X125.603 Y90.429 E-.16163
;WIPE_END
G1 E-.63837 F2100
G1 Z.6 F720
G1 X119.319 Y86.599 F10800
G1 Z.2 F720
G1 E.8 F2100
M204 S800
G1 F1200
G1 X106.51 Y86.599 E.40162
G1 X106.51 Y83.929 E.08372
G1 X119.319 Y83.929 E.40162
G1 X119.319 Y86.543 E.08196
M204 S1000
G1 X119.319 Y86.543 F10800
G1 X118.9 Y86.429
M204 S800
G1 F1200
G1 X118.9 Y84.268 E.06776
G1 X118.481 Y84.268 E.01314
G1 X118.481 Y86.26 E.06246
G1 X118.062 Y86.26 E.01314
G1 X118.062 Y84.268 E.06246
G1 X117.643 Y84.268 E.01314
G1 X117.643 Y86.26 E.06246
G1 X117.224 Y86.26 E.01314
G1 X117.224 Y84.268 E.06246
G1 X116.805 Y84.268 E.01314
G1 X116.805 Y86.26 E.06246
G1 X116.386 Y86.26 E.01314
G1 X116.386 Y84.268 E.06246
G1 X115.967 Y84.268 E.01314
G1 X115.967 Y86.26 E.06246
G1 X115.548 Y86.26 E.01314
G1 X115.548 Y84.268 E.06246
G1 X115.129 Y84.268 E.01314
G1 X115.129 Y86.26 E.06246
G1 X114.71 Y86.26 E.01314
G1 X114.71 Y84.268 E.06246
G1 X114.291 Y84.268 E.01314
G1 X114.291 Y86.26 E.06246
G1 X113.872 Y86.26 E.01314
G1 X113.872 Y84.268 E.06246
G1 X113.453 Y84.268 E.01314
G1 X113.453 Y86.26 E.06246
G1 X113.034 Y86.26 E.01314
G1 X113.034 Y84.268 E.06246
G1 X112.615 Y84.268 E.01314
G1 X112.615 Y86.26 E.06246
G1 X112.196 Y86.26 E.01314
G1 X112.196 Y84.268 E.06246
G1 X111.777 Y84.268 E.01314
G1 X111.777 Y86.26 E.06246
G1 X111.358 Y86.26 E.01314
G1 X111.358 Y84.268 E.06246
G1 X110.939 Y84.268 E.01314
G1 X110.939 Y86.26 E.06246
G1 X110.52 Y86.26 E.01314
G1 X110.52 Y84.268 E.06246
G1 X110.101 Y84.268 E.01314
G1 X110.101 Y86.26 E.06246
G1 X109.682 Y86.26 E.01314
G1 X109.682 Y84.268 E.06246
G1 X109.263 Y84.268 E.01314
G1 X109.263 Y86.26 E.06246
G1 X108.844 Y86.26 E.01314
G1 X108.844 Y84.268 E.06246
G1 X108.425 Y84.268 E.01314
G1 X108.425 Y86.26 E.06246
G1 X108.006 Y86.26 E.01314
G1 X108.006 Y84.268 E.06246
G1 X107.587 Y84.268 E.01314
G1 X107.587 Y86.26 E.06246
G1 X107.168 Y86.26 E.01314
G1 X107.168 Y84.099 E.06776
M204 S1000
;WIPE_START
G1 F8640
G1 X107.168 Y86.26 E-.49898
G1 X107.587 Y86.26 E-.09675
G1 X107.587 Y85.376 E-.20427
;WIPE_END
G1 Z.6 F720
G1 X164.816 Y121.292 F10800
G1 Z.2 F720
G1 E.8 F2100
M204 S800
;TYPE:Perimeter
;WIDTH:0.419999
G1 F1200
G1 X126.293 Y121.292 E1.20786
;WIDTH:0.444486
G1 X125.014 Y121.292 E.04271
;WIDTH:0.419999
G1 X86.391 Y121.292 E1.211
G1 X86.391 Y87.866 E1.04805
G1 X124.913 Y87.866 E1.20783
;WIDTH:0.444486
G1 X126.193 Y87.866 E.04274
;WIDTH:0.419999
G1 X164.816 Y87.866 E1.211
G1 X164.816 Y104.579 E.52402
G1 X164.816 Y121.232 E.52214
M204 S1000
G1 X164.816 Y121.232 F10800
G1 X165.193 Y121.669
M204 S800
;TYPE:External perimeter
G1 F1200
G1 X86.013 Y121.669 E2.48263
G1 X86.013 Y87.489 E1.07169
M73 P0 R226
G1 X165.193 Y87.489 E2.48263
G1 X165.193 Y104.579 E.53584
G1 X165.193 Y121.609 E.53396
M204 S1000
;WIPE_START
G1 F8640
G1 X165.193 Y121.669 E-.01385
G1 X161.788 Y121.669 E-.78615
;WIPE_END
G1 Z.6 F720
G1 X127.286 Y119.648 F10800
G1 Z.2 F720
G1 E.8 F2100
M204 S800
;TYPE:Perimeter
G1 F1200
G1 X127.234 Y119.792 E.0048
G1 X126.982 Y120.205 E.01517
G1 X126.829 Y120.369 E.00703
G1 X126.436 Y120.652 E.01518
G1 X126.232 Y120.744 E.00702
;WIDTH:0.450386
G1 X125.734 Y120.872 E.01742
G1 X125.533 Y120.872 E.00681
G1 X125.059 Y120.773 E.01641
;WIDTH:0.419999
G1 X124.85 Y120.691 E.00704
G1 X124.444 Y120.429 E.01515
G1 X124.283 Y120.272 E.00705
G1 X124.011 Y119.872 E.01517
G1 X123.926 Y119.68 E.00658
G1 X123.832 Y119.266 E.01331
G1 X123.824 Y119.056 E.00659
G1 X123.93 Y118.453 E.0192
G1 X124.225 Y117.953 E.0182
G1 X124.378 Y117.789 E.00703
G1 X124.796 Y117.489 E.01613
G1 X124.975 Y117.414 E.00609
G1 X125.477 Y117.3 E.01614
G1 X125.671 Y117.301 E.00608
G1 X126.178 Y117.391 E.01615
G1 X126.355 Y117.466 E.00603
G1 X126.783 Y117.741 E.01595
G1 X127.162 Y118.217 E.01908
G1 X127.252 Y118.409 E.00665
G1 X127.388 Y118.978 E.01834
G1 X127.311 Y119.581 E.01906
G1 X127.307 Y119.592 E.00037
M204 S1000
G1 X127.307 Y119.592 F10800
G1 X126.901 Y119.589
M204 S800
;TYPE:External perimeter
G1 F1200
G1 X126.66 Y120.008 E.01516
G1 X126.216 Y120.346 E.0175
G1 X125.676 Y120.484 E.01748
G1 X125.124 Y120.402 E.0175
G1 X124.648 Y120.112 E.01748
G1 X124.322 Y119.66 E.01747
G1 X124.197 Y119.112 E.01762
G1 X124.28 Y118.592 E.01651
G1 X124.547 Y118.15 E.01619
G1 X124.991 Y117.812 E.0175
G1 X125.531 Y117.674 E.01748
G1 X125.606 Y117.672 E.00235
G1 X126.101 Y117.761 E.01577
G1 X126.553 Y118.041 E.01667
G1 X126.857 Y118.438 E.01568
G1 X127.006 Y118.972 E.01738
G1 X126.938 Y119.525 E.01747
G1 X126.931 Y119.537 E.00044
M204 S1000
;WIPE_START
G1 F8640
G1 X126.901 Y119.589 E-.01386
G1 X126.66 Y120.008 E-.11161
G1 X126.216 Y120.346 E-.12885
G1 X125.676 Y120.484 E-.12869
G1 X125.124 Y120.402 E-.12886
G1 X124.648 Y120.112 E-.1287
G1 X124.322 Y119.66 E-.12868
G1 X124.292 Y119.53 E-.03075
;WIPE_END
G1 Z.6 F720
G1 X124.274 Y88.901 F10800
G1 Z.2 F720
G1 E.8 F2100
M204 S800
;TYPE:Perimeter
G1 F1200
G1 X124.378 Y88.789 E.00479
G1 X124.771 Y88.506 E.01518
G1 X124.975 Y88.414 E.00702
;WIDTH:0.450386
G1 X125.473 Y88.286 E.01742
G1 X125.674 Y88.286 E.00681
G1 X126.148 Y88.385 E.01641
;WIDTH:0.419999
G1 X126.355 Y88.466 E.00697
G1 X126.756 Y88.723 E.01493
G1 X126.909 Y88.867 E.00659
G1 X127.162 Y89.217 E.01354
G1 X127.252 Y89.409 E.00665
G1 X127.372 Y89.879 E.01521
G1 X127.383 Y90.103 E.00703
G1 X127.277 Y90.705 E.01917
G1 X126.982 Y91.205 E.0182
G1 X126.829 Y91.369 E.00703
G1 X126.409 Y91.67 E.0162
G1 X126.232 Y91.744 E.00602
G1 X125.73 Y91.858 E.01614
G1 X125.536 Y91.857 E.00608
G1 X125.029 Y91.767 E.01615
G1 X124.85 Y91.691 E.0061
G1 X124.419 Y91.412 E.0161
G1 X124.283 Y91.272 E.00612
G1 X123.981 Y90.823 E.01697
G1 X123.832 Y90.266 E.01808
G1 X123.824 Y90.056 E.00659
G1 X123.896 Y89.577 E.01519
G1 X123.973 Y89.366 E.00704
G1 X124.225 Y88.953 E.01517
G1 X124.233 Y88.945 E.00035
M204 S1000
G1 X124.233 Y88.945 F10800
G1 X124.589 Y89.118
M204 S800
;TYPE:External perimeter
G1 F1200
G1 X124.991 Y88.812 E.01584
G1 X125.531 Y88.674 E.01748
G1 X126.083 Y88.756 E.0175
G1 X126.553 Y89.041 E.01723
G1 X126.857 Y89.438 E.01568
G1 X127.006 Y89.972 E.01738
G1 X126.938 Y90.525 E.01747
G1 X126.66 Y91.008 E.01747
G1 X126.216 Y91.346 E.0175
G1 X125.676 Y91.484 E.01748
G1 X125.124 Y91.402 E.0175
G1 X124.648 Y91.112 E.01748
G1 X124.322 Y90.66 E.01747
G1 X124.2 Y90.182 E.01547
G1 X124.269 Y89.633 E.01735
G1 X124.543 Y89.156 E.01725
M204 S1000
;WIPE_START
G1 F8640
G1 X124.589 Y89.118 E-.01378
G1 X124.991 Y88.812 E-.11666
G1 X125.531 Y88.674 E-.12869
G1 X126.083 Y88.756 E-.12886
G1 X126.553 Y89.041 E-.12692
G1 X126.857 Y89.438 E-.11546
G1 X127.006 Y89.972 E-.12801
G1 X126.984 Y90.151 E-.04162
;WIPE_END
G1 Z.6 F720
G1 X164.703 Y88.742 F10800
G1 Z.2 F720
G1 E.8 F2100
M204 S800
;TYPE:Solid infill
;WIDTH:0.42007
G1 F1200
G1 X164.11 Y88.149 E.0263
G1 X163.577 Y88.149 E.01671
