; generated by PrusaSlicer 2.8.0+win64 on 2024-08-11 at 08:31:47 UTC


;
;
; 

; external perimeters extrusion width = 0.45mm
; perimeters extrusion width = 0.45mm
; infill extrusion width = 0.45mm
; solid infill extrusion width = 0.45mm
; top infill extrusion width = 0.40mm
; support material extrusion width = 0.35mm
; first layer extrusion width = 0.42mm

; external perimeters extrusion width = 0.45mm
; perimeters extrusion width = 0.45mm
; infill extrusion width = 0.45mm
; solid infill extrusion width = 0.45mm
; top infill extrusion width = 0.40mm
; support material extrusion width = 0.35mm
; first layer extrusion width = 0.42mm

M73 P0 R103
M73 Q0 S103
M201 X1000 Y1000 Z200 E5000 ; sets maximum accelerations, mm/sec^2
M203 X200 Y200 Z12 E120 ; sets maximum feedrates, mm / sec
M204 S1250 T1250 ; sets acceleration (S) and retract acceleration (R), mm/sec^2
M205 X8.00 Y8.00 Z0.40 E4.50 ; sets the jerk limits, mm/sec
M205 S0 T0 ; sets the minimum extruding and travel feed rate, mm/sec

; printing object machinePince-AxeXSupportCamera001.stl id:1 copy 0
; stop printing object machinePince-AxeXSupportCamera001.stl id:1 copy 0
; printing object machinePince-AxeXSupportCamera001.stl id:0 copy 0
; stop printing object machinePince-AxeXSupportCamera001.stl id:0 copy 0

;TYPE:Custom
M862.3 P "MK3S" ; printer model check
M862.1 P0.4 ; nozzle diameter check
M115 U3.14.0 ; tell printer latest fw version
G90 ; use absolute coordinates
M83 ; extruder relative mode
M104 S215 ; set extruder temp
M140 S60 ; set bed temp
M190 S60 ; wait for bed temp
M109 S215 ; wait for extruder temp
G28 W ; home all without mesh bed level
G80 X91.6229 Y62.7433 W66.7542 H84.6361 ; mesh bed levelling

G1 Z0.2 F720
G1 Y-3 F1000 ; go outside print area
G92 E0
G1 X60 E9 F1000 ; intro line
G1 X100 E12.5 F1000 ; intro line
M73 P0 R102

G92 E0
M221 S95

; Don't change E values below. Excessive value can damage the printer.
M907 E430 ; set extruder motor current
G21 ; set units to millimeters
G90 ; use absolute coordinates
M83 ; use relative distances for extrusion

M900 K0.05 ; Filament gcode LA 1.5
M900 K30 ; Filament gcode LA 1.0




M107
;LAYER_CHANGE
;Z:0.2
;HEIGHT:0.2
G1 E-.8 F2100
G1 Z.6 F720
G1 X92.202 Y63.872 F10800
G1 Z.2 F720
G1 E.8 F2100
M204 S800
;TYPE:Skirt/Brim
;WIDTH:0.42
G1 F1200
G1 X93.235 Y63.07 E.041
G1 X94 Y62.932 E.02437
G1 X156 Y62.932 E1.94397
G1 X157.248 Y63.323 E.04101
G1 X158.051 Y64.356 E.04102
G1 X158.189 Y65.12 E.02434
G1 X158.189 Y145.002 E2.50464
G1 X157.798 Y146.251 E.04104
G1 X156.765 Y147.053 E.041
G1 X156 Y147.191 E.02437
G1 X94 Y147.191 E1.94397
G1 X92.752 Y146.8 E.04101
G1 X91.949 Y145.767 E.04102
G1 X91.811 Y145.002 E.02437
G1 X91.811 Y65.12 E2.50464
G1 X92.184 Y63.929 E.03913
M204 S1000
;WIPE_START
G1 F8640
G1 X92.202 Y63.872 E-.0138
G1 X93.235 Y63.07 E-.30197
G1 X94 Y62.932 E-.17949
G1 X95.32 Y62.932 E-.30474
;WIPE_END
G1 Z.6 F720
; printing object machinePince-AxeXSupportCamera001.stl id:0 copy 0
G1 X146.739 Y79.283 F10800
G1 Z.2 F720
G1 E.8 F2100
M204 S800
;TYPE:Perimeter
;WIDTH:0.419999
G1 F1200
G1 X146.767 Y79.332 E.00177
G1 X146.889 Y79.698 E.0121
G1 X146.935 Y80.08 E.01206
G1 X146.904 Y80.464 E.01208
G1 X146.799 Y80.835 E.01209
G1 X146.621 Y81.177 E.01209
G1 X146.38 Y81.477 E.01207
G1 X146.083 Y81.724 E.01211
G1 X145.744 Y81.907 E.01208
G1 X145.376 Y82.019 E.01206
G1 X144.992 Y82.056 E.0121
G1 X144.609 Y82.016 E.01207
G1 X144.241 Y81.901 E.01209
G1 X143.903 Y81.715 E.0121
G1 X143.585 Y81.435 E.01328
G1 X143.275 Y81 E.01675
G1 X143.111 Y80.543 E.01522
G1 X143.065 Y80.161 E.01206
G1 X143.096 Y79.776 E.01211
G1 X143.201 Y79.406 E.01206
G1 X143.379 Y79.064 E.01209
G1 X143.62 Y78.763 E.01209
G1 X143.825 Y78.583 E.00855
G1 X144.256 Y78.334 E.01561
G1 X144.624 Y78.222 E.01206
G1 X145.05 Y78.19 E.01339
G1 X145.598 Y78.278 E.0174
G1 X146.016 Y78.473 E.01446
G1 X146.322 Y78.707 E.01208
G1 X146.576 Y78.997 E.01209
G1 X146.709 Y79.231 E.00844
M204 S1000
G1 X146.709 Y79.231 F10800
G1 X146.403 Y79.444
M204 S800
;TYPE:External perimeter
G1 F1200
G1 X146.413 Y79.461 E.00062
G1 X146.516 Y79.754 E.00974
G1 X146.558 Y80.061 E.00972
G1 X146.539 Y80.371 E.00974
G1 X146.459 Y80.671 E.00973
G1 X146.321 Y80.949 E.00973
G1 X146.13 Y81.195 E.00977
G1 X145.895 Y81.397 E.00972
G1 X145.624 Y81.549 E.00974
G1 X145.329 Y81.645 E.00973
G1 X145.02 Y81.68 E.00975
G1 X144.711 Y81.653 E.00973
G1 X144.413 Y81.565 E.00974
G1 X144.138 Y81.42 E.00975
G1 X143.891 Y81.214 E.01008
G1 X143.593 Y80.795 E.01612
G1 X143.484 Y80.487 E.01024
G1 X143.442 Y80.179 E.00975
G1 X143.461 Y79.869 E.00974
G1 X143.541 Y79.569 E.00973
G1 X143.679 Y79.291 E.00973
G1 X143.87 Y79.046 E.00974
G1 X144.075 Y78.865 E.00857
G1 X144.376 Y78.691 E.0109
G1 X144.671 Y78.596 E.00972
G1 X144.994 Y78.563 E.01018
G1 X145.49 Y78.639 E.01573
G1 X145.796 Y78.779 E.01055
G1 X146.046 Y78.964 E.00975
G1 X146.254 Y79.194 E.00972
G1 X146.373 Y79.393 E.00727
M204 S1000
;WIPE_START
G1 F8640
G1 X146.403 Y79.444 E-.01366
G1 X146.413 Y79.461 E-.00455
G1 X146.516 Y79.754 E-.07171
G1 X146.558 Y80.061 E-.07155
G1 X146.539 Y80.371 E-.07171
G1 X146.459 Y80.671 E-.07169
G1 X146.321 Y80.949 E-.07166
G1 X146.13 Y81.195 E-.07191
G1 X145.895 Y81.397 E-.07155
G1 X145.624 Y81.549 E-.07175
G1 X145.329 Y81.645 E-.07163
G1 X145.02 Y81.68 E-.07181
G1 X144.74 Y81.655 E-.06482
;WIPE_END
G1 Z.6 F720
G1 X151.159 Y81.499 F10800
G1 Z.2 F720
G1 E.8 F2100
M204 S800
;TYPE:Perimeter
G1 F1200
G1 X151.085 Y81.435 E.00307
G1 X150.786 Y81.017 E.01611
G1 X150.611 Y80.543 E.01584
G1 X150.571 Y80.273 E.00856
G1 X150.596 Y79.776 E.0156
G1 X150.701 Y79.406 E.01206
G1 X150.879 Y79.064 E.01209
G1 X151.12 Y78.763 E.01209
G1 X151.416 Y78.517 E.01207
G1 X151.756 Y78.334 E.01211
G1 X152.124 Y78.222 E.01206
G1 X152.55 Y78.19 E.01339
G1 X153.169 Y78.305 E.01974
G1 X153.516 Y78.473 E.01209
G1 X153.822 Y78.707 E.01208
G1 X154.076 Y78.997 E.01209
G1 X154.267 Y79.332 E.01209
G1 X154.389 Y79.698 E.0121
G1 X154.435 Y80.08 E.01206
G1 X154.404 Y80.464 E.01208
G1 X154.299 Y80.835 E.01209
G1 X154.121 Y81.177 E.01209
G1 X153.88 Y81.477 E.01207
G1 X153.583 Y81.724 E.01211
G1 X153.244 Y81.907 E.01208
G1 X152.876 Y82.019 E.01206
G1 X152.492 Y82.056 E.0121
G1 X152.109 Y82.016 E.01207
G1 X151.701 Y81.88 E.01348
G1 X151.403 Y81.715 E.01068
G1 X151.204 Y81.539 E.00833
M204 S1000
G1 X151.204 Y81.539 F10800
G1 X151.416 Y81.235
M204 S800
;TYPE:External perimeter
G1 F1200
G1 X151.391 Y81.214 E.00102
G1 X151.098 Y80.805 E.01577
G1 X150.984 Y80.487 E.01059
G1 X150.944 Y80.217 E.00856
G1 X150.961 Y79.869 E.01092
G1 X151.041 Y79.569 E.00973
G1 X151.179 Y79.291 E.00973
G1 X151.37 Y79.046 E.00974
G1 X151.605 Y78.843 E.00974
G1 X151.876 Y78.691 E.00974
G1 X152.171 Y78.596 E.00972
G1 X152.494 Y78.563 E.01018
G1 X153.014 Y78.648 E.01652
G1 X153.296 Y78.779 E.00975
G1 X153.546 Y78.964 E.00975
G1 X153.754 Y79.194 E.00972
G1 X153.913 Y79.461 E.00974
G1 X154.016 Y79.754 E.00974
G1 X154.058 Y80.061 E.00972
G1 X154.039 Y80.371 E.00974
G1 X153.959 Y80.671 E.00973
G1 X153.821 Y80.949 E.00973
G1 X153.63 Y81.195 E.00977
G1 X153.395 Y81.397 E.00972
G1 X153.124 Y81.549 E.00974
G1 X152.829 Y81.645 E.00973
G1 X152.52 Y81.68 E.00975
G1 X152.211 Y81.653 E.00973
G1 X151.874 Y81.545 E.0111
G1 X151.638 Y81.42 E.00837
G1 X151.462 Y81.273 E.00719
M204 S1000
;WIPE_START
G1 F8640
G1 X151.416 Y81.235 E-.01378
G1 X151.391 Y81.214 E-.00754
G1 X151.098 Y80.805 E-.11617
G1 X150.984 Y80.487 E-.078
G1 X150.944 Y80.217 E-.06302
G1 X150.961 Y79.869 E-.08045
G1 X151.041 Y79.569 E-.07169
G1 X151.179 Y79.291 E-.07166
G1 X151.37 Y79.046 E-.07173
G1 X151.605 Y78.843 E-.0717
G1 X151.876 Y78.691 E-.07175
G1 X152.171 Y78.596 E-.07156
G1 X152.218 Y78.591 E-.01095
;WIPE_END
G1 Z.6 F720
G1 X103.584 Y81.433 F10800
G1 Z.2 F720
G1 E.8 F2100
M204 S800
;TYPE:Perimeter
G1 F1200
G1 X103.286 Y81.017 E.01604
G1 X103.233 Y80.909 E.00377
G1 X103.111 Y80.543 E.0121
G1 X103.065 Y80.161 E.01206
G1 X103.096 Y79.776 E.01211
G1 X103.201 Y79.406 E.01206
G1 X103.379 Y79.064 E.01209
G1 X103.62 Y78.763 E.01209
G1 X103.916 Y78.517 E.01207
G1 X104.256 Y78.334 E.01211
G1 X104.624 Y78.222 E.01206
G1 X105.05 Y78.19 E.01339
G1 X105.598 Y78.278 E.0174
G1 X106.016 Y78.473 E.01446
G1 X106.322 Y78.707 E.01208
G1 X106.576 Y78.997 E.01209
G1 X106.767 Y79.332 E.01209
G1 X106.889 Y79.698 E.0121
G1 X106.935 Y80.08 E.01206
G1 X106.904 Y80.464 E.01208
G1 X106.799 Y80.835 E.01209
G1 X106.621 Y81.177 E.01209
G1 X106.38 Y81.477 E.01207
G1 X106.083 Y81.724 E.01211
G1 X105.744 Y81.907 E.01208
G1 X105.376 Y82.019 E.01206
G1 X104.992 Y82.056 E.0121
G1 X104.609 Y82.016 E.01207
G1 X104.207 Y81.883 E.01328
G1 X103.903 Y81.715 E.01089
G1 X103.629 Y81.473 E.01146
M204 S1000
G1 X103.629 Y81.473 F10800
G1 X103.863 Y81.175
M204 S800
;TYPE:External perimeter
G1 F1200
G1 X103.587 Y80.78 E.01511
G1 X103.484 Y80.487 E.00974
G1 X103.442 Y80.179 E.00975
G1 X103.461 Y79.869 E.00974
G1 X103.541 Y79.569 E.00973
G1 X103.679 Y79.291 E.00973
G1 X103.87 Y79.046 E.00974
G1 X104.105 Y78.843 E.00974
G1 X104.376 Y78.691 E.00974
G1 X104.671 Y78.596 E.00972
G1 X104.994 Y78.563 E.01018
G1 X105.49 Y78.639 E.01573
G1 X105.796 Y78.779 E.01055
G1 X106.046 Y78.964 E.00975
G1 X106.254 Y79.194 E.00972
G1 X106.413 Y79.461 E.00974
G1 X106.516 Y79.754 E.00974
G1 X106.558 Y80.061 E.00972
G1 X106.539 Y80.371 E.00974
G1 X106.459 Y80.671 E.00973
G1 X106.321 Y80.949 E.00973
G1 X106.13 Y81.195 E.00977
G1 X105.895 Y81.397 E.00972
G1 X105.624 Y81.549 E.00974
G1 X105.329 Y81.645 E.00973
G1 X105.02 Y81.68 E.00975
G1 X104.711 Y81.653 E.00973
G1 X104.379 Y81.547 E.01093
G1 X104.138 Y81.42 E.00854
G1 X103.9 Y81.222 E.00971
M204 S1000
;WIPE_START
G1 F8640
G1 X103.863 Y81.175 E-.01381
G1 X103.587 Y80.78 E-.11127
G1 X103.484 Y80.487 E-.07171
G1 X103.442 Y80.179 E-.07178
G1 X103.461 Y79.869 E-.07171
G1 X103.541 Y79.569 E-.07169
G1 X103.679 Y79.291 E-.07166
G1 X103.87 Y79.046 E-.07173
G1 X104.105 Y78.843 E-.0717
G1 X104.376 Y78.691 E-.07175
G1 X104.671 Y78.596 E-.07156
G1 X104.799 Y78.583 E-.02963
;WIPE_END
G1 Z.6 F720
G1 X97.74 Y82.032 F10800
G1 Z.2 F720
G1 E.8 F2100
M204 S800
;TYPE:Perimeter
G1 F1200
G1 X97.492 Y82.056 E.00781
G1 X97.109 Y82.016 E.01207
G1 X96.741 Y81.901 E.01209
G1 X96.403 Y81.715 E.0121
G1 X96.085 Y81.435 E.01328
G1 X95.733 Y80.909 E.01984
G1 X95.611 Y80.543 E.0121
G1 X95.571 Y80.273 E.00856
G1 X95.596 Y79.776 E.0156
G1 X95.701 Y79.406 E.01206
G1 X95.879 Y79.064 E.01209
G1 X96.12 Y78.763 E.01209
G1 X96.416 Y78.517 E.01207
G1 X96.756 Y78.334 E.01211
G1 X97.124 Y78.222 E.01206
G1 X97.55 Y78.19 E.01339
G1 X98.104 Y78.28 E.0176
G1 X98.516 Y78.473 E.01427
G1 X98.822 Y78.707 E.01208
G1 X99.076 Y78.997 E.01209
G1 X99.267 Y79.332 E.01209
G1 X99.389 Y79.698 E.0121
G1 X99.435 Y80.08 E.01206
G1 X99.404 Y80.464 E.01208
G1 X99.299 Y80.835 E.01209
G1 X99.121 Y81.177 E.01209
G1 X98.88 Y81.477 E.01207
G1 X98.583 Y81.724 E.01211
G1 X98.244 Y81.907 E.01208
G1 X97.876 Y82.019 E.01206
G1 X97.799 Y82.026 E.00242
M204 S1000
G1 X97.799 Y82.026 F10800
G1 X97.693 Y81.66
M204 S800
;TYPE:External perimeter
G1 F1200
G1 X97.52 Y81.68 E.00546
G1 X97.211 Y81.653 E.00973
G1 X96.913 Y81.565 E.00974
G1 X96.638 Y81.42 E.00975
G1 X96.391 Y81.214 E.01008
G1 X96.087 Y80.78 E.01661
G1 X95.984 Y80.487 E.00974
G1 X95.944 Y80.217 E.00856
G1 X95.961 Y79.869 E.01092
G1 X96.041 Y79.569 E.00973
G1 X96.179 Y79.291 E.00973
G1 X96.37 Y79.046 E.00974
G1 X96.605 Y78.843 E.00974
G1 X96.876 Y78.691 E.00974
G1 X97.171 Y78.596 E.00972
G1 X97.494 Y78.563 E.01018
G1 X97.992 Y78.64 E.0158
G1 X98.296 Y78.779 E.01048
G1 X98.546 Y78.964 E.00975
G1 X98.754 Y79.194 E.00972
G1 X98.913 Y79.461 E.00974
G1 X99.016 Y79.754 E.00974
G1 X99.058 Y80.061 E.00972
G1 X99.039 Y80.371 E.00974
G1 X98.959 Y80.671 E.00973
G1 X98.821 Y80.949 E.00973
G1 X98.63 Y81.195 E.00977
G1 X98.395 Y81.397 E.00972
G1 X98.124 Y81.549 E.00974
G1 X97.829 Y81.645 E.00973
G1 X97.753 Y81.653 E.0024
M204 S1000
;WIPE_START
G1 F8640
G1 X97.693 Y81.66 E-.01395
G1 X97.52 Y81.68 E-.04021
G1 X97.211 Y81.653 E-.07162
G1 X96.913 Y81.565 E-.07175
G1 X96.638 Y81.42 E-.07178
G1 X96.391 Y81.214 E-.07426
G1 X96.087 Y80.78 E-.12235
G1 X95.984 Y80.487 E-.07171
G1 X95.944 Y80.217 E-.06302
G1 X95.961 Y79.869 E-.08045
G1 X96.041 Y79.569 E-.07169
G1 X96.132 Y79.386 E-.04721
;WIPE_END
G1 Z.6 F720
G1 X94.787 Y94.333 F10800
G1 Z.2 F720
G1 E.8 F2100
M204 S800
;TYPE:Perimeter
G1 F1200
G1 X94.787 Y65.907 E.89128
G1 X155.213 Y65.907 E1.89461
G1 X155.213 Y72.462 E.20553
G1 X155.213 Y94.333 E.68575
G1 X94.847 Y94.333 E1.89273
M204 S1000
G1 X94.847 Y94.333 F10800
G1 X94.41 Y94.71
M204 S800
;TYPE:External perimeter
G1 F1200
G1 X94.41 Y65.53 E.91492
G1 X155.59 Y65.53 E1.91825
G1 X155.59 Y72.462 E.21735
G1 X155.59 Y94.71 E.69757
G1 X94.47 Y94.71 E1.91637
M204 S1000
;WIPE_START
G1 F8640
G1 X94.41 Y94.71 E-.01385
G1 X94.41 Y91.305 E-.78615
;WIPE_END
G1 Z.6 F720
G1 X154.279 Y66.077 F10800
G1 Z.2 F720
G1 E.8 F2100
M204 S800
;TYPE:Solid infill
;WIDTH:0.421107
G1 F1200
G1 X154.874 Y66.672 E.02646
G1 X154.874 Y67.207 E.01682
G1 X153.913 Y66.247 E.04272
G1 X153.379 Y66.247 E.01679
G1 X154.874 Y67.742 E.06649
G1 X154.874 Y68.277 E.01682
G1 X152.844 Y66.247 E.09028
G1 X152.309 Y66.247 E.01682
G1 X154.874 Y68.811 E.11405
G1 X154.874 Y69.346 E.01682
G1 X151.774 Y66.247 E.13784
G1 X151.239 Y66.247 E.01682
G1 X154.874 Y69.881 E.16163
G1 X154.874 Y70.416 E.01682
G1 X150.704 Y66.247 E.18543
G1 X150.17 Y66.247 E.01679
G1 X154.874 Y70.951 E.2092
G1 X154.874 Y71.486 E.01682
G1 X149.635 Y66.247 E.23299
G1 X149.1 Y66.247 E.01682
G1 X154.874 Y72.02 E.25676
G1 X154.874 Y72.555 E.01682
G1 X148.565 Y66.247 E.28055
G1 X148.03 Y66.247 E.01682
G1 X154.874 Y73.09 E.30434
G1 X154.874 Y73.625 E.01682
G1 X147.495 Y66.247 E.32814
G1 X146.961 Y66.247 E.01679
G1 X154.874 Y74.16 E.35191
G1 X154.874 Y74.695 E.01682
G1 X146.426 Y66.247 E.3757
G1 X145.891 Y66.247 E.01682
G1 X154.874 Y75.229 E.39947
G1 X154.874 Y75.764 E.01682
G1 X145.356 Y66.247 E.42326
G1 X144.821 Y66.247 E.01682
G1 X154.874 Y76.299 E.44705
G1 X154.874 Y76.834 E.01682
G1 X144.286 Y66.247 E.47085
G1 X143.752 Y66.247 E.01679
G1 X154.874 Y77.369 E.49462
G1 X154.874 Y77.904 E.01682
G1 X143.217 Y66.247 E.51841
G1 X142.682 Y66.247 E.01682
M73 Q0 S102
G1 X154.874 Y78.439 E.5422
G1 X154.874 Y78.973 E.01679
G1 X142.147 Y66.247 E.56597
G1 X141.612 Y66.247 E.01682
G1 X155.043 Y79.678 E.5973
M204 S1000
G1 X155.043 Y79.678 F10800
M73 P0 R101
G1 X154.564 Y79.734
M204 S800
G1 F1200
G1 X154.874 Y80.043 E.01376
G1 X154.874 Y80.578 E.01682
G1 X154.75 Y80.455 E.00549
G1 X154.637 Y80.876 E.01371
G1 X154.874 Y81.113 E.01054
G1 X154.874 Y81.648 E.01682
G1 X154.468 Y81.242 E.01806
G1 X154.398 Y81.375 E.00473
G1 X154.249 Y81.558 E.00742
G1 X154.874 Y82.182 E.02777
G1 X154.874 Y82.717 E.01682
G1 X153.986 Y81.829 E.03949
M73 Q1 S102
G1 X153.762 Y82.013 E.00912
G1 X153.679 Y82.057 E.00295
G1 X154.874 Y83.252 E.05314
G1 X154.874 Y83.787 E.01682
M73 P1 R101
G1 X153.324 Y82.237 E.06893
G1 X152.908 Y82.357 E.01362
G1 X154.874 Y84.322 E.08741
G1 X154.874 Y84.857 E.01682
G1 X152.212 Y82.195 E.11838
M204 S1000
;WIPE_START
G1 F8640
G1 X154.661 Y84.644 E-.8
;WIPE_END
G1 Z.6 F720
G1 X152.902 Y78.071 F10800
G1 Z.2 F720
G1 E.8 F2100
M204 S800
G1 F1200
G1 X141.077 Y66.247 E.52586
G1 X140.543 Y66.247 E.01679
G1 X152.17 Y77.874 E.51707
G1 X151.912 Y77.923 E.00826
G1 X151.744 Y77.984 E.00562
G1 X140.008 Y66.247 E.52194
G1 X139.473 Y66.247 E.01682
G1 X151.376 Y78.15 E.52935
G1 X151.186 Y78.26 E.0069
G1 X151.06 Y78.369 E.00524
G1 X138.938 Y66.247 E.53909
G1 X138.403 Y66.247 E.01682
G1 X150.788 Y78.631 E.55076
G1 X150.559 Y78.937 E.01202
G1 X137.868 Y66.247 E.56437
G1 X137.334 Y66.247 E.01679
G1 X150.38 Y79.293 E.58018
G1 X150.263 Y79.711 E.01365
G1 X136.799 Y66.247 E.59877
G1 X136.264 Y66.247 E.01682
G1 X150.424 Y80.407 E.62972
M204 S1000
;WIPE_START
G1 F8640
G1 X147.974 Y77.957 E-.8
;WIPE_END
G1 Z.6 F720
G1 X155.043 Y85.561 F10800
G1 Z.2 F720
G1 E.8 F2100
M204 S800
G1 F1200
G1 X151.734 Y82.252 E.14716
G1 X151.596 Y82.208 E.00455
G1 X151.247 Y82.022 E.01244
G1 X150.876 Y81.716 E.01512
G1 X150.525 Y81.238 E.01865
G1 X150.431 Y81.07 E.00605
G1 X150.368 Y80.886 E.00612
G1 X135.729 Y66.247 E.65102
