; generated by PrusaSlicer 2.7.4+win64 on 2024-06-21 at 08:45:58 UTC


;
;
; 

; external perimeters extrusion width = 0.45mm
; perimeters extrusion width = 0.45mm
; infill extrusion width = 0.45mm
; solid infill extrusion width = 0.45mm
; top infill extrusion width = 0.40mm
; first layer extrusion width = 0.42mm

M73 P0 R56
M73 Q0 S56
M201 X1000 Y1000 Z200 E5000 ; sets maximum accelerations, mm/sec^2
M203 X200 Y200 Z12 E120 ; sets maximum feedrates, mm / sec
M204 S1250 T1250 ; sets acceleration (S) and retract acceleration (R), mm/sec^2
M205 X8.00 Y8.00 Z0.40 E4.50 ; sets the jerk limits, mm/sec
M205 S0 T0 ; sets the minimum extruding and travel feed rate, mm/sec

; printing object machinePince-pinceMotorisée.stl id:0 copy 0
; stop printing object machinePince-pinceMotorisée.stl id:0 copy 0

;TYPE:Custom
M862.3 P "MK3S" ; printer model check
M862.1 P0.4 ; nozzle diameter check
M115 U3.12.1 ; tell printer latest fw version
G90 ; use absolute coordinates
M83 ; extruder relative mode
M104 S215 ; set extruder temp
M140 S60 ; set bed temp
M190 S60 ; wait for bed temp
M109 S215 ; wait for extruder temp
G28 W ; home all without mesh bed level
G80 ; mesh bed leveling

G1 Z0.2 F720
G1 Y-3 F1000 ; go outside print area
G92 E0
G1 X60 E9 F1000 ; intro line
G1 X100 E12.5 F1000 ; intro line

G92 E0
M221 S95

; Don't change E values below. Excessive value can damage the printer.
M907 E430 ; set extruder motor current
G21 ; set units to millimeters
G90 ; use absolute coordinates
M83 ; use relative distances for extrusion
M900 K0.05 ; Filament gcode LA 1.5
M900 K30 ; Filament gcode LA 1.0
M107
;LAYER_CHANGE
;Z:0.2
;HEIGHT:0.2
G1 E-.8 F2100
G1 Z.6 F720
G1 X84.41 Y93.028 F10800
G1 Z.2 F720
G1 E.8 F2100
M204 S800
;TYPE:Skirt/Brim
;WIDTH:0.42
G1 F1200
G1 X90.776 Y88.403 E.24672
G1 X91.898 Y87.899 E.03857
G1 X92.902 Y87.591 E.03293
G1 X93.562 Y87.497 E.0209
G1 X101.435 Y87.496 E.24685
G1 X101.944 Y87.551 E.01605
G1 X168.01 Y102.03 E2.12062
G1 X169.203 Y102.692 E.04278
G1 X169.878 Y104.352 E.05619
G1 X169.878 Y110.352 E.18813
G1 X169.486 Y111.659 E.04278
G1 X168.684 Y112.414 E.03454
G1 X165.867 Y114.031 E.10184
G1 X162.874 Y115.565 E.10545
G1 X159.811 Y116.954 E.10545
G1 X156.577 Y118.233 E.10904
G1 X153.393 Y119.315 E.10544
G1 X150.271 Y120.214 E.10187
G1 X146.999 Y120.991 E.10544
G1 X143.694 Y121.609 E.10542
G1 X140.362 Y122.068 E.10546
G1 X136.898 Y122.373 E.10903
G1 X133.538 Y122.504 E.10543
G1 X130.227 Y122.475 E.10382
G1 X93.485 Y121.207 E1.15271
G1 X92.906 Y121.114 E.01839
G1 X91.825 Y120.78 E.03547
G1 X90.776 Y120.301 E.03616
G1 X84.41 Y115.676 E.24672
G1 X83.931 Y115.212 E.02091
G1 X82.979 Y113.902 E.05077
G1 X82.686 Y113.302 E.02094
G1 X80.254 Y105.819 E.2467
G1 X80.122 Y104.596 E.03857
G1 X80.139 Y103.542 E.03305
G1 X80.254 Y102.885 E.02091
G1 X82.686 Y95.402 E.2467
G1 X82.979 Y94.802 E.02094
G1 X83.584 Y93.94 E.03302
G1 X84.37 Y93.072 E.03672
M204 S1000
;WIPE_START
G1 F8640
G1 X84.41 Y93.028 E-.01373
G1 X87.165 Y91.026 E-.78627
;WIPE_END
G1 Z.6 F720
; printing object machinePince-pinceMotorisée.stl id:0 copy 0
G1 X98.805 Y95.402 F10800
G1 Z.2 F720
G1 E.8 F2100
M204 S800
;TYPE:Perimeter
;WIDTH:0.419999
G1 F1200
G1 X98.905 Y95.37 E.00329
G1 X99.297 Y95.1 E.01492
G1 X99.572 Y94.739 E.01423
G1 X99.724 Y94.305 E.01442
G1 X99.918 Y93.024 E.04062
G1 X99.99 Y92.75 E.00888
G1 X100.214 Y92.269 E.01664
G1 X100.618 Y91.704 E.02178
G1 X101.001 Y91.282 E.01787
G1 X101.61 Y90.754 E.02527
G1 X102.178 Y90.939 E.01873
G1 X102.275 Y91.305 E.01187
M73 P0 R55
G1 X102.383 Y91.949 E.02047
G1 X102.422 Y92.483 E.01679
G1 X102.389 Y93.145 E.02078
G1 X102.27 Y93.638 E.0159
G1 X101.577 Y94.957 E.04672
G1 X101.428 Y95.456 E.01633
G1 X101.417 Y95.905 E.01408
G1 X101.516 Y96.316 E.01326
G1 X101.754 Y96.746 E.01541
G1 X102.112 Y97.103 E.01585
G1 X102.97 Y97.727 E.03326
G1 X103.411 Y97.952 E.01552
G1 X103.779 Y98.041 E.01187
G1 X104.258 Y98.028 E.01502
G1 X104.676 Y97.905 E.01366
G1 X105.133 Y97.611 E.01704
G1 X106.108 Y96.616 E.04368
G1 X106.475 Y96.338 E.01444
G1 X106.997 Y96.094 E.01807
G1 X107.497 Y95.944 E.01637
G1 X108.059 Y95.83 E.01798
G1 X108.808 Y95.752 E.02361
G1 X109.169 Y96.25 E.01929
G1 X109.032 Y96.603 E.01187
G1 X108.741 Y97.187 E.02046
G1 X108.458 Y97.642 E.0168
G1 X108.042 Y98.158 E.02078
G1 X107.655 Y98.489 E.01597
G1 X106.278 Y99.18 E.04831
G1 X106.099 Y99.291 E.0066
G1 X105.761 Y99.639 E.01521
G1 X105.485 Y100.164 E.0186
G1 X105.408 Y100.693 E.01676
G1 X105.465 Y101.097 E.01279
G1 X105.844 Y102.209 E.03684
G1 X106.113 Y102.663 E.01655
G1 X105.968 Y102.687 E.00461
G1 X105.568 Y102.874 E.01384
G1 X105.26 Y103.082 E.01165
G1 X105.063 Y103.323 E.00976
G1 X104.893 Y103.587 E.00985
G1 X104.728 Y104.149 E.01836
G1 X104.752 Y104.682 E.01673
G1 X104.803 Y104.889 E.00668
G1 X105.031 Y105.364 E.01652
G1 X105.403 Y105.739 E.01656
G1 X105.599 Y105.863 E.00727
G1 X106.113 Y106.043 E.01708
G1 X105.867 Y106.443 E.01472
G1 X105.438 Y107.731 E.04257
G1 X105.422 Y108.254 E.01641
G1 X105.594 Y108.798 E.01789
G1 X105.85 Y109.184 E.01452
G1 X106.268 Y109.526 E.01693
G1 X107.849 Y110.318 E.05544
G1 X110.934 Y111.427 E.10279
G1 X114.076 Y112.389 E.10303
G1 X117.287 Y113.206 E.10389
G1 X120.48 Y113.856 E.10217
G1 X123.728 Y114.356 E.10304
G1 X127.023 Y114.702 E.10388
G1 X130.304 Y114.887 E.10304
G1 X133.59 Y114.913 E.10303
G1 X136.873 Y114.782 E.10302
G1 X139.513 Y114.549 E.0831
G1 X140.146 Y114.493 E.01992
G1 X143.402 Y114.046 E.10305
G1 X146.632 Y113.444 E.10302
G1 X149.83 Y112.687 E.10304
G1 X152.987 Y111.777 E.10302
G1 X156.072 Y110.725 E.1022
G1 X159.127 Y109.517 E.103
G1 X162.122 Y108.163 E.10306
G1 X165.047 Y106.667 E.10301
G1 X166.714 Y105.711 E.06025
G1 X166.714 Y107.605 E.05938
G1 X166.714 Y109.896 E.07183
G1 X164.308 Y111.277 E.08698
G1 X161.45 Y112.74 E.10067
G1 X158.524 Y114.063 E.10068
G1 X155.539 Y115.244 E.10065
G1 X152.499 Y116.28 E.1007
G1 X149.414 Y117.168 E.10066
G1 X146.29 Y117.907 E.10065
G1 X143.133 Y118.495 E.10069
G1 X139.952 Y118.93 E.10067
G1 X136.753 Y119.212 E.10069
G1 X133.545 Y119.34 E.10066
G1 X130.335 Y119.313 E.10065
G1 X127.129 Y119.131 E.10068
G1 X123.936 Y118.796 E.10066
G1 X120.762 Y118.307 E.10069
G1 X117.616 Y117.666 E.10067
G1 X114.531 Y116.881 E.09981
G1 X111.434 Y115.934 E.10154
G1 X108.413 Y114.847 E.10067
G1 X105.448 Y113.616 E.10066
G1 X102.166 Y112.066 E.1138
G1 X101.888 Y112.032 E.00878
G1 X101.646 Y112.122 E.0081
G1 X101.451 Y112.345 E.00929
G1 X101.394 Y112.609 E.00847
G1 X101.409 Y113.123 E.01612
G1 X101.533 Y113.641 E.0167
G1 X102.269 Y115.062 E.05018
G1 X102.398 Y115.696 E.02029
G1 X102.404 Y116.463 E.02405
G1 X102.335 Y117.045 E.01838
G1 X102.177 Y117.766 E.02314
G1 X101.609 Y117.951 E.01873
G1 X101.276 Y117.665 E.01376
G1 X100.809 Y117.211 E.02042
G1 X100.48 Y116.816 E.01612
G1 X100.181 Y116.338 E.01768
G1 X99.942 Y115.838 E.01738
G1 X99.712 Y114.345 E.04736
G1 X99.622 Y114.083 E.00869
G1 X99.401 Y113.715 E.01346
G1 X99.088 Y113.434 E.01319
G1 X98.816 Y113.307 E.00941
G1 X98.986 Y113.116 E.00802
G1 X99.185 Y112.725 E.01376
G1 X99.261 Y112.212 E.01626
G1 X99.148 Y111.693 E.01665
G1 X98.961 Y111.327 E.01289
G1 X98.624 Y110.981 E.01514
G1 X98.37 Y110.799 E.0098
G1 X97.829 Y110.595 E.01813
G1 X97.345 Y110.579 E.01518
G1 X96.778 Y110.718 E.0183
G1 X96.329 Y111.011 E.01681
G1 X96.002 Y111.381 E.01548
G1 X95.788 Y111.904 E.01772
G1 X95.742 Y112.276 E.01175
G1 X95.81 Y112.696 E.01334
G1 X95.97 Y113.052 E.01224
G1 X96.197 Y113.302 E.01059
G1 X96.097 Y113.334 E.00329
G1 X95.705 Y113.604 E.01492
G1 X95.434 Y113.957 E.01395
G1 X95.278 Y114.399 E.0147
G1 X95.082 Y115.693 E.04104
G1 X95.007 Y115.968 E.00894
G1 X94.788 Y116.435 E.01617
G1 X94.384 Y117 E.02178
G1 X94 Y117.422 E.01789
G1 X93.392 Y117.95 E.02525
G1 X92.823 Y117.766 E.01875
G1 X92.749 Y117.482 E.0092
G1 X92.59 Y116.39 E.0346
G1 X92.62 Y115.578 E.02548
G1 X92.727 Y115.074 E.01615
G1 X93.405 Y113.785 E.04567
G1 X93.569 Y113.313 E.01567
G1 X93.575 Y112.757 E.01743
G1 X93.53 Y112.541 E.00692
G1 X93.326 Y112.066 E.01621
G1 X92.934 Y111.634 E.01829
G1 X91.846 Y110.861 E.04185
G1 X91.365 Y110.685 E.01606
G1 X90.828 Y110.665 E.01685
G1 X90.34 Y110.789 E.01579
G1 X89.914 Y111.056 E.01576
G1 X88.788 Y112.196 E.05024
G1 X88.225 Y112.515 E.02029
G1 X87.729 Y112.698 E.01658
G1 X87.237 Y112.821 E.0159
G1 X86.188 Y112.945 E.03312
G1 X85.832 Y112.454 E.01902
G1 X85.968 Y112.107 E.01169
G1 X86.288 Y111.498 E.02157
G1 X86.568 Y111.037 E.01691
G1 X86.929 Y110.604 E.01768
G1 X87.329 Y110.224 E.0173
G1 X88.681 Y109.557 E.04727
G1 X89.095 Y109.241 E.01633
G1 X89.367 Y108.885 E.01405
G1 X89.545 Y108.425 E.01547
G1 X89.59 Y107.991 E.01368
G1 X89.506 Y107.495 E.01577
G1 X89.167 Y106.519 E.0324
G1 X88.889 Y106.044 E.01726
G1 X89.207 Y105.958 E.01033
G1 X89.71 Y105.648 E.01853
G1 X89.856 Y105.504 E.00643
G1 X90.135 Y105.07 E.01618
G1 X90.269 Y104.553 E.01675
G1 X90.282 Y104.343 E.0066
G1 X90.21 Y103.829 E.01627
G1 X89.973 Y103.355 E.01662
G1 X89.714 Y103.051 E.01252
G1 X89.194 Y102.745 E.01892
G1 X88.869 Y102.673 E.01044
G1 X88.924 Y102.616 E.00248
G1 X89.175 Y102.163 E.01624
G1 X89.506 Y101.209 E.03166
G1 X89.592 Y100.66 E.01742
G1 X89.501 Y100.127 E.01695
G1 X89.422 Y99.935 E.00651
G1 X89.092 Y99.452 E.01834
G1 X88.731 Y99.176 E.01425
G1 X87.484 Y98.557 E.04365
G1 X87.106 Y98.293 E.01446
G1 X86.712 Y97.872 E.01808
G1 X86.415 Y97.443 E.01636
G1 X86.133 Y96.944 E.01797
G1 X85.828 Y96.256 E.0236
G1 X86.189 Y95.758 E.01929
G1 X86.568 Y95.78 E.0119
G1 X87.213 Y95.876 E.02045
G1 X87.733 Y96.004 E.01679
G1 X88.353 Y96.241 E.02081
G1 X88.787 Y96.506 E.01594
G1 X89.99 Y97.712 E.05341
G1 X90.397 Y97.936 E.01457
G1 X90.828 Y98.04 E.0139
G1 X91.346 Y98.018 E.01626
G1 X91.883 Y97.819 E.01796
G1 X92.886 Y97.107 E.03857
G1 X93.193 Y96.814 E.01331
G1 X93.432 Y96.443 E.01384
G1 X93.549 Y96.111 E.01104
G1 X93.592 Y95.748 E.01146
G1 X93.56 Y95.354 E.01239
G1 X93.401 Y94.909 E.01482
G1 X92.785 Y93.739 E.04146
G1 X92.691 Y93.509 E.00779
G1 X92.595 Y92.984 E.01673
G1 X92.608 Y92.279 E.02211
G1 X92.667 Y91.659 E.01953
G1 X92.825 Y90.938 E.02314
G1 X93.393 Y90.753 E.01873
G1 X93.726 Y91.039 E.01376
G1 X94.172 Y91.471 E.01947
G1 X94.591 Y91.979 E.02065
G1 X94.803 Y92.332 E.01291
G1 X95.06 Y92.866 E.01858
G1 X95.279 Y94.289 E.04514
G1 X95.409 Y94.694 E.01334
G1 X95.601 Y94.99 E.01106
G1 X95.914 Y95.27 E.01317
G1 X96.186 Y95.397 E.00941
G1 X96.134 Y95.443 E.00218
G1 X95.874 Y95.839 E.01485
G1 X95.767 Y96.262 E.01368
G1 X95.756 Y96.601 E.01063
G1 X95.884 Y97.104 E.01627
G1 X96.142 Y97.503 E.0149
G1 X96.587 Y97.885 E.01839
G1 X97.082 Y98.082 E.0167
G1 X97.303 Y98.121 E.00704
G1 X97.81 Y98.107 E.0159
G1 X98.263 Y97.95 E.01503
G1 X98.559 Y97.782 E.01067
G1 X99.005 Y97.313 E.02029
G1 X99.214 Y96.801 E.01734
G1 X99.26 Y96.428 E.01178
G1 X99.191 Y96.008 E.01335
G1 X99.032 Y95.652 E.01222
G1 X98.845 Y95.447 E.0087
M204 S1000
;WIPE_START
G1 F8640
G1 X98.805 Y95.402 E-.0139
G1 X98.905 Y95.37 E-.02424
G1 X99.297 Y95.1 E-.10991
G1 X99.572 Y94.739 E-.10479
G1 X99.724 Y94.305 E-.10618
G1 X99.918 Y93.024 E-.29916
G1 X99.99 Y92.75 E-.06542
G1 X100.129 Y92.45 E-.0764
;WIPE_END
G1 Z.6 F720
G1 X108.234 Y104.023 F10800
G1 Z.2 F720
G1 E.8 F2100
M204 S800
G1 F1200
G1 X108.193 Y103.854 E.00545
G1 X107.875 Y103.297 E.02011
G1 X108.108 Y103.286 E.00731
G1 X109.189 Y103.125 E.03427
G1 X109.718 Y103.189 E.01671
G1 X110.125 Y103.301 E.01324
G1 X110.848 Y103.566 E.02414
G1 X111.703 Y104.05 E.03081
G1 X111.703 Y104.656 E.019
G1 X111.384 Y104.861 E.01189
G1 X110.811 Y105.16 E.02026
G1 X110.159 Y105.409 E.02188
G1 X109.709 Y105.52 E.01453
G1 X109.167 Y105.579 E.01709
G1 X107.873 Y105.405 E.04094
G1 X108.028 Y105.197 E.00813
G1 X108.266 Y104.567 E.02112
G1 X108.255 Y104.108 E.0144
G1 X108.249 Y104.081 E.00087
M204 S1000
G1 X108.249 Y104.081 F10800
G1 X107.876 Y104.284
M204 S800
;TYPE:External perimeter
G1 F1200
G1 X107.874 Y104.609 E.01019
G1 X107.668 Y105.074 E.01595
;WIDTH:0.452057
G1 X107.319 Y105.394 E.01611
G1 X106.657 Y105.639 E.02401
;WIDTH:0.438921
G1 X106.119 Y105.661 E.01773
;WIDTH:0.419999
G1 X105.666 Y105.469 E.01543
G1 X105.323 Y105.118 E.01539
G1 X105.129 Y104.663 E.01551
G1 X105.105 Y104.163 E.0157
G1 X105.26 Y103.685 E.01576
G1 X105.615 Y103.271 E.0171
G1 X106.073 Y103.049 E.01596
G1 X106.339 Y103.027 E.00837
;WIDTH:0.430118
G1 X106.819 Y103.118 E.01573
;WIDTH:0.455082
G1 X107.353 Y103.331 E.0197
G1 X107.641 Y103.601 E.01353
;WIDTH:0.419999
G1 X107.878 Y104.105 E.01746
G1 X107.877 Y104.224 E.00373
M204 S1000
;WIPE_START
G1 F8640
G1 X107.876 Y104.284 E-.01386
G1 X107.874 Y104.609 E-.07504
G1 X107.668 Y105.074 E-.11743
G1 X107.319 Y105.394 E-.10933
G1 X106.657 Y105.639 E-.16299
G1 X106.119 Y105.661 E-.12433
G1 X105.666 Y105.469 E-.11361
G1 X105.413 Y105.21 E-.08341
;WIPE_END
G1 Z.6 F720
G1 X97.194 Y95.188 F10800
G1 Z.2 F720
G1 E.8 F2100
M73 Q1 S56
M204 S800
;WIDTH:0.409816
G1 F1200
G1 X97.691 Y95.177 E.01517
M204 S1000
;WIPE_START
G1 F8640
G1 X97.194 Y95.188 E-.11479
;WIPE_END
G1 E-.68521 F2100
G1 Z.6 F720
M73 P1 R55
G1 X87.15 Y103.3 F10800
G1 Z.2 F720
G1 E.8 F2100
M73 Q1 S55
M204 S800
;TYPE:Perimeter
;WIDTH:0.419999
G1 F1200
G1 X87.016 Y103.446 E.00621
G1 X86.893 Y103.652 E.00752
G1 X86.73 Y104.184 E.01745
G1 X86.75 Y104.513 E.01033
G1 X86.833 Y104.921 E.01305
G1 X87.125 Y105.405 E.01772
G1 X86.894 Y105.418 E.00725
G1 X85.806 Y105.58 E.03449
G1 X85.207 Y105.507 E.01892
G1 X84.66 Y105.349 E.01785
G1 X84.167 Y105.145 E.01673
G1 X83.298 Y104.654 E.0313
G1 X83.298 Y104.048 E.019
G1 X83.617 Y103.843 E.01189
G1 X84.159 Y103.561 E.01916
G1 X84.649 Y103.358 E.01663
G1 X85.148 Y103.205 E.01636
G1 X85.77 Y103.124 E.01967
G1 X86.646 Y103.251 E.02775
G1 X87.09 Y103.294 E.01399
M204 S1000
;WIPE_START
G1 F8640
G1 X87.15 Y103.3 E-.01392
G1 X87.016 Y103.446 E-.04576
G1 X86.893 Y103.652 E-.0554
G1 X86.73 Y104.184 E-.12848
G1 X86.75 Y104.513 E-.07611
G1 X86.833 Y104.921 E-.09614
G1 X87.125 Y105.405 E-.13052
G1 X86.894 Y105.418 E-.05342
G1 X86.036 Y105.545 E-.20025
;WIPE_END
G1 Z.6 F720
G1 X89.797 Y103.85 F10800
G1 Z.2 F720
G1 E.8 F2100
M204 S800
;TYPE:External perimeter
G1 F1200
G1 X89.855 Y103.969 E.00415
G1 X89.907 Y104.443 E.01495
G1 X89.784 Y104.928 E.01569
G1 X89.498 Y105.336 E.01562
G1 X89.099 Y105.597 E.01495
;WIDTH:0.444388
G1 X88.641 Y105.69 E.0156
G1 X88.316 Y105.633 E.01101
;WIDTH:0.442307
G1 X87.825 Y105.436 E.01757
;WIDTH:0.440073
G1 X87.57 Y105.306 E.00945
;WIDTH:0.421325
G1 X87.359 Y105.1 E.00928
;WIDTH:0.419999
G1 X87.143 Y104.668 E.01514
G1 X87.115 Y104.171 E.01561
G1 X87.294 Y103.701 E.01577
;WIDTH:0.425996
G1 X87.631 Y103.354 E.01541
;WIDTH:0.435542
G1 X87.9 Y103.219 E.00983
G1 X88.526 Y103.031 E.02134
;WIDTH:0.425774
G1 X89.02 Y103.08 E.0158
;WIDTH:0.419999
G1 X89.441 Y103.31 E.01504
G1 X89.639 Y103.53 E.00928
G1 X89.77 Y103.797 E.00932
M204 S1000
;WIPE_START
G1 F8640
G1 X89.797 Y103.85 E-.01373
G1 X89.855 Y103.969 E-.03057
G1 X89.907 Y104.443 E-.1101
G1 X89.784 Y104.928 E-.11553
G1 X89.498 Y105.336 E-.11505
G1 X89.099 Y105.597 E-.11009
G1 X88.641 Y105.69 E-.10791
G1 X88.316 Y105.633 E-.07619
G1 X87.83 Y105.438 E-.12083
;WIPE_END
G1 Z.6 F720
G1 X97.808 Y113.516 F10800
G1 Z.2 F720
G1 E.8 F2100
M204 S800
;WIDTH:0.409826
G1 F1200
G1 X97.311 Y113.527 E.01517
M204 S1000
;WIPE_START
G1 F8640
G1 X97.808 Y113.516 E-.11479
;WIPE_END
G1 E-.68521 F2100
G1 Z.6 F720
G1 X98.076 Y95.199 F10800
G1 Z.2 F720
G1 E.8 F2100
M204 S800
;WIDTH:0.419999
G1 F1200
G1 X98.292 Y95.169 E.00684
G1 X98.789 Y95.011 E.01635
G1 X99.059 Y94.808 E.01059
G1 X99.222 Y94.59 E.00853
G1 X99.351 Y94.249 E.01143
G1 X99.545 Y92.968 E.04062
G1 X99.638 Y92.613 E.01151
G1 X99.894 Y92.068 E.01888
G1 X100.324 Y91.467 E.02317
G1 X100.737 Y91.012 E.01927
G1 X101.524 Y90.329 E.03267
G1 X102.491 Y90.644 E.03189
G1 X102.644 Y91.226 E.01887
G1 X102.758 Y91.904 E.02156
G1 X102.799 Y92.479 E.01807
G1 X102.763 Y93.199 E.0226
G1 X102.626 Y93.772 E.01847
G1 X101.93 Y95.095 E.04687
G1 X101.806 Y95.501 E.01331
G1 X101.794 Y95.893 E.0123
G1 X101.879 Y96.213 E.01038
G1 X102.076 Y96.55 E.01224
G1 X102.333 Y96.798 E.0112
G1 X103.191 Y97.422 E.03326
G1 X103.576 Y97.613 E.01348
G1 X103.848 Y97.67 E.00871
G1 X104.234 Y97.652 E.01212
G1 X104.553 Y97.549 E.01051
