; generated by PrusaSlicer 2.7.4+win64 on 2024-07-02 at 16:47:28 UTC


;
;
; 

; external perimeters extrusion width = 0.45mm
; perimeters extrusion width = 0.45mm
; infill extrusion width = 0.45mm
; solid infill extrusion width = 0.45mm
; top infill extrusion width = 0.40mm
; first layer extrusion width = 0.42mm

M73 P0 R9
M73 Q0 S9
M201 X1000 Y1000 Z200 E5000 ; sets maximum accelerations, mm/sec^2
M203 X200 Y200 Z12 E120 ; sets maximum feedrates, mm / sec
M204 S1250 T1250 ; sets acceleration (S) and retract acceleration (R), mm/sec^2
M205 X8.00 Y8.00 Z0.40 E4.50 ; sets the jerk limits, mm/sec
M205 S0 T0 ; sets the minimum extruding and travel feed rate, mm/sec

; printing object machinePince-supportPincefixationVisFinale.stl id:0 copy 0
; stop printing object machinePince-supportPincefixationVisFinale.stl id:0 copy 0

;TYPE:Custom
M862.3 P "MK3S" ; printer model check
M862.1 P0.4 ; nozzle diameter check
M115 U3.12.1 ; tell printer latest fw version
G90 ; use absolute coordinates
M83 ; extruder relative mode
M104 S215 ; set extruder temp
M140 S60 ; set bed temp
M190 S60 ; wait for bed temp
M109 S215 ; wait for extruder temp
G28 W ; home all without mesh bed level
G80 ; mesh bed leveling

G1 Z0.2 F720
G1 Y-3 F1000 ; go outside print area
G92 E0
G1 X60 E9 F1000 ; intro line
G1 X100 E12.5 F1000 ; intro line

G92 E0
M221 S95

; Don't change E values below. Excessive value can damage the printer.
M907 E430 ; set extruder motor current
G21 ; set units to millimeters
G90 ; use absolute coordinates
M83 ; use relative distances for extrusion
M900 K0.05 ; Filament gcode LA 1.5
M900 K30 ; Filament gcode LA 1.0
M107
;LAYER_CHANGE
;Z:0.2
;HEIGHT:0.2
G1 E-.8 F2100
M73 P1 R9
M73 Q1 S9
G1 Z.6 F720
G1 X115.702 Y96.286 F10800
G1 Z.2 F720
G1 E.8 F2100
M204 S800
;TYPE:Skirt/Brim
;WIDTH:0.42
G1 F1200
G1 X116.586 Y95.429 E.0386
G1 X118.109 Y94.279 E.05984
G1 X119.479 Y93.512 E.04923
G1 X120.932 Y92.919 E.04921
G1 X122.116 Y92.582 E.0386
G1 X123.664 Y92.321 E.04922
G1 X125.572 Y92.262 E.05985
G1 X127.133 Y92.428 E.04922
G1 X128.335 Y92.691 E.03858
G1 X130.135 Y93.326 E.05985
G1 X131.237 Y93.874 E.03859
G1 X132.557 Y94.724 E.04923
G1 X133.763 Y95.729 E.04922
G1 X134.836 Y96.875 E.04922
G1 X135.938 Y98.433 E.05983
G1 X136.521 Y99.517 E.03859
G1 X137.107 Y100.974 E.04924
G1 X137.572 Y102.824 E.05981
G1 X137.745 Y104.384 E.04921
G1 X137.724 Y105.954 E.04923
G1 X137.572 Y107.176 E.03861
G1 X137.21 Y108.703 E.04921
G1 X136.521 Y110.483 E.05985
G1 X135.938 Y111.567 E.03859
G1 X135.048 Y112.861 E.04924
G1 X133.763 Y114.271 E.05981
G1 X132.828 Y115.072 E.0386
G1 X131.531 Y115.956 E.04921
G1 X129.823 Y116.807 E.05983
G1 X128.335 Y117.309 E.04924
G1 X127.133 Y117.572 E.03858
G1 X125.572 Y117.738 E.04922
G1 X124.002 Y117.71 E.04923
G1 X122.116 Y117.418 E.05984
G1 X120.932 Y117.081 E.0386
G1 X119.479 Y116.488 E.04921
G1 X117.826 Y115.534 E.05984
G1 X116.586 Y114.571 E.04923
G1 X115.702 Y113.714 E.0386
G1 X114.506 Y112.228 E.05981
G1 X113.697 Y110.882 E.04924
G1 X113.06 Y109.447 E.04923
G1 X112.604 Y107.945 E.04922
G1 X112.378 Y106.735 E.03859
G1 X112.261 Y104.83 E.05984
G1 X112.378 Y103.265 E.04921
G1 X112.604 Y102.055 E.03859
G1 X113.06 Y100.553 E.04922
G1 X113.594 Y99.342 E.0415
G1 X114.702 Y97.496 E.06751
G1 X115.664 Y96.332 E.04735
M73 Q2 S9
M204 S1000
G1 X115.664 Y96.332 F10800
G1 X115.953 Y96.57
M204 S800
G1 F1200
G1 X115.965 Y96.557 E.00055
G1 X116.849 Y95.699 E.03863
G1 X118.297 Y94.605 E.0569
G1 X119.626 Y93.859 E.04779
G1 X121.035 Y93.282 E.04774
M73 P2 R9
G1 X122.22 Y92.945 E.03863
G1 X123.722 Y92.694 E.04775
G1 X125.537 Y92.638 E.05694
G1 X127.052 Y92.796 E.04776
G1 X128.255 Y93.06 E.03862
G1 X129.967 Y93.663 E.05691
G1 X131.069 Y94.212 E.0386
G1 X132.349 Y95.038 E.04776
G1 X133.517 Y96.016 E.04776
G1 X134.557 Y97.129 E.04776
G1 X135.606 Y98.611 E.05693
G1 X136.188 Y99.696 E.0386
G1 X136.755 Y101.11 E.04777
G1 X137.198 Y102.87 E.0569
G1 X137.368 Y104.384 E.04777
G1 X137.35 Y105.908 E.04779
G1 X137.198 Y107.13 E.03861
G1 X136.844 Y108.611 E.04774
G1 X136.188 Y110.304 E.05693
G1 X135.606 Y111.389 E.0386
G1 X134.74 Y112.643 E.04778
G1 X133.517 Y113.984 E.05691
G1 X132.582 Y114.785 E.0386
G1 X131.323 Y115.642 E.04775
G1 X129.697 Y116.451 E.05694
G1 X128.255 Y116.94 E.04774
G1 X127.052 Y117.204 E.03862
G1 X125.537 Y117.362 E.04776
G1 X124.014 Y117.333 E.04776
G1 X122.22 Y117.055 E.05692
G1 X120.759 Y116.621 E.04779
G1 X119.626 Y116.141 E.03858
G1 X117.988 Y115.184 E.05948
G1 X116.849 Y114.301 E.04519
G1 X115.767 Y113.227 E.0478
G1 X114.996 Y112.268 E.03858
G1 X114.178 Y110.982 E.04779
G1 X113.42 Y109.333 E.0569
G1 X112.975 Y107.876 E.04777
G1 X112.749 Y106.666 E.03859
G1 X112.637 Y104.854 E.05692
G1 X112.749 Y103.334 E.04779
G1 X112.975 Y102.124 E.03859
G1 X113.42 Y100.667 E.04777
G1 X113.937 Y99.499 E.04005
G1 X114.996 Y97.732 E.06459
G1 X115.915 Y96.617 E.0453
M204 S1000
;WIPE_START
G1 F8640
G1 X115.953 Y96.57 E-.01396
G1 X115.965 Y96.557 E-.00409
G1 X116.849 Y95.699 E-.28445
G1 X118.297 Y94.605 E-.41904
G1 X118.593 Y94.439 E-.07846
;WIPE_END
G1 Z.6 F720
; printing object machinePince-supportPincefixationVisFinale.stl id:0 copy 0
G1 X132.186 Y99.225 F10800
G1 Z.2 F720
G1 E.8 F2100
M204 S800
;TYPE:Perimeter
;WIDTH:0.419999
G1 F1200
G1 X132.873 Y100.211 E.03768
G1 X133.378 Y101.15 E.03343
G1 X133.787 Y102.208 E.03557
G1 X133.93 Y102.775 E.01833
G1 X134.079 Y103.428 E.021
G1 X134.203 Y104.554 E.03552
G1 X134.203 Y105.567 E.03176
G1 X134.064 Y106.693 E.03557
G1 X133.787 Y107.792 E.03554
G1 X133.378 Y108.85 E.03557
G1 X132.841 Y109.849 E.03556
G1 X132.186 Y110.775 E.03556
G1 X131.422 Y111.613 E.03556
G1 X130.561 Y112.351 E.03556
G1 X129.672 Y112.94 E.03344
G1 X128.598 Y113.484 E.03775
G1 X127.53 Y113.86 E.0355
G1 X126.422 Y114.102 E.03556
G1 X125.293 Y114.207 E.03555
G1 X124.16 Y114.172 E.03554
G1 X123.039 Y113.998 E.03557
G1 X121.948 Y113.688 E.03556
G1 X120.904 Y113.246 E.03555
G1 X119.921 Y112.679 E.03558
M73 Q3 S9
G1 X119.016 Y111.995 E.03557
G1 X118.202 Y111.206 E.03554
G1 X117.491 Y110.322 E.03557
G1 X116.894 Y109.358 E.03555
G1 X116.42 Y108.328 E.03555
G1 X116.077 Y107.249 E.0355
M73 P3 R9
G1 X115.864 Y106.064 E.03775
G1 X115.798 Y105 E.03343
G1 X115.868 Y103.868 E.03556
G1 X116.076 Y102.753 E.03556
G1 X116.42 Y101.672 E.03557
G1 X116.894 Y100.642 E.03555
G1 X117.491 Y99.678 E.03555
G1 X118.202 Y98.794 E.03557
G1 X119.016 Y98.005 E.03554
G1 X119.921 Y97.321 E.03557
G1 X120.904 Y96.754 E.03558
G1 X121.948 Y96.312 E.03555
G1 X123.039 Y96.002 E.03556
G1 X124.16 Y95.828 E.03557
G1 X125.293 Y95.793 E.03554
G1 X126.422 Y95.898 E.03555
G1 X127.53 Y96.14 E.03556
G1 X128.6 Y96.517 E.03557
G1 X129.615 Y97.023 E.03556
G1 X130.561 Y97.649 E.03557
G1 X131.37 Y98.343 E.03342
G1 X132.145 Y99.181 E.03579
M204 S1000
G1 X132.145 Y99.181 F10800
G1 X132.48 Y98.988
M204 S800
;TYPE:External perimeter
G1 F1200
G1 X133.195 Y100.013 E.03918
G1 X133.721 Y100.992 E.03485
G1 X134.147 Y102.093 E.03701
G1 X134.296 Y102.683 E.01908
G1 X134.453 Y103.382 E.02246
G1 X134.581 Y104.554 E.03697
G1 X134.581 Y105.59 E.03248
G1 X134.435 Y106.762 E.03703
G1 X134.147 Y107.907 E.03702
G1 X133.721 Y109.008 E.03701
G1 X133.162 Y110.048 E.03702
G1 X132.48 Y111.012 E.03702
G1 X131.685 Y111.884 E.037
G1 X130.788 Y112.652 E.03703
G1 X129.862 Y113.266 E.03484
G1 X128.747 Y113.831 E.03919
G1 X127.634 Y114.223 E.037
G1 X126.48 Y114.476 E.03704
G1 X125.305 Y114.585 E.037
G1 X124.125 Y114.548 E.03702
G1 X122.958 Y114.367 E.03703
G1 X121.822 Y114.044 E.03703
G1 X120.735 Y113.584 E.03701
G1 X119.713 Y112.994 E.037
G1 X118.771 Y112.282 E.03702
G1 X117.923 Y111.46 E.03703
G1 X117.183 Y110.54 E.03702
G1 X116.561 Y109.537 E.037
G1 X116.068 Y108.464 E.03702
G1 X115.71 Y107.34 E.03699
G1 X115.489 Y106.109 E.03921
G1 X115.42 Y105 E.03484
G1 X115.493 Y103.822 E.03701
G1 X115.71 Y102.661 E.03703
G1 X116.068 Y101.536 E.03702
G1 X116.561 Y100.463 E.03702
G1 X117.183 Y99.46 E.037
G1 X117.923 Y98.54 E.03702
G1 X118.771 Y97.718 E.03703
G1 X119.713 Y97.006 E.03702
G1 X120.735 Y96.416 E.037
G1 X121.822 Y95.956 E.03701
G1 X122.958 Y95.633 E.03703
G1 X124.125 Y95.452 E.03703
G1 X125.305 Y95.415 E.03702
G1 X126.48 Y95.524 E.037
G1 X127.634 Y95.777 E.03704
G1 X128.747 Y96.169 E.037
G1 X129.804 Y96.695 E.03702
G1 X130.788 Y97.348 E.03703
G1 X131.632 Y98.071 E.03485
G1 X132.439 Y98.944 E.03728
M204 S1000
;WIPE_START
G1 F8640
G1 X132.48 Y98.988 E-.01389
G1 X133.195 Y100.013 E-.28857
G1 X133.721 Y100.992 E-.25662
G1 X134.098 Y101.965 E-.24092
;WIPE_END
G1 Z.6 F720
G1 X129.832 Y105.759 F10800
G1 Z.2 F720
G1 E.8 F2100
M204 S800
;TYPE:Perimeter
G1 F1200
G1 X130.071 Y105.99 E.01042
G1 X130.122 Y106.248 E.00825
G1 X129.745 Y107.338 E.03616
G1 X129.029 Y108.43 E.04094
G1 X128.092 Y109.292 E.03992
G1 X126.976 Y109.905 E.03992
G1 X125.745 Y110.233 E.03994
G1 X124.472 Y110.257 E.03992
G1 X123.232 Y109.976 E.03987
G1 X122.121 Y109.423 E.03891
G1 X121.627 Y109.025 E.01989
G1 X121.077 Y108.529 E.02322
G1 X120.371 Y107.531 E.03833
M73 Q4 S9
G1 X119.913 Y106.388 E.03861
G1 X119.723 Y105.017 E.0434
G1 X119.858 Y103.825 E.03761
G1 X120.11 Y103.107 E.02386
G1 X120.322 Y102.565 E.01825
G1 X121.016 Y101.539 E.03884
M73 P4 R9
G1 X121.105 Y101.439 E.0042
G1 X121.931 Y100.706 E.03463
G1 X122.715 Y100.27 E.02813
G1 X123.146 Y100.058 E.01506
G1 X124.222 Y99.781 E.03484
G1 X124.516 Y99.744 E.00929
G1 X125.551 Y99.744 E.03245
G1 X126.517 Y99.965 E.03107
G1 X126.969 Y100.093 E.01473
G1 X127.952 Y100.61 E.03482
G1 X128.696 Y101.245 E.03067
G1 X129.03 Y101.584 E.01492
G1 X129.663 Y102.499 E.03489
G1 X130.062 Y103.504 E.0339
G1 X130.169 Y103.909 E.01313
G1 X130.321 Y105.153 E.03929
G1 X130.28 Y105.442 E.00915
G1 X130.142 Y105.638 E.00752
G1 X129.888 Y105.737 E.00855
M204 S1000
;WIPE_START
G1 F8640
G1 X129.832 Y105.759 E-.01389
G1 X130.071 Y105.99 E-.07675
G1 X130.122 Y106.248 E-.06073
G1 X129.745 Y107.338 E-.26631
G1 X129.029 Y108.43 E-.30151
G1 X128.771 Y108.667 E-.08081
;WIPE_END
G1 Z.6 F720
G1 X128.868 Y105.41 F10800
G1 Z.2 F720
G1 E.8 F2100
M204 S800
;TYPE:External perimeter
G1 F1200
G1 X128.804 Y105.846 E.01382
G1 X129.602 Y106.043 E.02577
G1 X129.728 Y106.147 E.00512
G1 X129.733 Y106.292 E.00455
G1 X129.38 Y107.238 E.03166
G1 X128.718 Y108.218 E.03708
G1 X127.84 Y109.012 E.03712
G1 X126.798 Y109.572 E.03709
G1 X125.653 Y109.867 E.03707
G1 X124.47 Y109.88 E.03709
G1 X123.32 Y109.609 E.03705
G1 X122.294 Y109.087 E.03609
G1 X121.879 Y108.745 E.01686
G1 X121.329 Y108.249 E.02322
G1 X120.681 Y107.317 E.03559
G1 X120.265 Y106.252 E.03585
G1 X120.099 Y104.993 E.03982
G1 X120.232 Y103.87 E.03546
G1 X120.462 Y103.244 E.02091
G1 X120.673 Y102.702 E.01824
G1 X121.355 Y101.721 E.03746
G1 X122.181 Y100.988 E.03463
G1 X123.24 Y100.423 E.03763
G1 X124.316 Y100.146 E.03484
G1 X125.232 Y100.121 E.02873
G1 X125.596 Y100.127 E.01141
G1 X126.751 Y100.41 E.03729
G1 X127.824 Y100.979 E.03808
G1 X128.648 Y101.706 E.03445
G1 X129.262 Y102.581 E.03352
G1 X129.394 Y102.804 E.00813
G1 X129.77 Y103.798 E.03332
G1 X129.903 Y104.839 E.03291
G1 X129.933 Y105.295 E.01433
G1 X129.887 Y105.36 E.0025
G1 X129.679 Y105.41 E.00671
G1 X128.928 Y105.41 E.02355
M204 S1000
;WIPE_START
G1 F8640
G1 X128.868 Y105.41 E-.01385
G1 X128.804 Y105.846 E-.10175
G1 X129.602 Y106.043 E-.18979
G1 X129.728 Y106.147 E-.03772
G1 X129.733 Y106.292 E-.0335
G1 X129.38 Y107.238 E-.23315
G1 X128.919 Y107.921 E-.19024
;WIPE_END
G1 Z.6 F720
G1 X130.115 Y97.49 F10800
G1 Z.2 F720
G1 E.8 F2100
M204 S800
;TYPE:Solid infill
;WIDTH:0.42246
G1 F1200
G1 X131.191 Y98.565 E.048
G1 X131.965 Y99.403 E.036
G1 X132.632 Y100.359 E.03679
G1 X132.846 Y100.757 E.01426
G1 X129.241 Y97.152 E.16089
G1 X128.49 Y96.778 E.02648
G1 X128.243 Y96.691 E.00826
G1 X133.31 Y101.758 E.22615
G1 X133.517 Y102.293 E.0181
G1 X133.588 Y102.572 E.00909
G1 X127.421 Y96.406 E.27522
G1 X126.734 Y96.255 E.0222
G1 X133.768 Y103.289 E.31393
G1 X133.854 Y103.912 E.01985
G1 X126.093 Y96.151 E.34638
G1 X125.501 Y96.096 E.01876
M73 P5 R9
M73 Q5 S9
G1 X133.921 Y104.516 E.37579
G1 X133.921 Y105.052 E.01692
G1 X124.963 Y96.095 E.39978
G1 X124.437 Y96.105 E.0166
G1 X133.916 Y105.585 E.42308
G1 X133.857 Y106.062 E.01517
G1 X123.943 Y96.148 E.44247
G1 X123.478 Y96.22 E.01485
G1 X127.119 Y99.861 E.1625
G1 X126.99 Y99.793 E.0046
G1 X126.363 Y99.641 E.02036
G1 X123.022 Y96.301 E.14909
G1 X122.604 Y96.42 E.01372
G1 X125.654 Y99.47 E.13612
G1 X125.111 Y99.463 E.01714
G1 X122.186 Y96.538 E.13055
G1 X121.795 Y96.684 E.01317
M73 P5 R8
G1 X124.572 Y99.461 E.12394
G1 X124.096 Y99.521 E.01514
G1 X121.418 Y96.844 E.1195
G1 X121.041 Y97.003 E.01291
G1 X123.669 Y99.631 E.11729
G1 X123.242 Y99.742 E.01392
G1 X120.699 Y97.199 E.1135
G1 X120.359 Y97.395 E.01239
G1 X122.845 Y99.881 E.11095
G1 X122.497 Y100.07 E.0125
M73 Q5 S8
G1 X120.025 Y97.598 E.11033
G1 X119.719 Y97.829 E.0121
G1 X122.149 Y100.258 E.10843
G1 X121.801 Y100.447 E.0125
M73 Q6 S8
G1 X119.413 Y98.059 E.10658
G1 X119.118 Y98.301 E.01204
M73 P6 R8
G1 X121.516 Y100.699 E.10703
G1 X121.232 Y100.952 E.012
G1 X118.845 Y98.565 E.10653
G1 X118.573 Y98.829 E.01196
G1 X120.948 Y101.204 E.106
G1 X120.864 Y101.278 E.00353
G1 X120.708 Y101.501 E.00859
G1 X118.314 Y99.107 E.10685
G1 X118.074 Y99.404 E.01205
G1 X120.487 Y101.817 E.10769
G1 X120.266 Y102.132 E.01214
G1 X117.835 Y99.702 E.10848
G1 X117.614 Y100.017 E.01214
G1 X120.062 Y102.466 E.10928
G1 X119.91 Y102.85 E.01303
G1 X117.408 Y100.349 E.11164
G1 X117.203 Y100.68 E.01229
G1 X119.758 Y103.235 E.11403
G1 X119.619 Y103.632 E.01327
G1 X117.024 Y101.037 E.11582
G1 X116.854 Y101.405 E.01279
G1 X119.541 Y104.091 E.1199
G1 X119.483 Y104.57 E.01523
G1 X116.684 Y101.775 E.12483
G1 X116.556 Y102.18 E.0134
G1 X119.449 Y105.073 E.12912
G1 X119.519 Y105.679 E.01925
G1 X116.426 Y102.587 E.13802
G1 X116.351 Y102.822 E.00778
G1 X116.315 Y103.013 E.00613
G1 X119.604 Y106.301 E.14677
G1 X119.615 Y106.384 E.00264
G1 X119.908 Y107.142 E.02565
G1 X116.085 Y103.32 E.1706
M204 S1000
;WIPE_START
G1 F8640
G1 X118.535 Y105.77 E-.8
;WIPE_END
G1 Z.6 F720
G1 X129.826 Y102.568 F10800
G1 Z.2 F720
G1 E.8 F2100
M204 S800
G1 F1200
G1 X133.798 Y106.54 E.17727
G1 X133.7 Y106.979 E.0142
G1 X130.423 Y103.702 E.14626
G1 X130.5 Y104.316 E.01953
G1 X133.593 Y107.408 E.13802
G1 X133.472 Y107.824 E.01367
G1 X130.578 Y104.93 E.12916
G1 X130.602 Y105.124 E.00617
G1 X130.602 Y105.328 E.00644
G1 X130.564 Y105.453 E.00412
G1 X133.322 Y108.211 E.12309
G1 X133.172 Y108.598 E.0131
G1 X130.372 Y105.798 E.12497
G1 X130.325 Y105.86 E.00246
M73 Q7 S8
G1 X130.393 Y106.077 E.00718
G1 X130.405 Y106.259 E.00576
G1 X130.392 Y106.354 E.00303
G1 X132.998 Y108.96 E.11631
G1 X132.81 Y109.309 E.01251
M73 P7 R8
G1 X130.26 Y106.759 E.11381
G1 X130.115 Y107.151 E.01319
G1 X132.623 Y109.659 E.11193
G1 X132.6 Y109.7 E.00148
G1 X132.404 Y109.977 E.01071
G1 X129.964 Y107.537 E.1089
G1 X129.756 Y107.865 E.01226
G1 X132.182 Y110.291 E.10827
G1 X131.965 Y110.597 E.01184
G1 X129.536 Y108.183 E.10807
G1 X129.317 Y108.5 E.01216
G1 X131.702 Y110.885 E.10644
G1 X131.446 Y111.166 E.012
G1 X129.07 Y108.79 E.10604
G1 X128.786 Y109.043 E.012
G1 X131.186 Y111.443 E.10711
G1 X130.897 Y111.69 E.012
G1 X128.502 Y109.296 E.10687
G1 X128.218 Y109.548 E.01198
G1 X130.608 Y111.938 E.10667
G1 X130.311 Y112.177 E.01203
G1 X127.877 Y109.743 E.10863
G1 X127.527 Y109.931 E.01254
G1 X129.988 Y112.391 E.10981
G1 X129.665 Y112.605 E.01223
G1 X127.178 Y110.118 E.111
G1 X126.923 Y110.227 E.00875
G1 X126.784 Y110.261 E.00452
G1 X129.323 Y112.8 E.11332
G1 X128.966 Y112.98 E.01262
G1 X126.353 Y110.367 E.11662
G1 X125.922 Y110.472 E.014
G1 X128.61 Y113.16 E.11997
G1 X128.227 Y113.314 E.01303
G1 X125.443 Y110.53 E.12425
G1 X124.906 Y110.53 E.01695
G1 X127.83 Y113.454 E.1305
G1 X127.431 Y113.592 E.01332
G1 X124.37 Y110.531 E.13662
G1 X123.674 Y110.372 E.02253
G1 X126.991 Y113.688 E.14802
G1 X126.551 Y113.785 E.01422
G1 X122.522 Y109.756 E.17982
M204 S1000
;WIPE_START
G1 F8640
G1 X124.972 Y112.206 E-.8
;WIPE_END
G1 Z.6 F720
G1 X126.235 Y114.006 F10800
G1 Z.2 F720
G1 E.8 F2100
M204 S800
G1 F1200
G1 X116.148 Y103.919 E.45019
G1 X116.117 Y104.425 E.016
M73 P8 R8
M73 Q8 S8
G1 X125.588 Y113.896 E.4227
G1 X125.284 Y113.924 E.00963
