; generated by PrusaSlicer 2.7.4+win64 on 2024-06-21 at 08:37:03 UTC


;
;
; 

; external perimeters extrusion width = 0.45mm
; perimeters extrusion width = 0.45mm
; infill extrusion width = 0.45mm
; solid infill extrusion width = 0.45mm
; top infill extrusion width = 0.40mm
; support material extrusion width = 0.35mm
; first layer extrusion width = 0.42mm

M73 P0 R14
M73 Q0 S14
M201 X1000 Y1000 Z200 E5000 ; sets maximum accelerations, mm/sec^2
M203 X200 Y200 Z12 E120 ; sets maximum feedrates, mm / sec
M204 S1250 T1250 ; sets acceleration (S) and retract acceleration (R), mm/sec^2
M205 X8.00 Y8.00 Z0.40 E4.50 ; sets the jerk limits, mm/sec
M205 S0 T0 ; sets the minimum extruding and travel feed rate, mm/sec

; printing object machinePince-pinceBarre.stl id:0 copy 0
; stop printing object machinePince-pinceBarre.stl id:0 copy 0

;TYPE:Custom
M862.3 P "MK3S" ; printer model check
M862.1 P0.4 ; nozzle diameter check
M115 U3.12.1 ; tell printer latest fw version
G90 ; use absolute coordinates
M83 ; extruder relative mode
M104 S215 ; set extruder temp
M140 S60 ; set bed temp
M190 S60 ; wait for bed temp
M109 S215 ; wait for extruder temp
G28 W ; home all without mesh bed level
G80 ; mesh bed leveling

G1 Z0.2 F720
G1 Y-3 F1000 ; go outside print area
G92 E0
G1 X60 E9 F1000 ; intro line
G1 X100 E12.5 F1000 ; intro line
M73 P0 R13

G92 E0
M221 S95

; Don't change E values below. Excessive value can damage the printer.
M907 E430 ; set extruder motor current
G21 ; set units to millimeters
G90 ; use absolute coordinates
M83 ; use relative distances for extrusion
M900 K0.05 ; Filament gcode LA 1.5
M900 K30 ; Filament gcode LA 1.0
M107
;LAYER_CHANGE
;Z:0.2
;HEIGHT:0.2
G1 E-.8 F2100
G1 Z.6 F720
G1 X115.457 Y82.293 F10800
G1 Z.2 F720
M73 Q0 S13
G1 E.8 F2100
M204 S800
;TYPE:Skirt/Brim
;WIDTH:0.42
G1 F1200
G1 X116.503 Y81.416 E.0428
G1 X117.442 Y81.223 E.03006
G1 X132.558 Y81.223 E.47395
G1 X133.865 Y81.614 E.04277
G1 X134.741 Y82.66 E.04278
G1 X134.935 Y83.6 E.03009
G1 X134.935 Y126.4 E1.34196
M73 Q1 S13
G1 X134.543 Y127.707 E.04278
M73 P1 R13
G1 X133.497 Y128.584 E.0428
G1 X132.558 Y128.777 E.03006
G1 X117.442 Y128.777 E.47395
G1 X116.135 Y128.386 E.04277
G1 X115.259 Y127.34 E.04278
G1 X115.065 Y126.4 E.03009
G1 X115.065 Y83.6 E1.34196
G1 X115.44 Y82.35 E.04092
M204 S1000
;WIPE_START
G1 F8640
G1 X115.457 Y82.293 E-.01373
G1 X116.503 Y81.416 E-.31518
G1 X117.442 Y81.223 E-.22135
G1 X118.524 Y81.223 E-.24974
;WIPE_END
G1 Z.6 F720
; printing object machinePince-pinceBarre.stl id:0 copy 0
G1 X127.182 Y123.457 F10800
G1 Z.2 F720
G1 E.8 F2100
M204 S800
;TYPE:Support material interface
;WIDTH:0.35
G1 F1200
G1 X127.307 Y123.457 E.00319
G1 X127.307 Y86.543 E.94255
G1 X127.182 Y86.543 E.00319
M204 S1000
;WIPE_START
G1 F8640
G1 X127.307 Y86.543 E-.02886
G1 X127.307 Y89.883 E-.77114
;WIPE_END
G1 Z.6 F720
G1 X126.61 Y87.475 F10800
G1 Z.2 F720
M73 Q2 S13
G1 E.8 F2100
M204 S800
;TYPE:Support material
;WIDTH:0.42
G1 F1200
G1 X126.61 Y122.525 E1.09897
G1 X126.368 Y122.56 E.00767
M73 P2 R13
G1 X126.368 Y87.44 E1.10116
G1 X126.568 Y87.44 E.00627
M204 S1000
;WIPE_START
G1 F8640
G1 X126.368 Y87.44 E-.04618
G1 X126.368 Y90.705 E-.75382
;WIPE_END
G1 Z.6 F720
G1 X123.479 Y87.076 F10800
G1 Z.2 F720
G1 E.8 F2100
M204 S800
;TYPE:Support material interface
;WIDTH:0.35
G1 F1200
G1 X123.479 Y86.543 E.01361
G1 X123.986 Y86.543 E.01295
G1 X123.986 Y87.076 E.01361
G1 X124.493 Y87.076 E.01295
G1 X124.493 Y86.543 E.01361
G1 X125 Y86.543 E.01295
G1 X125 Y87.076 E.01361
G1 X125.507 Y87.076 E.01295
G1 X125.507 Y86.543 E.01361
G1 X126.014 Y86.543 E.01295
G1 X126.014 Y87.076 E.01361
G1 X126.521 Y87.076 E.01295
G1 X126.521 Y86.543 E.01361
G1 X127.028 Y86.543 E.01295
G1 X127.028 Y123.457 E.94255
G1 X126.521 Y123.457 E.01295
G1 X126.521 Y122.924 E.01361
G1 X126.014 Y122.924 E.01295
G1 X126.014 Y123.457 E.01361
G1 X125.507 Y123.457 E.01295
G1 X125.507 Y122.924 E.01361
G1 X125 Y122.924 E.01295
G1 X125 Y123.457 E.01361
G1 X124.493 Y123.457 E.01295
G1 X124.493 Y122.924 E.01361
G1 X123.986 Y122.924 E.01295
G1 X123.986 Y123.457 E.01361
G1 X123.479 Y123.457 E.01295
G1 X123.479 Y122.924 E.01361
M204 S1000
G1 X123.479 Y122.924 F10800
G1 X123.632 Y122.56
M204 S800
;TYPE:Support material
;WIDTH:0.42
G1 F1200
G1 X123.39 Y122.525 E.00767
G1 X123.425 Y87.44 E1.10007
G1 X123.632 Y87.44 E.00649
M73 P3 R13
M73 Q3 S13
G1 X123.632 Y122.503 E1.09938
M204 S1000
;WIPE_START
G1 F8640
G1 X123.632 Y119.038 E-.8
;WIPE_END
G1 Z.6 F720
G1 X132.558 Y126.4 F10800
G1 Z.2 F720
G1 E.8 F2100
M204 S800
G1 F1200
G1 X117.442 Y126.4 E.47395
G1 X117.442 Y83.6 E1.34196
G1 X132.558 Y83.6 E.47395
G1 X132.558 Y126.344 E1.34021
M204 S1000
G1 X132.558 Y126.344 F10800
G1 X122.329 Y123.82
M204 S800
G1 F1200
M73 Q4 S13
G1 X122.329 Y86.18 E1.18018
G1 X127.671 Y86.18 E.16749
M73 P4 R13
G1 X127.671 Y123.82 E1.18018
G1 X122.386 Y123.82 E.16571
M204 S1000
G1 X122.386 Y123.82 F10800
G1 X132.123 Y126.23
M204 S800
G1 F1200
G1 X132.123 Y83.939 E1.326
G1 X131.704 Y83.939 E.01314
G1 X131.704 Y126.061 E1.32071
G1 X131.285 Y126.061 E.01314
M73 P5 R13
M73 Q5 S13
G1 X131.285 Y83.939 E1.32071
G1 X130.866 Y83.939 E.01314
G1 X130.866 Y126.061 E1.32071
G1 X130.447 Y126.061 E.01314
G1 X130.447 Y83.939 E1.32071
G1 X130.028 Y83.939 E.01314
G1 X130.028 Y126.061 E1.32071
G1 X129.609 Y126.061 E.01314
M73 P6 R13
M73 Q6 S13
G1 X129.609 Y83.939 E1.32071
G1 X129.19 Y83.939 E.01314
G1 X129.19 Y126.061 E1.32071
G1 X128.771 Y126.061 E.01314
G1 X128.771 Y83.939 E1.32071
G1 X128.352 Y83.939 E.01314
G1 X128.352 Y126.061 E1.32071
G1 X127.933 Y126.061 E.01314
M73 P7 R13
M73 Q7 S13
G1 X127.933 Y83.939 E1.32071
G1 X127.514 Y83.939 E.01314
G1 X127.514 Y85.84 E.0596
G1 X127.095 Y85.84 E.01314
M73 P7 R12
G1 X127.095 Y83.939 E.0596
G1 X126.676 Y83.939 E.01314
G1 X126.676 Y85.84 E.0596
G1 X126.257 Y85.84 E.01314
G1 X126.257 Y83.939 E.0596
G1 X125.838 Y83.939 E.01314
G1 X125.838 Y85.84 E.0596
G1 X125.419 Y85.84 E.01314
G1 X125.419 Y83.939 E.0596
G1 X125 Y83.939 E.01314
G1 X125 Y85.84 E.0596
G1 X124.581 Y85.84 E.01314
G1 X124.581 Y83.939 E.0596
G1 X124.162 Y83.939 E.01314
G1 X124.162 Y85.84 E.0596
G1 X123.743 Y85.84 E.01314
G1 X123.743 Y83.939 E.0596
G1 X123.324 Y83.939 E.01314
G1 X123.324 Y85.84 E.0596
G1 X122.905 Y85.84 E.01314
G1 X122.905 Y83.939 E.0596
G1 X122.486 Y83.939 E.01314
G1 X122.486 Y86.01 E.06493
M204 S1000
;WIPE_START
G1 F8640
G1 X122.486 Y83.939 E-.4782
G1 X122.905 Y83.939 E-.09675
G1 X122.905 Y84.914 E-.22505
;WIPE_END
G1 Z.6 F720
G1 X127.514 Y126.23 F10800
G1 Z.2 F720
G1 E.8 F2100
M204 S800
G1 F1200
G1 X127.514 Y124.16 E.0649
G1 X127.095 Y124.16 E.01314
G1 X127.095 Y126.061 E.0596
G1 X126.676 Y126.061 E.01314
G1 X126.676 Y124.16 E.0596
G1 X126.257 Y124.16 E.01314
G1 X126.257 Y126.061 E.0596
G1 X125.838 Y126.061 E.01314
G1 X125.838 Y124.16 E.0596
G1 X125.419 Y124.16 E.01314
G1 X125.419 Y126.061 E.0596
G1 X125 Y126.061 E.01314
G1 X125 Y124.16 E.0596
G1 X124.581 Y124.16 E.01314
G1 X124.581 Y126.061 E.0596
G1 X124.162 Y126.061 E.01314
G1 X124.162 Y124.16 E.0596
G1 X123.743 Y124.16 E.01314
G1 X123.743 Y126.061 E.0596
G1 X123.324 Y126.061 E.01314
G1 X123.324 Y124.16 E.0596
G1 X122.905 Y124.16 E.01314
G1 X122.905 Y126.061 E.0596
G1 X122.486 Y126.061 E.01314
G1 X122.486 Y123.99 E.06493
M204 S1000
G1 X122.486 Y123.99 F10800
G1 X122.067 Y126.23
M204 S800
G1 F1200
G1 X122.067 Y83.939 E1.326
G1 X121.648 Y83.939 E.01314
M73 P8 R12
M73 Q8 S12
G1 X121.648 Y126.061 E1.32071
G1 X121.229 Y126.061 E.01314
G1 X121.229 Y83.939 E1.32071
G1 X120.81 Y83.939 E.01314
G1 X120.81 Y126.061 E1.32071
G1 X120.391 Y126.061 E.01314
G1 X120.391 Y83.939 E1.32071
G1 X119.972 Y83.939 E.01314
M73 P9 R12
M73 Q9 S12
G1 X119.972 Y126.061 E1.32071
G1 X119.553 Y126.061 E.01314
G1 X119.553 Y83.939 E1.32071
G1 X119.134 Y83.939 E.01314
G1 X119.134 Y126.061 E1.32071
G1 X118.715 Y126.061 E.01314
G1 X118.715 Y83.939 E1.32071
G1 X118.296 Y83.939 E.01314
M73 P10 R12
M73 Q10 S12
G1 X118.296 Y126.061 E1.32071
G1 X117.877 Y126.061 E.01314
G1 X117.877 Y83.77 E1.326
M204 S1000
;WIPE_START
G1 F8640
G1 X117.877 Y87.235 E-.8
;WIPE_END
G1 Z.6 F720
G1 X122.818 Y86.543 F10800
G1 Z.2 F720
G1 E.8 F2100
M204 S800
;TYPE:Support material interface
;WIDTH:0.35
G1 F1200
G1 X122.693 Y86.543 E.00319
G1 X122.693 Y123.457 E.94255
G1 X122.972 Y123.457 E.00712
G1 X122.972 Y86.543 E.94255
G1 X123.325 Y86.543 E.00901
M73 P11 R12
M73 Q11 S12
M204 S1000
;WIPE_START
G1 F8640
G1 X122.972 Y86.543 E-.08151
G1 X122.972 Y89.655 E-.71849
;WIPE_END
G1 Z.6 F720
G1 X125.478 Y122.09 F10800
G1 Z.2 F720
G1 E.8 F2100
M204 S800
;TYPE:External perimeter
;WIDTH:0.419999
G1 F1200
G1 X124.522 Y122.09 E.02997
G1 X124.522 Y87.91 E1.07169
G1 X125.478 Y87.91 E.02997
G1 X125.478 Y88.388 E.01499
G1 X125.478 Y122.03 E1.05482
M204 S1000
G1 X125.478 Y122.03 F10800
G1 X125 Y121.612
M204 S800
;TYPE:Perimeter
;WIDTH:0.621566
G1 F1200
G1 X125 Y88.388 E1.59856
M204 S1000
M106 S84.15
;LAYER_CHANGE
;Z:0.4
;HEIGHT:0.2
;BEFORE_LAYER_CHANGE
G92 E0.0
;0.4


;WIPE_START
G1 F8640
G1 X125 Y91.853 E-.8
;WIPE_END
G1 Z.4 F720
;AFTER_LAYER_CHANGE
;0.4
M104 S210 ; set temperature
; stop printing object machinePince-pinceBarre.stl id:0 copy 0
G1 Z.8
G1 X115.065 Y91.853 F10800
G1 Z.4 F720
G1 E.8 F2100
;TYPE:Skirt/Brim
;WIDTH:0.42
G1 F2811
G1 X115.065 Y83.6 E.25877
G1 X115.457 Y82.293 E.04278
G1 X116.503 Y81.416 E.0428
G1 X117.442 Y81.223 E.03006
G1 X132.558 Y81.223 E.47395
G1 X133.865 Y81.614 E.04277
G1 X134.741 Y82.66 E.04278
G1 X134.935 Y83.6 E.03009
M73 Q12 S12
G1 X134.935 Y126.4 E1.34196
M73 P12 R12
G1 X134.543 Y127.707 E.04278
G1 X133.497 Y128.584 E.0428
G1 X132.558 Y128.777 E.03006
G1 X117.442 Y128.777 E.47395
G1 X116.135 Y128.386 E.04277
G1 X115.259 Y127.34 E.04278
G1 X115.065 Y126.4 E.03009
G1 X115.065 Y91.913 E1.08132
;WIPE_START
G1 F8640
G1 X115.065 Y91.853 E-.01385
G1 X115.065 Y88.448 E-.78615
;WIPE_END
G1 Z.8 F720
; printing object machinePince-pinceBarre.stl id:0 copy 0
G1 X127.182 Y123.457 F10800
G1 Z.4 F720
G1 E.8 F2100
;TYPE:Support material interface
;WIDTH:0.35
G1 F2400
G1 X127.307 Y123.457 E.00319
G1 X127.307 Y122.723 E.01874
G1 X127.028 Y122.924 E.00878
G1 X127.028 Y123.457 E.01361
G1 X126.521 Y123.457 E.01295
G1 X126.521 Y122.924 E.01361
G1 X126.014 Y122.924 E.01295
G1 X126.014 Y123.457 E.01361
G1 X125.507 Y123.457 E.01295
G1 X125.507 Y122.924 E.01361
G1 X125 Y122.924 E.01295
G1 X125 Y123.457 E.01361
G1 X124.493 Y123.457 E.01295
G1 X124.493 Y122.924 E.01361
G1 X123.986 Y122.924 E.01295
G1 X123.986 Y123.457 E.01361
G1 X123.479 Y123.457 E.01295
G1 X123.479 Y122.924 E.01361
G1 X122.972 Y122.924 E.01295
G1 X122.972 Y123.457 E.01361
G1 X122.693 Y123.457 E.00712
G1 X122.693 Y122.723 E.01874
G1 X122.84 Y122.87 E.00531
G1 X122.84 Y122.87 F10800
G1 X122.386 Y123.457
;TYPE:Support material
G1 F2811
G1 X120.386 Y123.457 E.05107
G1 X120.386 Y121.15 E.05891
G1 X122.386 Y121.15 E.05107
G1 X122.386 Y118.842 E.05893
G1 X120.386 Y118.842 E.05107
G1 X120.386 Y116.535 E.05891
G1 X122.386 Y116.535 E.05107
G1 X122.386 Y114.228 E.05891
G1 X120.386 Y114.228 E.05107
G1 X120.386 Y111.921 E.05891
G1 X122.386 Y111.921 E.05107
G1 X122.386 Y109.614 E.05891
G1 X120.386 Y109.614 E.05107
G1 X120.386 Y107.307 E.05891
G1 X122.386 Y107.307 E.05107
G1 X122.386 Y105 E.05891
G1 X120.386 Y105 E.05107
G1 X120.386 Y102.693 E.05891
G1 X122.386 Y102.693 E.05107
G1 X122.386 Y100.386 E.05891
G1 X120.386 Y100.386 E.05107
G1 X120.386 Y98.079 E.05891
G1 X122.386 Y98.079 E.05107
G1 X122.386 Y95.772 E.05891
G1 X120.386 Y95.772 E.05107
G1 X120.386 Y93.465 E.05891
G1 X122.386 Y93.465 E.05107
G1 X122.386 Y91.158 E.05891
G1 X120.386 Y91.158 E.05107
G1 X120.386 Y88.85 E.05893
G1 X122.386 Y88.85 E.05107
G1 X122.386 Y86.543 E.05891
G1 X120.386 Y86.543 E.05107
;WIPE_START
G1 F8640
G1 X122.386 Y86.543 E-.46181
G1 X122.386 Y88.008 E-.33819
;WIPE_END
G1 Z.8 F720
G1 X122.818 Y86.543 F10800
G1 Z.4 F720
G1 E.8 F2100
;TYPE:Support material interface
G1 F2400
G1 X122.693 Y86.543 E.00319
G1 X122.693 Y87.277 E.01874
G1 X122.972 Y87.076 E.00878
G1 X122.972 Y86.543 E.01361
G1 X123.479 Y86.543 E.01295
G1 X123.479 Y87.076 E.01361
G1 X123.986 Y87.076 E.01295
G1 X123.986 Y86.543 E.01361
G1 X124.493 Y86.543 E.01295
G1 X124.493 Y87.076 E.01361
G1 X125 Y87.076 E.01295
G1 X125 Y86.543 E.01361
G1 X125.507 Y86.543 E.01295
G1 X125.507 Y87.076 E.01361
G1 X126.014 Y87.076 E.01295
G1 X126.014 Y86.543 E.01361
G1 X126.521 Y86.543 E.01295
G1 X126.521 Y87.076 E.01361
G1 X127.028 Y87.076 E.01295
G1 X127.028 Y86.543 E.01361
G1 X127.307 Y86.543 E.00712
G1 X127.307 Y87.277 E.01874
G1 X127.16 Y87.13 E.00531
G1 X127.16 Y87.13 F10800
G1 X127.614 Y86.543
;TYPE:Support material
G1 F2811
G1 X129.614 Y86.543 E.05107
G1 X129.614 Y88.85 E.05891
G1 X127.614 Y88.85 E.05107
G1 X127.614 Y91.158 E.05893
G1 X129.614 Y91.158 E.05107
G1 X129.614 Y93.465 E.05891
G1 X127.614 Y93.465 E.05107
G1 X127.614 Y95.772 E.05891
G1 X129.614 Y95.772 E.05107
G1 X129.614 Y98.079 E.05891
G1 X127.614 Y98.079 E.05107
G1 X127.614 Y100.386 E.05891
G1 X129.614 Y100.386 E.05107
M73 Q13 S12
G1 X129.614 Y102.693 E.05891
G1 X127.614 Y102.693 E.05107
M73 P13 R12
G1 X127.614 Y105 E.05891
G1 X129.614 Y105 E.05107
G1 X129.614 Y107.307 E.05891
G1 X127.614 Y107.307 E.05107
G1 X127.614 Y109.614 E.05891
G1 X129.614 Y109.614 E.05107
G1 X129.614 Y111.921 E.05891
G1 X127.614 Y111.921 E.05107
G1 X127.614 Y114.228 E.05891
G1 X129.614 Y114.228 E.05107
G1 X129.614 Y116.535 E.05891
G1 X127.614 Y116.535 E.05107
G1 X127.614 Y118.842 E.05891
G1 X129.614 Y118.842 E.05107
G1 X129.614 Y121.15 E.05893
G1 X127.614 Y121.15 E.05107
G1 X127.614 Y123.457 E.05891
G1 X129.614 Y123.457 E.05107
;WIPE_START
G1 F8640
G1 X127.614 Y123.457 E-.46181
G1 X127.614 Y121.992 E-.33819
;WIPE_END
G1 Z.8 F720
G1 X125.918 Y121.868 F10800
G1 Z.4 F720
G1 E.8 F2100
M204 S800
;TYPE:Perimeter
;WIDTH:0.449999
G1 F2700
G1 X124.082 Y121.868 E.06215
G1 X124.082 Y88.132 E1.14192
G1 X125.918 Y88.132 E.06215
G1 X125.918 Y89.05 E.03107
G1 X125.918 Y121.808 E1.10882
M204 S1000
G1 X125.918 Y121.808 F10800
G1 X126.088 Y122.275
M204 S800
;TYPE:External perimeter
G1 F1500
G1 X123.912 Y122.275 E.07365
M204 S1000
;TYPE:Overhang perimeter
G1 X123.675 Y122.275 E.00802
G1 X123.675 Y87.725 E1.16947
G1 X123.912 Y87.725 E.00802
M204 S800
;TYPE:External perimeter
G1 X126.088 Y87.725 E.07365
M204 S1000
;TYPE:Overhang perimeter
G1 X126.325 Y87.725 E.00802
G1 X126.325 Y89.05 E.04485
G1 X126.325 Y122.275 E1.12463
G1 X126.148 Y122.275 E.00599
;WIPE_START
G1 F8640
G1 X126.088 Y122.275 E-.01385
G1 X123.912 Y122.275 E-.50244
;WIPE_END
G1 E-.28371 F2100
G1 Z.8 F720
G1 X125.613 Y88.437 F10800
G1 Z.4 F720
G1 E.8 F2100
;TYPE:Solid infill
G1 F2811
G1 X124.387 Y88.437 E.0415
G1 X124.387 Y121.563 E1.12127
G1 X125.613 Y121.563 E.0415
G1 X125.613 Y88.641 E1.11437
M73 Q14 S12
G1 X125.205 Y88.846 E.01546
M73 P14 R12
;WIDTH:0.452318
G1 X124.795 Y88.846 E.01396
G1 X124.795 Y121.154 E1.09982
G1 X125.205 Y121.154 E.01396
G1 X125.205 Y89.049 E1.0929
M106 S170.85
;LAYER_CHANGE
;Z:0.6
;HEIGHT:0.2
;BEFORE_LAYER_CHANGE
G92 E0.0
;0.6


;WIPE_START
G1 F8640
G1 X125.205 Y92.514 E-.8
;WIPE_END
G1 Z.6 F720
;AFTER_LAYER_CHANGE
;0.6
; stop printing object machinePince-pinceBarre.stl id:0 copy 0
G1 Z1
G1 X134.935 Y92.514 F10800
G1 Z.6 F720
G1 E.8 F2100
;TYPE:Skirt/Brim
;WIDTH:0.42
G1 F3000
G1 X134.935 Y126.4 E1.06247
G1 X134.543 Y127.707 E.04278
G1 X133.497 Y128.584 E.0428
G1 X132.558 Y128.777 E.03006
G1 X117.442 Y128.777 E.47395
G1 X116.135 Y128.386 E.04277
G1 X115.259 Y127.34 E.04278
G1 X115.065 Y126.4 E.03009
G1 X115.065 Y83.6 E1.34196
G1 X115.457 Y82.293 E.04278
M73 P14 R11
G1 X116.503 Y81.416 E.0428
G1 X117.442 Y81.223 E.03006
G1 X132.558 Y81.223 E.47395
G1 X133.865 Y81.614 E.04277
G1 X134.741 Y82.66 E.04278
G1 X134.935 Y83.6 E.03009
G1 X134.935 Y92.454 E.27761
;WIPE_START
G1 F8640
G1 X134.935 Y92.514 E-.01385
G1 X134.935 Y95.919 E-.78615
;WIPE_END
G1 Z1 F720
; printing object machinePince-pinceBarre.stl id:0 copy 0
G1 X122.28 Y120.996 F10800
G1 Z.6 F720
G1 E.8 F2100
;TYPE:Support material
;WIDTH:0.35
G1 F3000
G1 X122.28 Y118.842 E.055
G1 X120.386 Y118.842 E.04836
G1 X120.386 Y116.535 E.05891
G1 X122.28 Y116.535 E.04836
G1 X122.28 Y114.228 E.05891
