; generated by PrusaSlicer 2.8.0+win64 on 2024-08-14 at 15:43:06 UTC


;
;
; 

; external perimeters extrusion width = 0.45mm
; perimeters extrusion width = 0.45mm
; infill extrusion width = 0.45mm
; solid infill extrusion width = 0.45mm
; top infill extrusion width = 0.40mm
; first layer extrusion width = 0.42mm

M73 P0 R3
M73 Q0 S3
M201 X1000 Y1000 Z200 E5000 ; sets maximum accelerations, mm/sec^2
M203 X200 Y200 Z12 E120 ; sets maximum feedrates, mm / sec
M204 S1250 T1250 ; sets acceleration (S) and retract acceleration (R), mm/sec^2
M205 X8.00 Y8.00 Z0.40 E4.50 ; sets the jerk limits, mm/sec
M205 S0 T0 ; sets the minimum extruding and travel feed rate, mm/sec

; printing object servo-fixationAxe.stl id:0 copy 0
; stop printing object servo-fixationAxe.stl id:0 copy 0

;TYPE:Custom
M862.3 P "MK3S" ; printer model check
M862.1 P0.4 ; nozzle diameter check
M115 U3.14.0 ; tell printer latest fw version
G90 ; use absolute coordinates
M83 ; extruder relative mode
M104 S215 ; set extruder temp
M140 S60 ; set bed temp
M190 S60 ; wait for bed temp
M109 S215 ; wait for extruder temp
G28 W ; home all without mesh bed level
G80 X116.873 Y96.8721 W16.2492 H16.2558 ; mesh bed levelling

G1 Z0.2 F720
G1 Y-3 F1000 ; go outside print area
G92 E0
G1 X60 E9 F1000 ; intro line
G1 X100 E12.5 F1000 ; intro line
M73 P1 R3
M73 Q1 S3

G92 E0
M221 S95

; Don't change E values below. Excessive value can damage the printer.
M907 E430 ; set extruder motor current
G21 ; set units to millimeters
G90 ; use absolute coordinates
M83 ; use relative distances for extrusion

M900 K0.05 ; Filament gcode LA 1.5
M900 K30 ; Filament gcode LA 1.0




M107
;LAYER_CHANGE
;Z:0.2
;HEIGHT:0.2
G1 E-.8 F2100
M73 P2 R3
M73 Q2 S3
G1 Z.6 F720
G1 X119.034 Y99.756 F10800
G1 Z.2 F720
M73 P3 R3
M73 Q3 S3
G1 E.8 F2100
M204 S800
;TYPE:Skirt/Brim
;WIDTH:0.42
G1 F1200
G1 X119.671 Y99.111 E.02842
G1 X120.368 Y98.549 E.02807
G1 X121.137 Y98.061 E.02856
G1 X122.273 Y97.542 E.03916
G1 X123.7 Y97.167 E.04626
G1 X124.601 Y97.07 E.02841
G1 X125.508 Y97.077 E.02844
G1 X126.737 Y97.254 E.03893
G1 X127.609 Y97.503 E.02843
G1 X128.446 Y97.849 E.0284
G1 X129.71 Y98.611 E.04628
G1 X131.011 Y99.82 E.05569
G1 X131.765 Y100.85 E.04002
G1 X132.416 Y102.174 E.04626
G1 X132.766 Y103.366 E.03895
G1 X132.901 Y104.262 E.02841
G1 X132.934 Y105.168 E.02843
G1 X132.863 Y106.072 E.02843
G1 X132.689 Y106.962 E.02843
G1 X132.194 Y108.352 E.04626
G1 X131.583 Y109.433 E.03893
G1 X131.035 Y110.155 E.02842
G1 X130.408 Y110.81 E.02843
G1 X129.239 Y111.711 E.04628
G1 X128.446 Y112.151 E.02843
G1 X127.619 Y112.493 E.02806
G1 X126.408 Y112.813 E.03927
G1 X125.508 Y112.923 E.02843
G1 X124.601 Y112.93 E.02844
G1 X123.7 Y112.833 E.02841
G1 X122.815 Y112.634 E.02844
G1 X121.44 Y112.099 E.04626
G1 X120.654 Y111.647 E.02843
G1 X119.952 Y111.13 E.02734
G1 X119.034 Y110.244 E.04
G1 X118.167 Y109.05 E.04627
M73 Q4 S3
G1 X117.75 Y108.245 E.02843
G1 X117.427 Y107.398 E.02842
G1 X117.087 Y105.678 E.05497
G1 X117.081 Y104.379 E.04073
G1 X117.33 Y102.936 E.04591
M73 P4 R3
G1 X117.75 Y101.755 E.0393
G1 X118.475 Y100.47 E.04626
G1 X118.997 Y99.804 E.02653
M204 S1000
G1 X118.997 Y99.804 F10800
G1 X119.297 Y100.089
M204 S800
G1 F1200
G1 X120.155 Y99.19 E.03896
G1 X121.333 Y98.384 E.04475
G1 X122.878 Y97.742 E.05246
G1 X124.065 Y97.495 E.03801
G1 X125.497 Y97.454 E.04492
G1 X126.641 Y97.618 E.03624
G1 X128.27 Y98.183 E.05406
G1 X129.497 Y98.923 E.04493
G1 X130.734 Y100.075 E.053
G1 X131.436 Y101.035 E.03729
G1 X132.068 Y102.321 E.04493
G1 X132.394 Y103.43 E.03624
G1 X132.557 Y105.146 E.05405
G1 X132.394 Y106.57 E.04494
G1 X131.846 Y108.205 E.05407
G1 X131.278 Y109.211 E.03622
G1 X130.161 Y110.525 E.05407
G1 X129.026 Y111.4 E.04493
G1 X127.482 Y112.142 E.05371
G1 X126.354 Y112.44 E.03658
G1 X124.634 Y112.554 E.05405
G1 X123.215 Y112.35 E.04495
G1 X121.597 Y111.756 E.05404
G1 X120.607 Y111.159 E.03625
G1 X119.326 Y110.005 E.05406
M73 Q5 S3
G1 X118.484 Y108.846 E.04492
G1 X117.782 Y107.271 E.05407
G1 X117.462 Y105.635 E.05227
G1 X117.455 Y104.422 E.03803
M73 P5 R3
G1 X117.778 Y102.746 E.05352
G1 X118.34 Y101.409 E.04547
G1 X118.965 Y100.437 E.03623
G1 X119.255 Y100.133 E.01317
M204 S1000
G1 X119.255 Y100.133 F10800
G1 X119.544 Y100.388
M204 S800
G1 F1200
G1 X120.196 Y99.652 E.03083
G1 X121.044 Y98.998 E.03358
G1 X122.506 Y98.259 E.05136
G1 X124.097 Y97.87 E.05135
G1 X125.486 Y97.831 E.04357
G1 X126.545 Y97.983 E.03354
G1 X128.094 Y98.516 E.05136
G1 X129.284 Y99.234 E.04358
G1 X130.456 Y100.33 E.05031
G1 X131.108 Y101.221 E.03462
G1 X131.721 Y102.468 E.04357
G1 X132.022 Y103.494 E.03353
G1 X132.181 Y105.125 E.05138
G1 X132.022 Y106.506 E.04359
G1 X131.499 Y108.058 E.05135
G1 X130.973 Y108.99 E.03355
G1 X129.914 Y110.24 E.05137
G1 X128.813 Y111.088 E.04357
G1 X127.335 Y111.795 E.05137
G1 X125.735 Y112.148 E.05137
G1 X124.666 Y112.178 E.03353
G1 X123.29 Y111.981 E.04358
G1 X121.753 Y111.413 E.05138
G1 X120.837 Y110.86 E.03355
G1 X119.618 Y109.766 E.05136
G1 X118.801 Y108.642 E.04357
M73 Q6 S3
G1 X118.137 Y107.144 E.05138
G1 X117.836 Y105.592 E.04957
G1 X117.83 Y104.465 E.03534
G1 X118.067 Y103.096 E.04356
M73 P6 R3
G1 X118.426 Y102.088 E.03355
G1 X119.11 Y100.878 E.04358
G1 X119.504 Y100.433 E.01864
M204 S1000
;WIPE_START
G1 F8640
G1 X119.544 Y100.388 E-.0139
G1 X120.196 Y99.652 E-.22704
G1 X121.044 Y98.998 E-.24727
G1 X122.249 Y98.389 E-.31179
;WIPE_END
G1 Z.6 F720
; printing object servo-fixationAxe.stl id:0 copy 0
G1 X121.354 Y105.777 F10800
G1 Z.2 F720
G1 E.8 F2100
M204 S800
;TYPE:Perimeter
;WIDTH:0.519075
G1 F1200
G1 X121.341 Y105.74 E.00155
;WIDTH:0.518588
G1 X121.33 Y105.467 E.01081
G1 X121.359 Y105.382 E.00355
G1 X121.273 Y105.139 E.0102
;WIDTH:0.496814
G1 X121.278 Y104.826 E.01181
;WIDTH:0.518408
G1 X121.36 Y104.617 E.00888
G1 X121.327 Y104.342 E.01095
;WIDTH:0.504601
G1 X121.417 Y104.007 E.01332
;WIDTH:0.518925
G1 X121.518 Y103.87 E.00674
G1 X121.527 Y103.659 E.00836
;WIDTH:0.495352
G1 X121.614 Y103.43 E.00922
;WIDTH:0.520496
G1 X121.754 Y103.223 E.00992
G1 X121.827 Y103.171 E.00356
G1 X121.886 Y102.957 E.00882
;WIDTH:0.493703
G1 X122.02 Y102.753 E.00915
;WIDTH:0.520757
G1 X122.563 Y102.174 E.03154
;WIDTH:0.519122
G1 X122.891 Y101.962 E.01546
G1 X123.164 Y101.752 E.01364
;WIDTH:0.518232
G1 X123.419 Y101.658 E.01074
G1 X123.509 Y101.659 E.00356
G1 X123.712 Y101.503 E.01012
;WIDTH:0.497118
G1 X124.012 Y101.41 E.01186
;WIDTH:0.518536
G1 X124.234 Y101.423 E.00879
G1 X124.488 Y101.307 E.01104
;WIDTH:0.504851
G1 X124.834 Y101.289 E.01331
;WIDTH:0.51928
G1 X124.996 Y101.343 E.00676
G1 X125.201 Y101.286 E.00843
;WIDTH:0.495412
G1 X125.547 Y101.319 E.01308
;WIDTH:0.520447
G1 X125.757 Y101.423 E.0093
G1 X126.082 Y101.433 E.01291
;WIDTH:0.520639
G1 X126.426 Y101.591 E.01504
G1 X126.485 Y101.66 E.00361
G1 X126.601 Y101.663 E.00461
;WIDTH:0.515592
G1 X126.932 Y101.812 E.01427
;WIDTH:0.519116
G1 X127.103 Y101.964 E.00906
G1 X127.146 Y102.042 E.00353
G1 X127.308 Y102.093 E.00672
;WIDTH:0.504853
G1 X127.627 Y102.373 E.0163
;WIDTH:0.518414
G1 X127.714 Y102.554 E.00794
G1 X127.902 Y102.674 E.00882
;WIDTH:0.500391
G1 X128.121 Y102.988 E.01456
;WIDTH:0.518238
G1 X128.163 Y103.172 E.00746
G1 X128.351 Y103.375 E.01094
;WIDTH:0.505021
G1 X128.475 Y103.699 E.01333
;WIDTH:0.51923
G1 X128.474 Y103.868 E.00669
G1 X128.631 Y104.161 E.01317
;WIDTH:0.520652
G1 X128.663 Y104.533 E.01483
G1 X128.634 Y104.618 E.00357
G1 X128.724 Y104.931 E.01294
;WIDTH:0.520502
G1 X128.68 Y105.306 E.01499
G1 X128.633 Y105.383 E.00358
G1 X128.666 Y105.495 E.00464
;WIDTH:0.515378
G1 X128.626 Y105.855 E.01423
;WIDTH:0.519027
G1 X128.535 Y106.064 E.00902
G1 X128.474 Y106.13 E.00356
G1 X128.475 Y106.3 E.00673
;WIDTH:0.504602
G1 X128.308 Y106.688 E.01622
;WIDTH:0.518712
G1 X128.162 Y106.827 E.00798
G1 X128.106 Y107.045 E.0089
;WIDTH:0.500443
G1 X127.876 Y107.35 E.01453
;WIDTH:0.518343
G1 X127.714 Y107.446 E.00744
G1 X127.578 Y107.689 E.01101
;WIDTH:0.504842
G1 X127.308 Y107.907 E.01333
;WIDTH:0.519107
G1 X127.147 Y107.959 E.0067
G1 X126.917 Y108.198 E.01313
;WIDTH:0.52079
G1 X126.574 Y108.342 E.01478
G1 X126.484 Y108.342 E.00358
G1 X126.214 Y108.525 E.01296
;WIDTH:0.520299
G1 X125.844 Y108.598 E.01497
G1 X125.756 Y108.578 E.00358
G1 X125.66 Y108.644 E.00462
;WIDTH:0.515049
G1 X125.305 Y108.717 E.01423
;WIDTH:0.519077
G1 X124.916 Y108.695 E.01543
G1 X124.57 Y108.705 E.0137
;WIDTH:0.518397
G1 X124.308 Y108.631 E.01076
G1 X124.236 Y108.578 E.00353
G1 X123.979 Y108.584 E.01016
;WIDTH:0.497005
G1 X123.682 Y108.483 E.01184
;WIDTH:0.518605
G1 X123.508 Y108.341 E.00888
G1 X123.236 Y108.286 E.01098
;WIDTH:0.5046
G1 X122.945 Y108.097 E.01332
;WIDTH:0.518919
G1 X122.846 Y107.959 E.00672
G1 X122.649 Y107.885 E.00833
;WIDTH:0.495351
G1 X122.458 Y107.732 E.00921
;WIDTH:0.520505
G1 X122.305 Y107.534 E.00994
G1 X122.278 Y107.449 E.00354
G1 X122.092 Y107.326 E.00886
;WIDTH:0.493702
G1 X121.939 Y107.136 E.00914
;WIDTH:0.520549
G1 X121.557 Y106.442 E.03146
;WIDTH:0.519075
G1 X121.457 Y106.065 E.01544
G1 X121.374 Y105.833 E.00976
M204 S1000
G1 X121.374 Y105.833 F10800
G1 X121.773 Y105.72
M204 S800
;TYPE:External perimeter
;WIDTH:0.419999
G1 F1200
G1 X121.739 Y105.629 E.00305
G1 X121.792 Y105.484 E.00484
G1 X122.012 Y105.323 E.00855
G1 X121.712 Y105.144 E.01095
G1 X121.677 Y104.963 E.00578
G1 X121.714 Y104.851 E.0037
G1 X121.995 Y104.684 E.01025
G1 X121.755 Y104.461 E.01027
G1 X121.758 Y104.27 E.00599
M73 Q7 S3
G1 X121.817 Y104.172 E.00359
G1 X122.126 Y104.068 E.01022
G1 X121.937 Y103.801 E.01026
G1 X121.982 Y103.611 E.00612
G1 X122.12 Y103.509 E.00538
G1 X122.386 Y103.497 E.00835
G1 X122.253 Y103.187 E.01058
G1 X122.338 Y103.013 E.00607
G1 X122.49 Y102.944 E.00523
G1 X122.755 Y102.987 E.00842
G1 X122.691 Y102.656 E.01057
G1 X122.814 Y102.5 E.00623
G1 X122.911 Y102.461 E.00328
G1 X123.223 Y102.559 E.01025
G1 X123.228 Y102.231 E.01029
G1 X123.369 Y102.107 E.00589
G1 X123.484 Y102.083 E.00368
G1 X123.769 Y102.243 E.01025
G1 X123.84 Y101.925 E.01022
G1 X124.003 Y101.833 E.00587
G1 X124.117 Y101.832 E.00357
G1 X124.294 Y101.965 E.00694
M73 P7 R3
G1 X124.366 Y102.055 E.00361
G1 X124.508 Y101.749 E.01058
G1 X124.688 Y101.696 E.00588
G1 X124.796 Y101.719 E.00346
G1 X124.94 Y101.886 E.00691
G1 X124.992 Y101.988 E.00359
G1 X125.196 Y101.719 E.01059
G1 X125.387 Y101.704 E.00601
G1 X125.487 Y101.752 E.00348
G1 X125.623 Y102.049 E.01024
G1 X125.87 Y101.833 E.01029
G1 X126.067 Y101.859 E.00623
G1 X126.152 Y101.925 E.00337
G1 X126.223 Y102.244 E.01025
G1 X126.511 Y102.085 E.01031
G1 X126.699 Y102.152 E.00626
G1 X126.766 Y102.232 E.00327
G1 X126.77 Y102.559 E.01025
G1 X127.083 Y102.463 E.01027
G1 X127.262 Y102.577 E.00665
G1 X127.3 Y102.747 E.00546
G1 X127.238 Y102.981 E.00759
G1 X127.565 Y102.952 E.01029
G1 X127.703 Y103.08 E.0059
G1 X127.738 Y103.191 E.00365
G1 X127.609 Y103.491 E.01024
G1 X127.934 Y103.529 E.01026
G1 X128.043 Y103.685 E.00597
G1 X128.054 Y103.795 E.00347
G1 X127.94 Y103.984 E.00692
G1 X127.859 Y104.066 E.00361
G1 X128.178 Y104.175 E.01057
G1 X128.251 Y104.352 E.006
G1 X128.238 Y104.458 E.00335
G1 X128.087 Y104.619 E.00692
G1 X127.991 Y104.682 E.0036
G1 X128.28 Y104.856 E.01058
G1 X128.314 Y105.048 E.00611
G1 X128.278 Y105.149 E.00336
G1 X127.997 Y105.316 E.01025
G1 X128.237 Y105.539 E.01027
G1 X128.231 Y105.739 E.00627
G1 X128.175 Y105.827 E.00327
G1 X127.866 Y105.932 E.01023
G1 X128.055 Y106.199 E.01026
G1 X128.001 Y106.405 E.00668
G1 X127.853 Y106.493 E.0054
G1 X127.606 Y106.503 E.00775
G1 X127.737 Y106.81 E.01047
G1 X127.659 Y106.98 E.00586
G1 X127.564 Y107.049 E.00368
G1 X127.238 Y107.019 E.01026
G1 X127.302 Y107.339 E.01023
G1 X127.187 Y107.492 E.006
G1 X127.086 Y107.537 E.00347
G1 X126.872 Y107.486 E.0069
G1 X126.769 Y107.434 E.00362
G1 X126.764 Y107.771 E.01057
G1 X126.619 Y107.895 E.00598
G1 X126.514 Y107.916 E.00336
G1 X126.314 Y107.822 E.00693
G1 X126.224 Y107.75 E.00361
G1 X126.147 Y108.079 E.01059
G1 X125.976 Y108.171 E.00609
G1 X125.869 Y108.167 E.00336
G1 X125.623 Y107.951 E.01026
G1 X125.487 Y108.249 E.01027
G1 X125.293 Y108.305 E.00633
G1 X125.142 Y108.237 E.00519
G1 X125 Y108.011 E.00837
G1 X124.797 Y108.281 E.01059
G1 X124.588 Y108.292 E.00656
G1 X124.466 Y108.196 E.00487
G1 X124.374 Y107.947 E.00832
G1 X124.12 Y108.168 E.01056
G1 X123.936 Y108.145 E.00581
G1 X123.844 Y108.079 E.00355
G1 X123.781 Y107.868 E.0069
G1 X123.774 Y107.753 E.00361
G1 X123.479 Y107.916 E.01057
G1 X123.301 Y107.854 E.00591
G1 X123.226 Y107.768 E.00358
G1 X123.222 Y107.441 E.01025
G1 X122.91 Y107.538 E.01024
G1 X122.744 Y107.438 E.00608
G1 X122.689 Y107.275 E.00539
G1 X122.761 Y107.018 E.00837
G1 X122.424 Y107.048 E.01061
G1 X122.285 Y106.914 E.00605
G1 X122.266 Y106.748 E.00524
G1 X122.39 Y106.509 E.00844
G1 X122.055 Y106.469 E.01058
G1 X121.944 Y106.304 E.00624
G1 X121.963 Y106.14 E.00518
G1 X122.133 Y105.934 E.00837
G1 X121.814 Y105.825 E.01057
G1 X121.795 Y105.776 E.00165
M204 S1000
;WIPE_START
G1 F8640
G1 X121.773 Y105.72 E-.01389
G1 X121.739 Y105.629 E-.02243
G1 X121.792 Y105.484 E-.03565
G1 X122.012 Y105.323 E-.06295
G1 X121.712 Y105.144 E-.08066
G1 X121.677 Y104.963 E-.04257
G1 X121.714 Y104.851 E-.02724
G1 X121.995 Y104.684 E-.07548
G1 X121.755 Y104.461 E-.07565
G1 X121.758 Y104.27 E-.04411
G1 X121.817 Y104.172 E-.02641
G1 X122.126 Y104.068 E-.07528
G1 X121.937 Y103.801 E-.07553
G1 X121.982 Y103.611 E-.04509
G1 X122.12 Y103.509 E-.03962
G1 X122.368 Y103.498 E-.05744
;WIPE_END
G1 Z.6 F720
G1 X128.367 Y107.449 F10800
G1 Z.2 F720
G1 E.8 F2100
M204 S800
;TYPE:Perimeter
;WIDTH:0.496988
G1 F1200
G1 X128.263 Y107.595 E.00677
;WIDTH:0.492185
G1 X127.915 Y107.985 E.01953
G1 X127.636 Y108.228 E.01382
G1 X127.183 Y108.556 E.02089
M73 Q8 S3
;WIDTH:0.492717
G1 X126.89 Y108.714 E.01245
G1 X126.33 Y108.956 E.02282
;WIDTH:0.515049
G1 X125.823 Y109.081 E.0205
G1 X125.318 Y109.163 E.02008
;WIDTH:0.48921
G1 X124.528 Y109.147 E.02932
;WIDTH:0.500349
G1 X123.996 Y109.047 E.02059
G1 X123.494 Y108.893 E.01997
;WIDTH:0.497005
G1 X123.036 Y108.686 E.01898
;WIDTH:0.518919
G1 X122.547 Y108.359 E.02328
G1 X122.149 Y108.05 E.01994
;WIDTH:0.488179
G1 X121.647 Y107.493 E.02776
;WIDTH:0.515043
G1 X121.37 Y107.048 E.02058
M73 P8 R3
G1 X121.136 Y106.592 E.02012
;WIDTH:0.489212
G1 X120.908 Y105.836 E.0293
;WIDTH:0.500443
G1 X120.838 Y105.298 E.02064
G1 X120.83 Y104.775 E.0199
;WIDTH:0.496814
G1 X120.884 Y104.275 E.01898
;WIDTH:0.518925
G1 X121.045 Y103.709 E.02329
G1 X121.215 Y103.234 E.01997
;WIDTH:0.48818
G1 X121.59 Y102.585 E.02775
;WIDTH:0.515365
G1 X121.928 Y102.184 E.0206
G1 X122.29 Y101.82 E.02017
;WIDTH:0.48915
G1 X122.939 Y101.369 E.02932
;WIDTH:0.496799
G1 X123.47 Y101.117 E.02218
;WIDTH:0.497118
G1 X123.948 Y100.962 E.01898
G1 X124.615 Y100.846 E.02557
;WIDTH:0.495412
G1 X125.175 Y100.836 E.02107
G1 X125.649 Y100.883 E.01792
;WIDTH:0.492669
G1 X126.195 Y101.003 E.02091
;WIDTH:0.493743
G1 X126.509 Y101.117 E.01252
G1 X127.018 Y101.35 E.02098
;WIDTH:0.495386
G1 X127.3 Y101.528 E.01255
G1 X127.813 Y101.922 E.02434
;WIDTH:0.496981
G1 X128.218 Y102.349 E.02222
G1 X128.474 Y102.695 E.01625
;WIDTH:0.492192
G1 X128.737 Y103.146 E.0195
G1 X128.882 Y103.486 E.01381
G1 X129.054 Y104.018 E.02089
;WIDTH:0.515359
G1 X129.13 Y104.512 E.01963
G1 X129.172 Y105.013 E.01975
;WIDTH:0.515378
G1 X129.13 Y105.488 E.01873
G1 X129.011 Y106.118 E.02519
;WIDTH:0.495423
G1 X128.795 Y106.726 E.02428
;WIDTH:0.496988
G1 X128.513 Y107.245 E.0223
G1 X128.402 Y107.4 E.0072
M204 S1000
G1 X128.402 Y107.4 F10800
G1 X128.701 Y107.692
M204 S800
;TYPE:External perimeter
;WIDTH:0.419999
G1 F1200
G1 X128.524 Y107.932 E.00935
G1 X128.167 Y108.315 E.01642
G1 X127.768 Y108.655 E.01644
G1 X127.334 Y108.947 E.0164
G1 X126.867 Y109.188 E.01648
G1 X126.379 Y109.374 E.01637
G1 X125.87 Y109.503 E.01646
G1 X125.329 Y109.574 E.01711
G1 X124.828 Y109.584 E.01571
G1 X124.307 Y109.535 E.01641
G1 X123.794 Y109.427 E.01644
G1 X123.297 Y109.261 E.01643
G1 X122.823 Y109.04 E.0164
G1 X122.376 Y108.766 E.01644
G1 X121.965 Y108.443 E.01639
G1 X121.591 Y108.074 E.01647
G1 X121.263 Y107.667 E.01639
G1 X120.983 Y107.223 E.01646
G1 X120.749 Y106.731 E.01708
G1 X120.584 Y106.257 E.01574
G1 X120.47 Y105.746 E.01642
G1 X120.414 Y105.225 E.01643
