; generated by PrusaSlicer 2.7.4+win64 on 2024-06-19 at 07:31:10 UTC


;
;
; 

; external perimeters extrusion width = 0.45mm
; perimeters extrusion width = 0.45mm
; infill extrusion width = 0.45mm
; solid infill extrusion width = 0.45mm
; top infill extrusion width = 0.40mm
; first layer extrusion width = 0.42mm

M73 P0 R37
M73 Q0 S38
M201 X1000 Y1000 Z200 E5000 ; sets maximum accelerations, mm/sec^2
M203 X200 Y200 Z12 E120 ; sets maximum feedrates, mm / sec
M204 S1250 T1250 ; sets acceleration (S) and retract acceleration (R), mm/sec^2
M205 X8.00 Y8.00 Z0.40 E4.50 ; sets the jerk limits, mm/sec
M205 S0 T0 ; sets the minimum extruding and travel feed rate, mm/sec

; printing object visABille-engrenageMoteur.stl id:0 copy 0
; stop printing object visABille-engrenageMoteur.stl id:0 copy 0

;TYPE:Custom
M862.3 P "MK3S" ; printer model check
M862.1 P0.4 ; nozzle diameter check
M115 U3.12.1 ; tell printer latest fw version
G90 ; use absolute coordinates
M83 ; extruder relative mode
M104 S215 ; set extruder temp
M140 S60 ; set bed temp
M190 S60 ; wait for bed temp
M109 S215 ; wait for extruder temp
G28 W ; home all without mesh bed level
G80 ; mesh bed leveling

G1 Z0.2 F720
G1 Y-3 F1000 ; go outside print area
G92 E0
G1 X60 E9 F1000 ; intro line
G1 X100 E12.5 F1000 ; intro line
M73 Q0 S37

G92 E0
M221 S95

; Don't change E values below. Excessive value can damage the printer.
M907 E430 ; set extruder motor current
G21 ; set units to millimeters
G90 ; use absolute coordinates
M83 ; use relative distances for extrusion
M900 K0.05 ; Filament gcode LA 1.5
M900 K30 ; Filament gcode LA 1.0
M107
;LAYER_CHANGE
;Z:0.2
;HEIGHT:0.2
G1 E-.8 F2100
G1 Z.6 F720
G1 X108.612 Y92.042 F10800
G1 Z.2 F720
G1 E.8 F2100
M204 S800
;TYPE:Skirt/Brim
;WIDTH:0.42
G1 F1200
G1 X117.74 Y85.41 E.35377
G1 X119.359 Y84.884 E.05337
G1 X130.641 Y84.884 E.35374
G1 X132.26 Y85.41 E.05337
G1 X141.388 Y92.042 E.35377
G1 X142.388 Y93.419 E.05336
G1 X145.875 Y104.149 E.35375
G1 X145.875 Y105.851 E.05337
G1 X142.388 Y116.581 E.35375
G1 X141.388 Y117.958 E.05336
G1 X132.26 Y124.59 E.35377
G1 X130.641 Y125.116 E.05337
G1 X119.359 Y125.116 E.35374
G1 X117.74 Y124.59 E.05337
G1 X108.612 Y117.958 E.35377
G1 X107.612 Y116.581 E.05336
G1 X104.125 Y105.851 E.35375
G1 X104.125 Y104.149 E.05337
G1 X107.612 Y93.419 E.35375
G1 X108.577 Y92.09 E.0515
M204 S1000
G1 X108.577 Y92.09 F10800
G1 X108.834 Y92.347
M204 S800
G1 F1200
G1 X117.962 Y85.715 E.35377
G1 X119.359 Y85.261 E.04606
G1 X130.641 Y85.261 E.35374
G1 X132.038 Y85.715 E.04606
G1 X141.166 Y92.347 E.35377
G1 X142.03 Y93.535 E.04606
G1 X145.516 Y104.265 E.35374
G1 X145.516 Y105.735 E.04609
G1 X142.03 Y116.465 E.35374
G1 X141.166 Y117.653 E.04606
G1 X132.038 Y124.285 E.35377
G1 X130.641 Y124.739 E.04606
G1 X119.359 Y124.739 E.35374
G1 X117.962 Y124.285 E.04606
G1 X108.834 Y117.653 E.35377
G1 X107.97 Y116.465 E.04606
G1 X104.484 Y105.735 E.35374
G1 X104.484 Y104.265 E.04609
G1 X107.97 Y93.535 E.35374
G1 X108.798 Y92.395 E.04418
M204 S1000
;WIPE_START
G1 F8640
G1 X108.834 Y92.347 E-.01385
G1 X111.588 Y90.346 E-.78615
;WIPE_END
G1 Z.6 F720
; printing object visABille-engrenageMoteur.stl id:0 copy 0
G1 X113.294 Y101.878 F10800
G1 Z.2 F720
G1 E.8 F2100
M204 S800
;TYPE:Perimeter
;WIDTH:0.419999
G1 F1200
G1 X113.331 Y101.824 E.00205
G1 X113.579 Y101.223 E.02039
G1 X113.689 Y100.668 E.01774
G1 X113.718 Y100.347 E.01011
G1 X113.695 Y99.792 E.01742
G1 X113.5 Y99.026 E.02478
G1 X113.233 Y98.48 E.01906
G1 X112.876 Y97.944 E.02019
G1 X112.482 Y97.45 E.01981
G1 X111.762 Y96.653 E.03368
G1 X111.397 Y96.08 E.0213
G1 X111.191 Y95.583 E.01687
G1 X111.036 Y94.855 E.02334
G1 X111.457 Y94.791 E.01335
G1 X111.981 Y94.783 E.01643
G1 X112.59 Y94.88 E.01934
G1 X113.054 Y95.026 E.01525
G1 X113.734 Y95.329 E.02334
G1 X115.242 Y95.839 E.04991
G1 X115.889 Y95.912 E.02041
G1 X116.684 Y95.831 E.02506
G1 X117.427 Y95.572 E.02467
G1 X117.973 Y95.237 E.02008
G1 X118.439 Y94.816 E.01969
G1 X118.75 Y94.416 E.01589
G1 X119.11 Y93.716 E.02468
G1 X119.276 Y93.082 E.02055
G1 X119.339 Y92.165 E.02882
G1 X119.311 Y91.534 E.0198
G1 X119.196 Y90.466 E.03368
G1 X119.238 Y89.788 E.0213
G1 X119.363 Y89.264 E.01689
G1 X119.666 Y88.585 E.02331
G1 X120.054 Y88.786 E.0137
G1 X120.37 Y89.002 E.012
G1 X120.766 Y89.362 E.01678
G1 X121.198 Y89.909 E.02185
G1 X121.57 Y90.553 E.02332
G1 X122.486 Y91.849 E.04976
G1 X122.959 Y92.285 E.02017
G1 X123.516 Y92.627 E.02049
G1 X124.15 Y92.863 E.02121
G1 X124.679 Y92.94 E.01676
G1 X125.164 Y92.959 E.01522
G1 X125.846 Y92.864 E.02159
G1 X126.351 Y92.69 E.01675
G1 X126.638 Y92.531 E.01029
G1 X127.128 Y92.217 E.01825
G1 X127.565 Y91.794 E.01907
G1 X127.964 Y91.288 E.0202
G1 X128.312 Y90.762 E.01978
G1 X128.847 Y89.831 E.03367
G1 X129.234 Y89.362 E.01907
G1 X129.618 Y89.012 E.01629
G1 X129.921 Y88.809 E.01144
G1 X130.34 Y88.597 E.01472
G1 X130.461 Y88.84 E.00851
G1 X130.661 Y89.351 E.01721
G1 X130.767 Y89.86 E.0163
G1 X130.794 Y90.556 E.02184
M73 Q1 S37
G1 X130.717 Y91.296 E.02333
G1 X130.697 Y92.889 E.04995
G1 X130.85 Y93.584 E.02231
G1 X131.058 Y94.096 E.01733
G1 X131.327 Y94.526 E.0159
G1 X131.86 Y95.104 E.02465
G1 X132.397 Y95.478 E.02052
G1 X133.135 Y95.785 E.02506
M73 P1 R37
G1 X133.911 Y95.911 E.02465
G1 X134.566 Y95.874 E.02057
G1 X135.458 Y95.65 E.02884
G1 X136.049 Y95.428 E.01979
G1 X137.029 Y94.989 E.03367
G1 X137.617 Y94.837 E.01904
G1 X137.962 Y94.787 E.01093
G1 X138.472 Y94.786 E.01599
G1 X138.964 Y94.855 E.01558
G1 X138.894 Y95.275 E.01335
G1 X138.785 Y95.653 E.01233
G1 X138.565 Y96.141 E.01678
G1 X138.177 Y96.72 E.02185
G1 X137.68 Y97.274 E.02334
G1 X136.731 Y98.545 E.04973
G1 X136.462 Y99.13 E.02019
G1 X136.309 Y99.766 E.02051
G1 X136.291 Y100.565 E.02506
G1 X136.462 Y101.346 E.02507
G1 X136.811 Y102.065 E.02506
G1 X137.31 Y102.674 E.02469
G1 X137.815 Y103.073 E.02018
G1 X138.352 Y103.358 E.01906
G1 X138.957 Y103.582 E.02023
G1 X139.565 Y103.75 E.01978
G1 X140.616 Y103.971 E.03367
G1 X141.181 Y104.194 E.01905
G1 X141.489 Y104.357 E.01093
G1 X141.903 Y104.656 E.01601
G1 X142.26 Y105 E.01554
G1 X141.957 Y105.299 E.01335
G1 X141.645 Y105.541 E.01238
G1 X141.181 Y105.806 E.01675
G1 X140.527 Y106.047 E.02185
G1 X139.799 Y106.202 E.02334
G1 X138.279 Y106.676 E.04992
G1 X137.723 Y106.988 E.01999
G1 X137.243 Y107.392 E.01967
G1 X136.917 Y107.78 E.01589
G1 X136.528 Y108.479 E.02508
G1 X136.315 Y109.236 E.02466
G1 X136.276 Y109.876 E.0201
G1 X136.336 Y110.406 E.01672
G1 X136.417 Y110.683 E.00905
G1 X136.636 Y111.277 E.01985
G1 X137.124 Y112.056 E.02882
G1 X137.518 Y112.55 E.01981
G1 X138.238 Y113.347 E.03368
G1 X138.565 Y113.859 E.01905
G1 X138.718 Y114.172 E.01092
G1 X138.877 Y114.656 E.01597
G1 X138.964 Y115.145 E.01557
G1 X138.543 Y115.209 E.01335
G1 X138.149 Y115.221 E.01236
G1 X137.617 Y115.163 E.01678
G1 X136.946 Y114.974 E.02186
G1 X136.266 Y114.671 E.02334
G1 X134.771 Y114.163 E.04951
G1 X134.233 Y114.091 E.01702
G1 X133.957 Y114.097 E.00866
G1 X133.391 Y114.161 E.01786
G1 X132.707 Y114.368 E.02241
G1 X132.125 Y114.693 E.0209
G1 X131.941 Y114.841 E.0074
G1 X131.448 Y115.316 E.02147
G1 X131.143 Y115.753 E.01671
G1 X131.004 Y116.051 E.01031
G1 X130.793 Y116.589 E.01812
G1 X130.687 Y117.192 E.0192
G1 X130.661 Y117.835 E.02018
G1 X130.689 Y118.466 E.0198
G1 X130.804 Y119.534 E.03368
G1 X130.767 Y120.14 E.01904
G1 X130.707 Y120.485 E.01098
G1 X130.551 Y120.969 E.01594
G1 X130.334 Y121.415 E.01555
G1 X129.956 Y121.219 E.01335
G1 X129.63 Y120.998 E.01235
G1 X129.234 Y120.638 E.01678
G1 X128.802 Y120.091 E.02185
G1 X128.293 Y119.207 E.03198
G1 X127.936 Y118.672 E.02017
G1 X127.512 Y118.148 E.02113
G1 X126.977 Y117.674 E.02241
G1 X126.484 Y117.373 E.01811
G1 X125.859 Y117.14 E.02091
G1 X125.547 Y117.087 E.00992
G1 X124.933 Y117.03 E.01933
G1 X124.153 Y117.136 E.02468
G1 X123.649 Y117.31 E.01672
G1 X123.362 Y117.469 E.01029
G1 X122.872 Y117.783 E.01825
G1 X122.435 Y118.206 E.01907
G1 X122.036 Y118.712 E.0202
G1 X121.688 Y119.238 E.01978
G1 X121.198 Y120.091 E.03084
G1 X120.957 Y120.407 E.01246
G1 X120.517 Y120.881 E.02028
G1 X120.095 Y121.188 E.01636
G1 X119.666 Y121.415 E.01522
G1 X119.476 Y121.035 E.01332
G1 X119.306 Y120.539 E.01644
G1 X119.21 Y119.93 E.01933
G1 X119.206 Y119.444 E.01524
G1 X119.283 Y118.704 E.02333
G1 X119.303 Y117.111 E.04995
G1 X119.178 Y116.486 E.01998
G1 X118.983 Y115.989 E.01674
G1 X118.784 Y115.665 E.01192
G1 X118.472 Y115.225 E.01691
G1 X117.887 Y114.7 E.02465
G1 X117.317 Y114.378 E.02053
G1 X116.553 Y114.142 E.02507
G1 X115.765 Y114.091 E.02476
G1 X115.163 Y114.176 E.01906
G1 X114.542 Y114.35 E.02022
G1 X113.951 Y114.572 E.01979
G1 X112.971 Y115.011 E.03367
G1 X112.383 Y115.163 E.01904
G1 X112.038 Y115.213 E.01093
G1 X111.528 Y115.214 E.01599
G1 X111.037 Y115.145 E.01555
G1 X111.106 Y114.726 E.01331
G1 X111.215 Y114.347 E.01236
G1 X111.435 Y113.859 E.01678
G1 X111.823 Y113.28 E.02185
G1 X112.32 Y112.726 E.02334
G1 X113.272 Y111.45 E.04992
G1 X113.542 Y110.857 E.02043
G1 X113.695 Y110.209 E.02088
G1 X113.712 Y109.975 E.00736
G1 X113.709 Y109.435 E.01693
G1 X113.538 Y108.654 E.02507
G1 X113.188 Y107.934 E.0251
G1 X112.69 Y107.326 E.02464
G1 X112.185 Y106.927 E.02018
G1 X111.648 Y106.642 E.01906
G1 X111.043 Y106.418 E.02023
G1 X110.435 Y106.25 E.01978
G1 X109.384 Y106.029 E.03367
G1 X108.752 Y105.78 E.0213
G1 X108.292 Y105.498 E.01692
G1 X107.74 Y105 E.02331
G1 X108.051 Y104.693 E.0137
G1 X108.354 Y104.459 E.012
G1 X108.819 Y104.194 E.01678
G1 X109.473 Y103.953 E.02185
G1 X110.201 Y103.798 E.02334
G1 X111.721 Y103.324 E.04992
G1 X112.287 Y103.003 E.0204
G1 X112.883 Y102.47 E.02507
G1 X113.259 Y101.928 E.02068
M204 S1000
G1 X113.259 Y101.928 F10800
G1 X112.998 Y101.645
M204 S800
;TYPE:External perimeter
G1 F1200
G1 X113.21 Y101.145 E.01703
G1 X113.343 Y100.452 E.02213
G1 X113.328 Y99.878 E.018
G1 X113.16 Y99.189 E.02224
G1 X112.918 Y98.688 E.01745
G1 X112.58 Y98.178 E.01918
G1 X112.203 Y97.703 E.01901
G1 X111.461 Y96.883 E.03467
G1 X111.117 Y96.343 E.02007
G1 X110.921 Y95.925 E.01448
G1 X110.734 Y95.336 E.01938
G1 X110.643 Y94.569 E.02422
G1 X110.907 Y94.493 E.00861
G1 X111.457 Y94.41 E.01744
G1 X112.009 Y94.405 E.01731
G1 X112.649 Y94.507 E.02032
G1 X113.208 Y94.682 E.01837
G1 X113.858 Y94.972 E.02232
G1 X115.292 Y95.465 E.04754
G1 X115.858 Y95.537 E.01789
G1 X116.566 Y95.473 E.02229
G1 X117.138 Y95.284 E.01889
G1 X117.571 Y95.049 E.01545
G1 X118.059 Y94.659 E.01959
G1 X118.418 Y94.238 E.01735
G1 X118.747 Y93.613 E.02215
G1 X118.9 Y93.055 E.01814
G1 X118.962 Y92.181 E.02747
G1 X118.936 Y91.574 E.01905
G1 X118.818 Y90.475 E.03466
G1 X118.857 Y89.837 E.02004
G1 X118.975 Y89.251 E.01874
G1 X119.134 Y88.806 E.01482
G1 X119.516 Y88.122 E.02456
G1 X119.774 Y88.216 E.00861
G1 X120.228 Y88.451 E.01603
G1 X120.618 Y88.717 E.0148
G1 X121.057 Y89.122 E.01873
G1 X121.525 Y89.721 E.02383
G1 X121.88 Y90.338 E.02232
G1 X122.746 Y91.576 E.04737
G1 X123.163 Y91.968 E.01794
G1 X123.648 Y92.274 E.01798
G1 X124.316 Y92.517 E.02229
G1 X125.119 Y92.584 E.02526
G1 X125.723 Y92.508 E.01909
G1 X126.228 Y92.334 E.01675
G1 X126.868 Y91.943 E.02352
G1 X127.27 Y91.559 E.01743
G1 X127.65 Y91.08 E.01917
G1 X127.985 Y90.574 E.01903
G1 X128.536 Y89.615 E.03468
G1 X129.009 Y89.042 E.0233
G1 X129.426 Y88.68 E.01731
G1 X129.89 Y88.38 E.01732
G1 X130.486 Y88.124 E.02034
G1 X130.799 Y88.671 E.01976
G1 X131.029 Y89.266 E.02
G1 X131.143 Y89.837 E.01826
G1 X131.169 Y90.596 E.02381
G1 X131.094 Y91.304 E.02232
G1 X131.068 Y92.821 E.04757
G1 X131.174 Y93.377 E.01775
G1 X131.368 Y93.874 E.01673
G1 X131.608 Y94.275 E.01465
G1 X132.082 Y94.799 E.02215
G1 X132.548 Y95.133 E.01798
G1 X133.201 Y95.414 E.02229
G1 X133.897 Y95.534 E.02214
G1 X134.475 Y95.508 E.01814
G1 X135.326 Y95.296 E.0275
G1 X135.895 Y95.084 E.01904
G1 X136.904 Y94.632 E.03467
G1 X137.54 Y94.467 E.0206
G1 X138.052 Y94.406 E.01617
G1 X138.599 Y94.418 E.01715
G1 X139.357 Y94.569 E.02423
G1 X139.348 Y94.823 E.00797
G1 X139.266 Y95.336 E.01629
G1 X139.132 Y95.8 E.01514
G1 X138.883 Y96.344 E.01876
G1 X138.457 Y96.973 E.02382
G1 X137.98 Y97.502 E.02233
G1 X137.071 Y98.708 E.04735
G1 X136.827 Y99.225 E.01792
G1 X136.685 Y99.782 E.01802
G1 X136.661 Y100.492 E.02227
G1 X136.804 Y101.188 E.02228
G1 X137.107 Y101.831 E.02229
G1 X137.549 Y102.382 E.02215
G1 X137.995 Y102.742 E.01797
G1 X138.485 Y103.005 E.01744
G1 X139.058 Y103.219 E.01918
G1 X139.642 Y103.381 E.019
G1 X140.724 Y103.609 E.03467
G1 X141.336 Y103.85 E.02062
G1 X141.787 Y104.101 E.01618
G1 X142.222 Y104.433 E.01716
G1 X142.59 Y104.8 E.0163
G1 X142.746 Y105 E.00795
G1 X142.59 Y105.2 E.00795
G1 X142.222 Y105.567 E.0163
G1 X141.839 Y105.865 E.01522
G1 X141.319 Y106.157 E.0187
G1 X140.605 Y106.416 E.02381
G1 X139.908 Y106.563 E.02233
G1 X138.458 Y107.008 E.04756
G1 X137.962 Y107.28 E.01774
G1 X137.549 Y107.618 E.01673
G1 X137.242 Y107.97 E.01464
G1 X136.889 Y108.587 E.02229
G1 X136.691 Y109.265 E.02215
G1 X136.651 Y109.833 E.01785
G1 X136.711 Y110.364 E.01676
G1 X136.956 Y111.078 E.02367
G1 X137.42 Y111.822 E.02749
G1 X137.797 Y112.297 E.01901
G1 X138.539 Y113.117 E.03467
G1 X138.892 Y113.671 E.0206
G1 X139.109 Y114.14 E.0162
G1 X139.266 Y114.664 E.01715
G1 X139.357 Y115.431 E.02422
G1 X139.113 Y115.501 E.00796
G1 X138.599 Y115.582 E.01631
G1 X138.117 Y115.597 E.01512
G1 X137.522 Y115.528 E.01878
G1 X136.792 Y115.318 E.02382
G1 X136.142 Y115.028 E.02232
G1 X134.714 Y114.536 E.04736
G1 X134.147 Y114.463 E.01792
G1 X133.492 Y114.524 E.02063
G1 X132.891 Y114.697 E.01961
G1 X132.198 Y115.118 E.02542
G1 X131.757 Y115.532 E.01897
G1 X131.432 Y116.004 E.01797
G1 X131.164 Y116.658 E.02216
G1 X131.064 Y117.208 E.01753
G1 X131.038 Y117.819 E.01917
G1 X131.064 Y118.426 E.01905
G1 X131.182 Y119.525 E.03466
G1 X131.142 Y120.181 E.02061
G1 X131.042 Y120.689 E.01623
G1 X130.861 Y121.204 E.01712
G1 X130.484 Y121.878 E.02421
G1 X130.245 Y121.791 E.00797
G1 X129.782 Y121.554 E.01631
G1 X129.383 Y121.283 E.01512
G1 X128.943 Y120.878 E.01875
G1 X128.475 Y120.279 E.02383
G1 X127.979 Y119.416 E.03121
G1 X127.641 Y118.907 E.01916
G1 X127.252 Y118.422 E.01949
G1 X126.837 Y118.032 E.01786
G1 X126.352 Y117.726 E.01798
G1 X125.728 Y117.494 E.02087
G1 X124.978 Y117.404 E.02368
G1 X124.277 Y117.492 E.02215
G1 X123.772 Y117.666 E.01675
G1 X123.132 Y118.057 E.02352
G1 X122.73 Y118.441 E.01743
G1 X122.35 Y118.92 E.01917
G1 X122.015 Y119.426 E.01903
G1 X121.464 Y120.385 E.03468
G1 X121.046 Y120.892 E.0206
G1 X120.644 Y121.26 E.01709
G1 X120.218 Y121.554 E.01623
G1 X119.516 Y121.878 E.02424
G1 X119.362 Y121.65 E.00863
G1 X119.113 Y121.153 E.01743
G1 X118.938 Y120.629 E.01732
G1 X118.837 Y119.989 E.02032
G1 X118.831 Y119.404 E.01834
G1 X118.906 Y118.696 E.02232
G1 X118.932 Y117.179 E.04757
G1 X118.826 Y116.623 E.01775
G1 X118.614 Y116.09 E.01799
G1 X118.216 Y115.501 E.02229
G1 X117.695 Y115.024 E.02215
G1 X117.198 Y114.736 E.01801
G1 X116.522 Y114.518 E.02227
G1 X115.814 Y114.465 E.02226
G1 X115.263 Y114.54 E.01744
G1 X114.674 Y114.704 E.01917
G1 X114.105 Y114.916 E.01904
G1 X113.096 Y115.368 E.03467
G1 X112.46 Y115.533 E.0206
G1 X111.948 Y115.594 E.01617
G1 X111.4 Y115.582 E.01719
G1 X110.643 Y115.431 E.0242
G1 X110.652 Y115.158 E.00856
G1 X110.734 Y114.664 E.0157
G1 X110.868 Y114.2 E.01514
G1 X111.117 Y113.656 E.01876
G1 X111.543 Y113.027 E.02382
G1 X112.02 Y112.498 E.02233
G1 X112.932 Y111.287 E.04753
G1 X113.175 Y110.77 E.01791
G1 X113.333 Y110.082 E.02213
G1 X113.339 Y109.508 E.018
G1 X113.196 Y108.812 E.02228
G1 X112.893 Y108.169 E.02229
G1 X112.451 Y107.618 E.02215
G1 X112.005 Y107.258 E.01797
G1 X111.515 Y106.995 E.01744
G1 X110.942 Y106.781 E.01918
G1 X110.357 Y106.619 E.01903
G1 X109.276 Y106.391 E.03464
G1 X108.681 Y106.157 E.02005
G1 X108.16 Y105.864 E.01874
G1 X107.786 Y105.575 E.01482
G1 X107.254 Y105 E.02456
G1 X107.423 Y104.784 E.0086
G1 X107.786 Y104.425 E.01601
G1 X108.16 Y104.136 E.01482
G1 X108.681 Y103.843 E.01874
G1 X109.395 Y103.584 E.02381
G1 X110.092 Y103.437 E.02233
G1 X111.542 Y102.992 E.04756
G1 X112.041 Y102.717 E.01786
G1 X112.577 Y102.25 E.02229
G1 X112.969 Y101.697 E.02125
M204 S1000
;WIPE_START
G1 F8640
G1 X112.998 Y101.645 E-.01375
G1 X113.21 Y101.145 E-.1254
G1 X113.343 Y100.452 E-.16294
